<?xml version='1.0' encoding='UTF-8'?>
<map version="1.10" tiledversion="1.10.2" orientation="orthogonal" renderorder="right-down" width="20" height="11" tilewidth="16" tileheight="16" infinite="0" nextlayerid="6" nextobjectid="5">
 <tileset firstgid="1" name="floor" tilewidth="16" tileheight="16" tilecount="572" columns="22">
  <image source="../../../gfx/tiles/overworld/tilesetfloor.png" width="352" height="416" />
 </tileset>
 <tileset firstgid="573" name="nature" tilewidth="16" tileheight="16" tilecount="504" columns="24">
  <image source="../../../gfx/tiles/overworld/tilesetnature.png" width="384" height="336" />
 </tileset>
 <layer id="1" name="ground" width="20" height="11">
  <data encoding="csv">
265,265,265,265,265,265,265,265,265,265,265,265,265,265,265,265,265,265,265,265,
265,265,265,265,265,265,265,265,265,265,265,265,265,265,265,265,265,265,265,265,
265,265,265,265,265,265,265,265,265,265,265,265,265,265,265,265,265,265,265,265,
265,265,265,265,265,265,265,265,265,265,265,265,265,265,265,265,265,265,265,265,
265,265,265,265,265,265,265,265,265,265,265,265,265,265,265,265,265,265,265,265,
265,265,265,265,265,265,265,265,265,265,265,265,265,265,265,265,265,265,265,265,
265,265,265,265,265,265,265,265,265,265,265,265,265,265,265,265,265,265,265,265,
265,265,265,265,265,265,265,265,265,265,265,265,265,265,265,265,265,265,265,265,
265,265,265,265,265,265,265,265,265,265,265,265,265,265,265,265,265,265,265,265,
265,265,265,265,265,265,265,265,265,265,265,265,265,265,265,265,265,265,265,265,
265,265,265,265,265,265,265,265,265,265,265,265,265,265,265,265,265,265,265,265
</data>
 </layer>
 <layer id="2" name="decor" width="20" height="11">
  <data encoding="csv">
0,0,0,0,0,0,0,0,0,0,0,0,0,0,0,0,0,0,0,0,
0,0,0,0,0,0,0,0,0,0,0,0,0,0,0,0,0,0,0,0,
0,0,0,0,0,0,0,0,0,0,0,0,0,0,0,0,0,0,0,0,
0,0,0,0,0,0,0,0,0,0,0,0,0,0,0,0,0,0,0,0,
0,0,0,0,0,0,0,0,0,0,0,0,0,0,0,0,0,0,0,0,
0,0,0,0,0,0,0,0,0,0,0,0,0,0,0,0,0,0,0,0,
0,0,0,0,0,0,0,0,0,0,0,0,0,0,0,0,0,0,0,0,
0,0,0,0,0,0,0,0,0,0,0,0,0,0,0,0,0,0,0,0,
0,0,0,0,0,0,0,0,0,0,0,0,0,0,0,0,0,0,0,0,
0,0,0,0,0,0,0,0,0,0,0,0,0,0,0,0,0,0,0,0,
0,0,0,0,0,0,0,0,0,0,0,0,0,0,0,0,0,0,0,0
</data>
 </layer>
 <layer id="3" name="walls" width="20" height="11">
  <data encoding="csv">
709,709,709,709,709,709,709,709,0,0,0,709,709,709,709,709,709,709,709,709,
709,0,0,0,0,0,0,0,0,0,0,0,0,0,0,0,0,0,0,709,
709,0,0,0,0,0,0,0,0,0,0,0,0,0,0,0,0,0,0,709,
709,0,0,0,0,0,0,0,0,0,0,0,0,0,0,0,0,0,0,709,
0,0,0,0,0,0,0,0,0,0,0,0,0,0,0,0,0,0,0,0,
0,0,0,0,0,0,0,0,0,0,0,0,0,0,0,0,0,0,0,0,
0,0,0,0,0,0,0,0,0,0,0,0,0,0,0,0,0,0,0,0,
709,0,0,0,0,0,0,0,0,0,0,0,0,0,0,0,0,0,0,709,
709,0,0,0,0,0,0,0,0,0,0,0,0,0,0,0,0,0,0,709,
709,0,0,0,0,0,0,0,0,0,0,0,0,0,0,0,0,0,0,709,
709,709,709,709,709,709,709,709,0,0,0,709,709,709,709,709,709,709,709,709
</data>
 </layer>
 <layer id="4" name="props" width="20" height="11">
  <data encoding="csv">
0,0,0,0,0,0,0,0,0,0,0,0,0,0,0,0,0,0,0,0,
0,0,0,0,0,0,0,0,0,0,0,0,0,0,0,0,0,0,0,0,
0,0,0,0,0,0,0,0,0,0,0,0,0,0,0,0,0,0,0,0,
0,0,0,0,0,0,0,0,0,0,0,0,0,0,0,0,0,0,0,0,
0,0,0,0,0,0,0,0,0,0,0,0,0,0,0,0,0,0,0,0,
0,0,0,0,0,0,0,0,0,0,0,0,0,0,0,0,0,0,0,0,
0,0,0,0,0,0,0,0,0,0,0,0,0,0,0,0,0,0,0,0,
0,0,0,0,0,0,0,0,0,0,0,0,0,0,0,0,0,0,0,0,
0,0,0,0,0,0,0,0,0,0,0,0,0,0,0,0,0,0,0,0,
0,0,0,0,0,0,0,0,0,0,0,0,0,0,0,0,0,0,0,0,
0,0,0,0,0,0,0,0,0,0,0,0,0,0,0,0,0,0,0,0
</data>
 </layer>
 <layer id="5" name="overhead" width="20" height="11">
  <data encoding="csv">
0,0,0,0,0,0,0,0,0,0,0,0,0,0,0,0,0,0,0,0,
0,0,0,0,0,0,0,0,0,0,0,0,0,0,0,0,0,0,0,0,
0,0,0,0,0,0,0,0,0,0,0,0,0,0,0,0,0,0,0,0,
0,0,0,0,0,0,0,0,0,0,0,0,0,0,0,0,0,0,0,0,
0,0,0,0,0,0,0,0,0,0,0,0,0,0,0,0,0,0,0,0,
0,0,0,0,0,0,0,0,0,0,0,0,0,0,0,0,0,0,0,0,
0,0,0,0,0,0,0,0,0,0,0,0,0,0,0,0,0,0,0,0,
0,0,0,0,0,0,0,0,0,0,0,0,0,0,0,0,0,0,0,0,
0,0,0,0,0,0,0,0,0,0,0,0,0,0,0,0,0,0,0,0,
0,0,0,0,0,0,0,0,0,0,0,0,0,0,0,0,0,0,0,0,
0,0,0,0,0,0,0,0,0,0,0,0,0,0,0,0,0,0,0,0
</data>
 </layer>
 <objectgroup id="6" name="spawns">
  <object id="1" name="" type="ENTRY" x="160" y="88" />
  <object id="2" name="" type="ENEMY" x="96" y="88" />
  <object id="3" name="" type="ENEMY" x="224" y="88" />
  <object id="4" name="" type="CHEST" x="160" y="56" />
 </objectgroup>
</map>