<?xml version='1.0' encoding='UTF-8'?>
<map version="1.10" tiledversion="1.10.2" orientation="orthogonal" renderorder="right-down" width="20" height="11" tilewidth="16" tileheight="16" infinite="0" nextlayerid="7" nextobjectid="13">
 <tileset firstgid="1" name="wall" tilewidth="16" tileheight="16" tilecount="110" columns="10">
  <image source="../../../gfx/tiles/ruins/tilesetwallsimple.png" width="160" height="176" />
 </tileset>
 <tileset firstgid="111" name="floor" tilewidth="16" tileheight="16" tilecount="374" columns="22">
  <image source="../../../gfx/tiles/ruins/tilesetinteriorfloor.png" width="352" height="272" />
 </tileset>
 <tileset firstgid="485" name="elements" tilewidth="16" tileheight="16" tilecount="27" columns="9">
  <image source="../../../gfx/tiles/ruins/elements.png" width="144" height="48" />
 </tileset>
 <layer id="1" name="ground" width="20" height="11">
  <data encoding="csv">
266,266,266,266,266,266,266,266,266,266,266,266,266,266,266,266,266,266,266,266,
266,266,266,266,266,266,266,266,266,266,266,266,266,266,266,266,266,266,266,266,
266,266,266,266,266,266,266,266,266,266,266,266,266,266,266,266,266,266,266,266,
266,266,266,266,266,266,266,266,266,266,266,266,266,266,266,266,266,266,266,266,
266,266,266,266,266,266,266,266,266,266,266,266,266,266,266,266,266,266,266,266,
266,266,266,266,266,266,266,266,266,266,266,266,266,266,266,266,266,266,266,266,
266,266,266,266,266,266,266,266,266,266,266,266,266,266,266,266,266,266,266,266,
266,266,266,266,266,266,266,266,266,266,266,266,266,266,266,266,266,266,266,266,
266,266,266,266,266,266,266,266,266,266,266,266,266,266,266,266,266,266,266,266,
266,266,266,266,266,266,266,266,266,266,266,266,266,266,266,266,266,266,266,266,
266,266,266,266,266,266,266,266,266,266,266,266,266,266,266,266,266,266,266,266
</data>
 </layer>
 <layer id="2" name="dressing" width="20" height="11">
  <data encoding="csv">
0,0,0,0,0,0,0,0,0,0,0,0,0,0,0,0,0,0,0,0,
0,0,0,0,0,0,0,0,0,0,0,0,0,0,0,0,0,0,0,0,
0,0,0,0,0,0,0,0,0,0,0,0,0,0,0,0,0,0,0,0,
0,0,0,0,0,0,0,0,0,0,0,0,0,0,0,0,0,0,0,0,
0,0,0,0,0,0,0,0,0,0,0,0,0,0,0,0,0,0,0,0,
0,0,0,0,0,0,0,0,0,0,0,0,0,0,0,0,0,0,0,0,
0,0,0,0,0,0,0,0,0,0,0,0,0,0,0,0,0,0,0,0,
0,0,0,0,0,0,0,0,0,0,0,0,0,0,0,0,0,0,0,0,
0,0,0,0,0,0,0,0,0,0,0,0,0,0,0,0,0,0,0,0,
0,0,0,0,0,0,0,0,0,0,0,0,0,0,0,0,0,0,0,0,
0,0,0,0,0,0,0,0,0,0,0,0,0,0,0,0,0,0,0,0
</data>
 </layer>
 <layer id="3" name="decor" width="20" height="11">
  <data encoding="csv">
0,0,0,0,0,0,0,0,0,0,0,0,0,0,0,0,0,0,0,0,
0,0,0,0,0,0,0,0,0,0,0,0,0,0,0,0,0,0,0,0,
0,0,0,0,0,0,0,0,0,0,0,0,0,0,0,0,0,0,0,0,
0,0,0,0,0,0,0,0,0,0,0,0,0,0,0,0,0,0,0,0,
0,0,0,0,0,0,0,0,0,0,0,0,0,0,0,0,0,0,0,0,
0,0,0,0,0,0,0,0,0,0,0,0,0,0,0,0,0,0,0,0,
0,0,0,0,0,0,0,0,0,0,0,0,0,0,0,0,0,0,0,0,
0,0,0,0,0,0,0,0,0,0,0,0,0,0,0,0,0,0,0,0,
0,0,0,0,0,0,0,0,0,0,0,0,0,0,0,0,0,0,0,0,
0,0,0,0,0,0,0,0,0,0,0,0,0,0,0,0,0,0,0,0,
0,0,0,0,0,0,0,0,0,0,0,0,0,0,0,0,0,0,0,0
</data>
 </layer>
 <layer id="4" name="walls" width="20" height="11">
  <data encoding="csv">
6,9,9,9,9,9,9,9,0,0,0,9,9,9,9,9,9,9,9,10,
16,0,0,0,0,0,0,0,0,0,0,0,0,0,0,0,0,0,0,20,
16,0,0,0,0,0,0,0,0,0,0,0,0,0,0,0,0,0,0,20,
16,0,0,0,0,0,0,0,0,0,0,0,0,0,0,0,0,0,0,20,
0,0,0,0,0,0,0,0,0,0,0,0,0,0,0,0,0,0,0,0,
0,0,0,0,0,0,0,0,0,0,0,0,0,0,0,0,0,0,0,0,
0,0,0,0,0,0,0,0,0,0,0,0,0,0,0,0,0,0,0,0,
16,0,0,0,0,0,0,0,0,0,0,0,0,0,0,0,0,0,0,20,
16,0,0,0,0,0,0,0,0,0,0,0,0,0,0,0,0,0,0,20,
16,0,0,0,0,0,0,0,0,0,0,0,0,0,0,0,0,0,0,20,
46,49,49,49,49,49,49,49,0,0,0,49,49,49,49,49,49,49,49,50
</data>
 </layer>
 <layer id="5" name="props" width="20" height="11">
  <data encoding="csv">
0,0,0,0,0,0,0,0,0,0,0,0,0,0,0,0,0,0,0,0,
0,0,18,19,18,19,0,0,0,0,0,0,0,0,18,19,18,19,0,0,
0,0,28,29,28,29,0,0,0,0,0,0,0,0,28,29,28,29,0,0,
0,0,0,0,0,0,0,0,0,0,0,0,0,0,0,0,0,0,0,0,
0,0,0,0,0,0,0,0,492,492,18,19,0,0,0,0,0,0,0,0,
0,0,0,0,0,0,0,0,492,492,28,29,0,0,0,0,0,0,0,0,
0,0,0,0,0,0,0,0,0,0,0,0,0,0,0,0,0,0,0,0,
0,0,0,0,0,0,0,0,0,0,0,0,0,0,0,0,0,0,0,0,
0,0,18,19,492,492,0,0,0,0,0,0,0,0,18,19,18,19,0,0,
0,0,28,29,492,492,0,0,0,0,0,0,0,0,28,29,28,29,0,0,
0,0,0,0,0,0,0,0,0,0,0,0,0,0,0,0,0,0,0,0
</data>
 </layer>
 <layer id="6" name="overhead" width="20" height="11">
  <data encoding="csv">
0,0,0,0,0,0,0,0,0,0,0,0,0,0,0,0,0,0,0,0,
0,0,0,0,0,0,0,0,0,0,0,0,0,0,0,0,0,0,0,0,
0,0,0,0,0,0,0,0,0,0,0,0,0,0,0,0,0,0,0,0,
0,0,0,0,0,0,0,0,0,0,0,0,0,0,0,0,0,0,0,0,
0,0,0,0,0,0,0,0,0,0,0,0,0,0,0,0,0,0,0,0,
0,0,0,0,0,0,0,0,0,0,0,0,0,0,0,0,0,0,0,0,
0,0,0,0,0,0,0,0,0,0,0,0,0,0,0,0,0,0,0,0,
0,0,0,0,0,0,0,0,0,0,0,0,0,0,0,0,0,0,0,0,
0,0,0,0,0,0,0,0,0,0,0,0,0,0,0,0,0,0,0,0,
0,0,0,0,0,0,0,0,0,0,0,0,0,0,0,0,0,0,0,0,
0,0,0,0,0,0,0,0,0,0,0,0,0,0,0,0,0,0,0,0
</data>
 </layer>
 <objectgroup id="7" name="spawns">
  <object id="1" name="UP" type="ENTRY" x="152" y="24" />
  <object id="2" name="DOWN" type="ENTRY" x="152" y="152" />
  <object id="3" name="LEFT" type="ENTRY" x="24" y="88" />
  <object id="4" name="RIGHT" type="ENTRY" x="296" y="88" />
  <object id="5" name="" type="ENTRY" x="168" y="104" />
  <object id="6" name="" type="ENEMY" x="200" y="88" />
  <object id="7" name="" type="ENEMY" x="152" y="120" />
  <object id="8" name="" type="ENEMY" x="72" y="120" />
  <object id="9" name="" type="ENEMY" x="248" y="120" />
  <object id="10" name="" type="ENEMY" x="152" y="56" />
  <object id="11" name="torch" type="PROP" x="56" y="168" />
  <object id="12" name="torch" type="PROP" x="264" y="168" />
 </objectgroup>
</map>