<?xml version='1.0' encoding='UTF-8'?>
<map version="1.10" tiledversion="1.10.2" orientation="orthogonal" renderorder="right-down" width="30" height="17" tilewidth="16" tileheight="16" infinite="0" nextlayerid="8" nextobjectid="13">
 <tileset firstgid="1" name="wall" tilewidth="16" tileheight="16" tilecount="493" columns="17">
  <image source="../../../gfx/tiles/cove/walls_floor.png" width="272" height="464" />
 </tileset>
 <tileset firstgid="494" name="cracks" tilewidth="16" tileheight="16" tilecount="120" columns="8">
  <image source="../../../gfx/tiles/cove/cracks_floor.png" width="128" height="240" />
 </tileset>
 <tileset firstgid="614" name="wallcracks" tilewidth="16" tileheight="16" tilecount="256" columns="8">
  <image source="../../../gfx/tiles/cove/cracks_walls.png" width="128" height="512" />
 </tileset>
 <tileset firstgid="870" name="objects" tilewidth="16" tileheight="16" tilecount="216" columns="24">
  <image source="../../../gfx/tiles/cove/objects.png" width="384" height="144" />
 </tileset>
 <tileset firstgid="1086" name="fire" tilewidth="16" tileheight="16" tilecount="198" columns="11">
  <image source="../../../gfx/tiles/cove/fire.png" width="176" height="288" />
  <tile id="0">
   <animation>
    <frame tileid="0" duration="150" />
    <frame tileid="33" duration="150" />
    <frame tileid="66" duration="150" />
    <frame tileid="99" duration="150" />
    <frame tileid="132" duration="150" />
    <frame tileid="165" duration="150" />
   </animation>
  </tile>
  <tile id="1">
   <animation>
    <frame tileid="1" duration="150" />
    <frame tileid="34" duration="150" />
    <frame tileid="67" duration="150" />
    <frame tileid="100" duration="150" />
    <frame tileid="133" duration="150" />
    <frame tileid="166" duration="150" />
   </animation>
  </tile>
  <tile id="2">
   <animation>
    <frame tileid="2" duration="150" />
    <frame tileid="35" duration="150" />
    <frame tileid="68" duration="150" />
    <frame tileid="101" duration="150" />
    <frame tileid="134" duration="150" />
    <frame tileid="167" duration="150" />
   </animation>
  </tile>
  <tile id="3">
   <animation>
    <frame tileid="3" duration="150" />
    <frame tileid="36" duration="150" />
    <frame tileid="69" duration="150" />
    <frame tileid="102" duration="150" />
    <frame tileid="135" duration="150" />
    <frame tileid="168" duration="150" />
   </animation>
  </tile>
  <tile id="4">
   <animation>
    <frame tileid="4" duration="150" />
    <frame tileid="37" duration="150" />
    <frame tileid="70" duration="150" />
    <frame tileid="103" duration="150" />
    <frame tileid="136" duration="150" />
    <frame tileid="169" duration="150" />
   </animation>
  </tile>
  <tile id="5">
   <animation>
    <frame tileid="5" duration="150" />
    <frame tileid="38" duration="150" />
    <frame tileid="71" duration="150" />
    <frame tileid="104" duration="150" />
    <frame tileid="137" duration="150" />
    <frame tileid="170" duration="150" />
   </animation>
  </tile>
  <tile id="6">
   <animation>
    <frame tileid="6" duration="150" />
    <frame tileid="39" duration="150" />
    <frame tileid="72" duration="150" />
    <frame tileid="105" duration="150" />
    <frame tileid="138" duration="150" />
    <frame tileid="171" duration="150" />
   </animation>
  </tile>
  <tile id="7">
   <animation>
    <frame tileid="7" duration="150" />
    <frame tileid="40" duration="150" />
    <frame tileid="73" duration="150" />
    <frame tileid="106" duration="150" />
    <frame tileid="139" duration="150" />
    <frame tileid="172" duration="150" />
   </animation>
  </tile>
  <tile id="8">
   <animation>
    <frame tileid="8" duration="150" />
    <frame tileid="41" duration="150" />
    <frame tileid="74" duration="150" />
    <frame tileid="107" duration="150" />
    <frame tileid="140" duration="150" />
    <frame tileid="173" duration="150" />
   </animation>
  </tile>
  <tile id="9">
   <animation>
    <frame tileid="9" duration="150" />
    <frame tileid="42" duration="150" />
    <frame tileid="75" duration="150" />
    <frame tileid="108" duration="150" />
    <frame tileid="141" duration="150" />
    <frame tileid="174" duration="150" />
   </animation>
  </tile>
  <tile id="10">
   <animation>
    <frame tileid="10" duration="150" />
    <frame tileid="43" duration="150" />
    <frame tileid="76" duration="150" />
    <frame tileid="109" duration="150" />
    <frame tileid="142" duration="150" />
    <frame tileid="175" duration="150" />
   </animation>
  </tile>
  <tile id="11">
   <animation>
    <frame tileid="11" duration="150" />
    <frame tileid="44" duration="150" />
    <frame tileid="77" duration="150" />
    <frame tileid="110" duration="150" />
    <frame tileid="143" duration="150" />
    <frame tileid="176" duration="150" />
   </animation>
  </tile>
  <tile id="12">
   <animation>
    <frame tileid="12" duration="150" />
    <frame tileid="45" duration="150" />
    <frame tileid="78" duration="150" />
    <frame tileid="111" duration="150" />
    <frame tileid="144" duration="150" />
    <frame tileid="177" duration="150" />
   </animation>
  </tile>
  <tile id="13">
   <animation>
    <frame tileid="13" duration="150" />
    <frame tileid="46" duration="150" />
    <frame tileid="79" duration="150" />
    <frame tileid="112" duration="150" />
    <frame tileid="145" duration="150" />
    <frame tileid="178" duration="150" />
   </animation>
  </tile>
  <tile id="14">
   <animation>
    <frame tileid="14" duration="150" />
    <frame tileid="47" duration="150" />
    <frame tileid="80" duration="150" />
    <frame tileid="113" duration="150" />
    <frame tileid="146" duration="150" />
    <frame tileid="179" duration="150" />
   </animation>
  </tile>
  <tile id="15">
   <animation>
    <frame tileid="15" duration="150" />
    <frame tileid="48" duration="150" />
    <frame tileid="81" duration="150" />
    <frame tileid="114" duration="150" />
    <frame tileid="147" duration="150" />
    <frame tileid="180" duration="150" />
   </animation>
  </tile>
  <tile id="16">
   <animation>
    <frame tileid="16" duration="150" />
    <frame tileid="49" duration="150" />
    <frame tileid="82" duration="150" />
    <frame tileid="115" duration="150" />
    <frame tileid="148" duration="150" />
    <frame tileid="181" duration="150" />
   </animation>
  </tile>
  <tile id="17">
   <animation>
    <frame tileid="17" duration="150" />
    <frame tileid="50" duration="150" />
    <frame tileid="83" duration="150" />
    <frame tileid="116" duration="150" />
    <frame tileid="149" duration="150" />
    <frame tileid="182" duration="150" />
   </animation>
  </tile>
  <tile id="18">
   <animation>
    <frame tileid="18" duration="150" />
    <frame tileid="51" duration="150" />
    <frame tileid="84" duration="150" />
    <frame tileid="117" duration="150" />
    <frame tileid="150" duration="150" />
    <frame tileid="183" duration="150" />
   </animation>
  </tile>
  <tile id="19">
   <animation>
    <frame tileid="19" duration="150" />
    <frame tileid="52" duration="150" />
    <frame tileid="85" duration="150" />
    <frame tileid="118" duration="150" />
    <frame tileid="151" duration="150" />
    <frame tileid="184" duration="150" />
   </animation>
  </tile>
  <tile id="20">
   <animation>
    <frame tileid="20" duration="150" />
    <frame tileid="53" duration="150" />
    <frame tileid="86" duration="150" />
    <frame tileid="119" duration="150" />
    <frame tileid="152" duration="150" />
    <frame tileid="185" duration="150" />
   </animation>
  </tile>
  <tile id="21">
   <animation>
    <frame tileid="21" duration="150" />
    <frame tileid="54" duration="150" />
    <frame tileid="87" duration="150" />
    <frame tileid="120" duration="150" />
    <frame tileid="153" duration="150" />
    <frame tileid="186" duration="150" />
   </animation>
  </tile>
  <tile id="22">
   <animation>
    <frame tileid="22" duration="150" />
    <frame tileid="55" duration="150" />
    <frame tileid="88" duration="150" />
    <frame tileid="121" duration="150" />
    <frame tileid="154" duration="150" />
    <frame tileid="187" duration="150" />
   </animation>
  </tile>
  <tile id="23">
   <animation>
    <frame tileid="23" duration="150" />
    <frame tileid="56" duration="150" />
    <frame tileid="89" duration="150" />
    <frame tileid="122" duration="150" />
    <frame tileid="155" duration="150" />
    <frame tileid="188" duration="150" />
   </animation>
  </tile>
  <tile id="24">
   <animation>
    <frame tileid="24" duration="150" />
    <frame tileid="57" duration="150" />
    <frame tileid="90" duration="150" />
    <frame tileid="123" duration="150" />
    <frame tileid="156" duration="150" />
    <frame tileid="189" duration="150" />
   </animation>
  </tile>
  <tile id="25">
   <animation>
    <frame tileid="25" duration="150" />
    <frame tileid="58" duration="150" />
    <frame tileid="91" duration="150" />
    <frame tileid="124" duration="150" />
    <frame tileid="157" duration="150" />
    <frame tileid="190" duration="150" />
   </animation>
  </tile>
  <tile id="26">
   <animation>
    <frame tileid="26" duration="150" />
    <frame tileid="59" duration="150" />
    <frame tileid="92" duration="150" />
    <frame tileid="125" duration="150" />
    <frame tileid="158" duration="150" />
    <frame tileid="191" duration="150" />
   </animation>
  </tile>
  <tile id="27">
   <animation>
    <frame tileid="27" duration="150" />
    <frame tileid="60" duration="150" />
    <frame tileid="93" duration="150" />
    <frame tileid="126" duration="150" />
    <frame tileid="159" duration="150" />
    <frame tileid="192" duration="150" />
   </animation>
  </tile>
  <tile id="28">
   <animation>
    <frame tileid="28" duration="150" />
    <frame tileid="61" duration="150" />
    <frame tileid="94" duration="150" />
    <frame tileid="127" duration="150" />
    <frame tileid="160" duration="150" />
    <frame tileid="193" duration="150" />
   </animation>
  </tile>
  <tile id="29">
   <animation>
    <frame tileid="29" duration="150" />
    <frame tileid="62" duration="150" />
    <frame tileid="95" duration="150" />
    <frame tileid="128" duration="150" />
    <frame tileid="161" duration="150" />
    <frame tileid="194" duration="150" />
   </animation>
  </tile>
  <tile id="30">
   <animation>
    <frame tileid="30" duration="150" />
    <frame tileid="63" duration="150" />
    <frame tileid="96" duration="150" />
    <frame tileid="129" duration="150" />
    <frame tileid="162" duration="150" />
    <frame tileid="195" duration="150" />
   </animation>
  </tile>
  <tile id="31">
   <animation>
    <frame tileid="31" duration="150" />
    <frame tileid="64" duration="150" />
    <frame tileid="97" duration="150" />
    <frame tileid="130" duration="150" />
    <frame tileid="163" duration="150" />
    <frame tileid="196" duration="150" />
   </animation>
  </tile>
  <tile id="32">
   <animation>
    <frame tileid="32" duration="150" />
    <frame tileid="65" duration="150" />
    <frame tileid="98" duration="150" />
    <frame tileid="131" duration="150" />
    <frame tileid="164" duration="150" />
    <frame tileid="197" duration="150" />
   </animation>
  </tile>
 </tileset>
 <tileset firstgid="1284" name="water" tilewidth="16" tileheight="16" tilecount="928" columns="29">
  <image source="../../../gfx/tiles/cove/water_coasts.png" width="464" height="512" />
  <tile id="30">
   <animation>
    <frame tileid="30" duration="150" />
    <frame tileid="44" duration="150" />
    <frame tileid="320" duration="150" />
    <frame tileid="334" duration="150" />
    <frame tileid="610" duration="150" />
    <frame tileid="624" duration="150" />
   </animation>
  </tile>
  <tile id="32">
   <animation>
    <frame tileid="32" duration="150" />
    <frame tileid="46" duration="150" />
    <frame tileid="322" duration="150" />
    <frame tileid="336" duration="150" />
    <frame tileid="612" duration="150" />
    <frame tileid="626" duration="150" />
   </animation>
  </tile>
  <tile id="59">
   <animation>
    <frame tileid="59" duration="150" />
    <frame tileid="73" duration="150" />
    <frame tileid="349" duration="150" />
    <frame tileid="363" duration="150" />
    <frame tileid="639" duration="150" />
    <frame tileid="653" duration="150" />
   </animation>
  </tile>
  <tile id="61">
   <animation>
    <frame tileid="61" duration="150" />
    <frame tileid="75" duration="150" />
    <frame tileid="351" duration="150" />
    <frame tileid="365" duration="150" />
    <frame tileid="641" duration="150" />
    <frame tileid="655" duration="150" />
   </animation>
  </tile>
  <tile id="66">
   <animation>
    <frame tileid="66" duration="150" />
    <frame tileid="80" duration="150" />
    <frame tileid="356" duration="150" />
    <frame tileid="370" duration="150" />
    <frame tileid="646" duration="150" />
    <frame tileid="660" duration="150" />
   </animation>
  </tile>
  <tile id="67">
   <animation>
    <frame tileid="67" duration="150" />
    <frame tileid="81" duration="150" />
    <frame tileid="357" duration="150" />
    <frame tileid="371" duration="150" />
    <frame tileid="647" duration="150" />
    <frame tileid="661" duration="150" />
   </animation>
  </tile>
  <tile id="68">
   <animation>
    <frame tileid="68" duration="150" />
    <frame tileid="82" duration="150" />
    <frame tileid="358" duration="150" />
    <frame tileid="372" duration="150" />
    <frame tileid="648" duration="150" />
    <frame tileid="662" duration="150" />
   </animation>
  </tile>
  <tile id="70">
   <animation>
    <frame tileid="70" duration="150" />
    <frame tileid="84" duration="150" />
    <frame tileid="360" duration="150" />
    <frame tileid="374" duration="150" />
    <frame tileid="650" duration="150" />
    <frame tileid="664" duration="150" />
   </animation>
  </tile>
  <tile id="71">
   <animation>
    <frame tileid="71" duration="150" />
    <frame tileid="85" duration="150" />
    <frame tileid="361" duration="150" />
    <frame tileid="375" duration="150" />
    <frame tileid="651" duration="150" />
    <frame tileid="665" duration="150" />
   </animation>
  </tile>
  <tile id="88">
   <animation>
    <frame tileid="88" duration="150" />
    <frame tileid="102" duration="150" />
    <frame tileid="378" duration="150" />
    <frame tileid="392" duration="150" />
    <frame tileid="668" duration="150" />
    <frame tileid="682" duration="150" />
   </animation>
  </tile>
  <tile id="90">
   <animation>
    <frame tileid="90" duration="150" />
    <frame tileid="104" duration="150" />
    <frame tileid="380" duration="150" />
    <frame tileid="394" duration="150" />
    <frame tileid="670" duration="150" />
    <frame tileid="684" duration="150" />
   </animation>
  </tile>
  <tile id="92">
   <animation>
    <frame tileid="92" duration="150" />
    <frame tileid="106" duration="150" />
    <frame tileid="382" duration="150" />
    <frame tileid="396" duration="150" />
    <frame tileid="672" duration="150" />
    <frame tileid="686" duration="150" />
   </animation>
  </tile>
  <tile id="93">
   <animation>
    <frame tileid="93" duration="150" />
    <frame tileid="107" duration="150" />
    <frame tileid="383" duration="150" />
    <frame tileid="397" duration="150" />
    <frame tileid="673" duration="150" />
    <frame tileid="687" duration="150" />
   </animation>
  </tile>
  <tile id="94">
   <animation>
    <frame tileid="94" duration="150" />
    <frame tileid="108" duration="150" />
    <frame tileid="384" duration="150" />
    <frame tileid="398" duration="150" />
    <frame tileid="674" duration="150" />
    <frame tileid="688" duration="150" />
   </animation>
  </tile>
  <tile id="95">
   <animation>
    <frame tileid="95" duration="150" />
    <frame tileid="109" duration="150" />
    <frame tileid="385" duration="150" />
    <frame tileid="399" duration="150" />
    <frame tileid="675" duration="150" />
    <frame tileid="689" duration="150" />
   </animation>
  </tile>
  <tile id="97">
   <animation>
    <frame tileid="97" duration="150" />
    <frame tileid="111" duration="150" />
    <frame tileid="387" duration="150" />
    <frame tileid="401" duration="150" />
    <frame tileid="677" duration="150" />
    <frame tileid="691" duration="150" />
   </animation>
  </tile>
  <tile id="117">
   <animation>
    <frame tileid="117" duration="150" />
    <frame tileid="131" duration="150" />
    <frame tileid="407" duration="150" />
    <frame tileid="421" duration="150" />
    <frame tileid="697" duration="150" />
    <frame tileid="711" duration="150" />
   </animation>
  </tile>
  <tile id="119">
   <animation>
    <frame tileid="119" duration="150" />
    <frame tileid="133" duration="150" />
    <frame tileid="409" duration="150" />
    <frame tileid="423" duration="150" />
    <frame tileid="699" duration="150" />
    <frame tileid="713" duration="150" />
   </animation>
  </tile>
  <tile id="121">
   <animation>
    <frame tileid="121" duration="150" />
    <frame tileid="135" duration="150" />
    <frame tileid="411" duration="150" />
    <frame tileid="425" duration="150" />
    <frame tileid="701" duration="150" />
    <frame tileid="715" duration="150" />
   </animation>
  </tile>
  <tile id="123">
   <animation>
    <frame tileid="123" duration="150" />
    <frame tileid="137" duration="150" />
    <frame tileid="413" duration="150" />
    <frame tileid="427" duration="150" />
    <frame tileid="703" duration="150" />
    <frame tileid="717" duration="150" />
   </animation>
  </tile>
  <tile id="124">
   <animation>
    <frame tileid="124" duration="150" />
    <frame tileid="135" duration="150" />
    <frame tileid="414" duration="150" />
    <frame tileid="425" duration="150" />
    <frame tileid="704" duration="150" />
    <frame tileid="715" duration="150" />
   </animation>
  </tile>
  <tile id="126">
   <animation>
    <frame tileid="126" duration="150" />
    <frame tileid="140" duration="150" />
    <frame tileid="416" duration="150" />
    <frame tileid="430" duration="150" />
    <frame tileid="706" duration="150" />
    <frame tileid="720" duration="150" />
   </animation>
  </tile>
  <tile id="146">
   <animation>
    <frame tileid="146" duration="150" />
    <frame tileid="160" duration="150" />
    <frame tileid="436" duration="150" />
    <frame tileid="450" duration="150" />
    <frame tileid="726" duration="150" />
    <frame tileid="740" duration="150" />
   </animation>
  </tile>
  <tile id="147">
   <animation>
    <frame tileid="147" duration="150" />
    <frame tileid="161" duration="150" />
    <frame tileid="437" duration="150" />
    <frame tileid="451" duration="150" />
    <frame tileid="727" duration="150" />
    <frame tileid="741" duration="150" />
   </animation>
  </tile>
  <tile id="148">
   <animation>
    <frame tileid="148" duration="150" />
    <frame tileid="162" duration="150" />
    <frame tileid="438" duration="150" />
    <frame tileid="452" duration="150" />
    <frame tileid="728" duration="150" />
    <frame tileid="742" duration="150" />
   </animation>
  </tile>
  <tile id="153">
   <animation>
    <frame tileid="153" duration="150" />
    <frame tileid="167" duration="150" />
    <frame tileid="443" duration="150" />
    <frame tileid="457" duration="150" />
    <frame tileid="733" duration="150" />
    <frame tileid="747" duration="150" />
   </animation>
  </tile>
  <tile id="154">
   <animation>
    <frame tileid="154" duration="150" />
    <frame tileid="168" duration="150" />
    <frame tileid="444" duration="150" />
    <frame tileid="458" duration="150" />
    <frame tileid="734" duration="150" />
    <frame tileid="748" duration="150" />
   </animation>
  </tile>
  <tile id="155">
   <animation>
    <frame tileid="155" duration="150" />
    <frame tileid="169" duration="150" />
    <frame tileid="445" duration="150" />
    <frame tileid="459" duration="150" />
    <frame tileid="735" duration="150" />
    <frame tileid="749" duration="150" />
   </animation>
  </tile>
  <tile id="157">
   <animation>
    <frame tileid="157" duration="150" />
    <frame tileid="171" duration="150" />
    <frame tileid="447" duration="150" />
    <frame tileid="461" duration="150" />
    <frame tileid="737" duration="150" />
    <frame tileid="751" duration="150" />
   </animation>
  </tile>
  <tile id="158">
   <animation>
    <frame tileid="158" duration="150" />
    <frame tileid="172" duration="150" />
    <frame tileid="448" duration="150" />
    <frame tileid="462" duration="150" />
    <frame tileid="738" duration="150" />
    <frame tileid="752" duration="150" />
   </animation>
  </tile>
  <tile id="175">
   <animation>
    <frame tileid="175" duration="150" />
    <frame tileid="189" duration="150" />
    <frame tileid="465" duration="150" />
    <frame tileid="479" duration="150" />
    <frame tileid="755" duration="150" />
    <frame tileid="769" duration="150" />
   </animation>
  </tile>
  <tile id="177">
   <animation>
    <frame tileid="177" duration="150" />
    <frame tileid="191" duration="150" />
    <frame tileid="467" duration="150" />
    <frame tileid="481" duration="150" />
    <frame tileid="757" duration="150" />
    <frame tileid="771" duration="150" />
   </animation>
  </tile>
  <tile id="179">
   <animation>
    <frame tileid="179" duration="150" />
    <frame tileid="193" duration="150" />
    <frame tileid="469" duration="150" />
    <frame tileid="483" duration="150" />
    <frame tileid="759" duration="150" />
    <frame tileid="773" duration="150" />
   </animation>
  </tile>
  <tile id="180">
   <animation>
    <frame tileid="180" duration="150" />
    <frame tileid="194" duration="150" />
    <frame tileid="470" duration="150" />
    <frame tileid="484" duration="150" />
    <frame tileid="673" duration="150" />
    <frame tileid="774" duration="150" />
   </animation>
  </tile>
  <tile id="181">
   <animation>
    <frame tileid="181" duration="150" />
    <frame tileid="195" duration="150" />
    <frame tileid="471" duration="150" />
    <frame tileid="485" duration="150" />
    <frame tileid="761" duration="150" />
    <frame tileid="775" duration="150" />
   </animation>
  </tile>
  <tile id="182">
   <animation>
    <frame tileid="182" duration="150" />
    <frame tileid="196" duration="150" />
    <frame tileid="472" duration="150" />
    <frame tileid="486" duration="150" />
    <frame tileid="762" duration="150" />
    <frame tileid="776" duration="150" />
   </animation>
  </tile>
  <tile id="183">
   <animation>
    <frame tileid="183" duration="150" />
    <frame tileid="197" duration="150" />
    <frame tileid="473" duration="150" />
    <frame tileid="487" duration="150" />
    <frame tileid="763" duration="150" />
    <frame tileid="777" duration="150" />
   </animation>
  </tile>
  <tile id="184">
   <animation>
    <frame tileid="184" duration="150" />
    <frame tileid="198" duration="150" />
    <frame tileid="474" duration="150" />
    <frame tileid="488" duration="150" />
    <frame tileid="764" duration="150" />
    <frame tileid="778" duration="150" />
   </animation>
  </tile>
  <tile id="204">
   <animation>
    <frame tileid="204" duration="150" />
    <frame tileid="218" duration="150" />
    <frame tileid="494" duration="150" />
    <frame tileid="508" duration="150" />
    <frame tileid="784" duration="150" />
    <frame tileid="798" duration="150" />
   </animation>
  </tile>
  <tile id="206">
   <animation>
    <frame tileid="206" duration="150" />
    <frame tileid="220" duration="150" />
    <frame tileid="496" duration="150" />
    <frame tileid="510" duration="150" />
    <frame tileid="786" duration="150" />
    <frame tileid="800" duration="150" />
   </animation>
  </tile>
  <tile id="208">
   <animation>
    <frame tileid="208" duration="150" />
    <frame tileid="222" duration="150" />
    <frame tileid="498" duration="150" />
    <frame tileid="512" duration="150" />
    <frame tileid="788" duration="150" />
    <frame tileid="802" duration="150" />
   </animation>
  </tile>
  <tile id="210">
   <animation>
    <frame tileid="210" duration="150" />
    <frame tileid="224" duration="150" />
    <frame tileid="500" duration="150" />
    <frame tileid="514" duration="150" />
    <frame tileid="790" duration="150" />
    <frame tileid="804" duration="150" />
   </animation>
  </tile>
  <tile id="211">
   <animation>
    <frame tileid="211" duration="150" />
    <frame tileid="225" duration="150" />
    <frame tileid="501" duration="150" />
    <frame tileid="515" duration="150" />
    <frame tileid="791" duration="150" />
    <frame tileid="805" duration="150" />
   </animation>
  </tile>
  <tile id="213">
   <animation>
    <frame tileid="213" duration="150" />
    <frame tileid="227" duration="150" />
    <frame tileid="503" duration="150" />
    <frame tileid="517" duration="150" />
    <frame tileid="793" duration="150" />
    <frame tileid="807" duration="150" />
   </animation>
  </tile>
  <tile id="233">
   <animation>
    <frame tileid="233" duration="150" />
    <frame tileid="247" duration="150" />
    <frame tileid="523" duration="150" />
    <frame tileid="537" duration="150" />
    <frame tileid="813" duration="150" />
    <frame tileid="827" duration="150" />
   </animation>
  </tile>
  <tile id="235">
   <animation>
    <frame tileid="235" duration="150" />
    <frame tileid="249" duration="150" />
    <frame tileid="525" duration="150" />
    <frame tileid="539" duration="150" />
    <frame tileid="815" duration="150" />
    <frame tileid="829" duration="150" />
   </animation>
  </tile>
  <tile id="237">
   <animation>
    <frame tileid="237" duration="150" />
    <frame tileid="251" duration="150" />
    <frame tileid="527" duration="150" />
    <frame tileid="541" duration="150" />
    <frame tileid="817" duration="150" />
    <frame tileid="831" duration="150" />
   </animation>
  </tile>
  <tile id="239">
   <animation>
    <frame tileid="239" duration="150" />
    <frame tileid="253" duration="150" />
    <frame tileid="529" duration="150" />
    <frame tileid="543" duration="150" />
    <frame tileid="819" duration="150" />
    <frame tileid="833" duration="150" />
   </animation>
  </tile>
  <tile id="240">
   <animation>
    <frame tileid="240" duration="150" />
    <frame tileid="254" duration="150" />
    <frame tileid="530" duration="150" />
    <frame tileid="544" duration="150" />
    <frame tileid="820" duration="150" />
    <frame tileid="834" duration="150" />
   </animation>
  </tile>
  <tile id="242">
   <animation>
    <frame tileid="242" duration="150" />
    <frame tileid="256" duration="150" />
    <frame tileid="532" duration="150" />
    <frame tileid="546" duration="150" />
    <frame tileid="822" duration="150" />
    <frame tileid="836" duration="150" />
   </animation>
  </tile>
  <tile id="244">
   <animation>
    <frame tileid="244" duration="150" />
    <frame tileid="258" duration="150" />
    <frame tileid="534" duration="150" />
    <frame tileid="548" duration="150" />
    <frame tileid="824" duration="150" />
    <frame tileid="838" duration="150" />
   </animation>
  </tile>
  <tile id="245">
   <animation>
    <frame tileid="245" duration="150" />
    <frame tileid="259" duration="150" />
    <frame tileid="535" duration="150" />
    <frame tileid="549" duration="150" />
    <frame tileid="825" duration="150" />
    <frame tileid="839" duration="150" />
   </animation>
  </tile>
  <tile id="262">
   <animation>
    <frame tileid="262" duration="150" />
    <frame tileid="276" duration="150" />
    <frame tileid="552" duration="150" />
    <frame tileid="566" duration="150" />
    <frame tileid="842" duration="150" />
    <frame tileid="856" duration="150" />
   </animation>
  </tile>
  <tile id="263">
   <animation>
    <frame tileid="263" duration="150" />
    <frame tileid="277" duration="150" />
    <frame tileid="553" duration="150" />
    <frame tileid="567" duration="150" />
    <frame tileid="727" duration="150" />
    <frame tileid="741" duration="150" />
   </animation>
  </tile>
  <tile id="264">
   <animation>
    <frame tileid="264" duration="150" />
    <frame tileid="278" duration="150" />
    <frame tileid="554" duration="150" />
    <frame tileid="568" duration="150" />
    <frame tileid="844" duration="150" />
    <frame tileid="858" duration="150" />
   </animation>
  </tile>
  <tile id="273">
   <animation>
    <frame tileid="273" duration="150" />
    <frame tileid="287" duration="150" />
    <frame tileid="563" duration="150" />
    <frame tileid="577" duration="150" />
    <frame tileid="853" duration="150" />
    <frame tileid="867" duration="150" />
   </animation>
  </tile>
  <tile id="274">
   <animation>
    <frame tileid="274" duration="150" />
    <frame tileid="288" duration="150" />
    <frame tileid="564" duration="150" />
    <frame tileid="578" duration="150" />
    <frame tileid="854" duration="150" />
    <frame tileid="868" duration="150" />
   </animation>
  </tile>
 </tileset>
 <layer id="1" name="ground" width="30" height="17">
  <data encoding="csv">
251,251,251,251,251,251,251,251,251,251,251,251,251,251,251,251,251,251,251,251,251,251,251,251,251,251,251,251,251,251,
251,251,251,251,251,251,251,251,251,251,251,251,251,251,251,251,251,251,251,251,251,251,251,251,251,251,251,251,251,251,
251,251,251,251,251,251,251,251,251,251,251,251,251,251,251,251,251,251,251,251,251,251,251,251,251,251,251,251,251,251,
251,251,251,251,251,251,251,251,251,251,251,251,251,251,251,251,251,251,251,251,251,251,251,251,251,251,251,251,251,251,
251,251,251,251,251,251,251,251,251,251,251,251,251,251,251,251,251,251,251,251,251,251,251,251,251,251,251,251,251,251,
251,251,251,251,251,251,251,251,251,251,251,251,251,251,251,251,251,251,251,251,251,251,251,251,251,251,251,251,251,251,
251,251,251,251,251,251,251,251,251,251,251,251,251,251,251,251,251,251,251,251,251,251,251,251,251,251,251,251,251,251,
251,251,251,251,251,251,251,251,251,251,251,251,251,251,251,251,251,251,251,251,251,251,251,251,251,251,251,251,251,251,
251,251,251,251,251,251,251,251,251,251,251,251,251,251,251,251,251,251,251,251,251,251,251,251,251,251,251,251,251,251,
251,251,251,251,251,251,251,251,251,251,251,251,251,251,251,251,251,251,251,251,251,251,251,251,251,251,251,251,251,251,
251,251,251,251,251,251,251,251,251,251,251,251,251,251,251,251,251,251,251,251,251,251,251,251,251,251,251,251,251,251,
251,251,251,251,251,251,251,251,251,251,251,251,251,251,251,251,251,251,251,251,251,251,251,251,251,251,251,251,251,251,
251,251,251,251,251,251,251,251,251,251,251,251,251,251,251,251,251,251,251,251,251,251,251,251,251,251,251,251,251,251,
251,251,251,251,251,251,251,251,251,251,251,251,251,251,251,251,251,251,251,251,251,251,251,251,251,251,251,251,251,251,
251,251,251,251,251,251,251,251,251,251,251,251,251,251,251,251,251,251,251,251,251,251,251,251,251,251,251,251,251,251,
251,251,251,251,251,251,251,251,251,251,251,251,251,251,251,251,251,251,251,251,251,251,251,251,251,251,251,251,251,251,
251,251,251,251,251,251,251,251,251,251,251,251,251,251,251,251,251,251,251,251,251,251,251,251,251,251,251,251,251,251
</data>
 </layer>
 <layer id="2" name="dressing" width="30" height="17">
  <data encoding="csv">
0,0,0,638,0,0,631,0,0,0,0,0,660,0,0,0,0,645,654,0,637,0,0,0,0,0,0,624,0,0,
0,232,1052,232,232,232,232,232,232,1052,232,232,0,0,0,0,0,232,232,232,232,232,232,232,232,232,232,232,232,0,
0,232,1091,1092,1093,232,232,232,232,1091,1092,1093,0,0,0,0,0,232,591,1091,1092,1093,232,232,910,1094,1095,1096,232,0,
0,232,1102,0,1104,232,232,232,232,1102,0,1104,597,1094,1095,1096,232,232,232,1102,0,1104,232,232,232,1105,0,1107,232,0,
0,232,1113,1114,1115,232,1051,232,232,1113,1114,1115,232,1105,0,1107,232,232,232,1113,1114,1115,232,232,232,1116,1117,1118,232,0,
0,232,232,599,1051,232,232,232,232,232,232,596,232,1116,1117,1118,232,232,232,598,232,232,232,232,232,232,594,232,232,0,
0,0,0,232,0,0,0,1051,232,232,232,232,232,232,232,232,604,232,232,232,0,0,0,232,232,232,232,0,0,0,
0,0,0,232,0,0,0,232,598,602,232,232,232,232,232,232,232,232,232,232,0,0,0,232,232,232,232,0,0,0,
0,0,0,232,0,0,0,232,232,232,232,232,232,1051,232,232,232,232,595,232,0,0,0,232,232,232,232,0,0,0,
0,0,0,232,0,0,0,604,232,232,232,232,232,232,232,232,232,232,232,232,0,0,0,232,595,232,232,0,0,0,
0,0,0,232,0,0,0,232,232,232,232,232,232,232,232,1051,232,592,599,232,0,0,0,232,232,232,232,0,0,0,
0,232,232,232,232,610,232,232,608,232,232,232,232,232,232,232,232,232,232,605,232,232,232,232,232,608,232,232,232,0,
0,232,1094,1095,1096,607,232,232,232,1091,1092,1093,232,607,232,232,232,232,232,1091,1092,1093,910,232,232,1094,1095,1096,1051,0,
0,232,1105,0,1107,232,232,232,232,1102,0,1104,910,232,232,232,232,232,232,1102,0,1104,232,232,232,1105,0,1107,232,0,
0,232,1116,1117,1118,232,232,232,232,1113,1114,1115,0,0,0,0,0,232,232,1113,1114,1115,591,232,232,1116,1117,1118,232,0,
0,232,232,909,232,232,232,232,232,232,232,232,0,0,0,0,0,232,232,232,232,232,232,232,232,232,232,604,595,0,
0,0,0,0,0,0,0,0,0,0,0,0,0,0,0,0,0,0,0,0,0,0,0,0,0,0,0,0,0,0
</data>
 </layer>
 <layer id="3" name="decor" width="30" height="17">
  <data encoding="csv">
0,0,0,0,0,0,0,0,0,0,0,0,0,0,0,0,0,0,0,0,0,0,0,0,0,0,0,0,0,0,
0,0,0,0,0,0,0,0,0,0,0,0,0,0,0,0,0,0,0,0,0,0,0,0,0,0,0,0,0,0,
0,0,0,0,0,0,0,0,0,0,0,0,0,0,0,0,0,0,0,0,0,0,0,0,0,0,0,0,0,0,
0,0,0,0,0,0,0,0,0,0,0,0,0,0,0,0,0,0,0,0,0,0,0,0,0,0,0,0,0,0,
0,0,0,0,0,0,0,0,0,0,0,0,0,0,0,0,0,0,0,0,0,0,0,0,0,0,0,0,0,0,
0,0,0,0,0,0,0,0,0,0,0,0,0,0,0,0,0,0,0,0,0,0,0,0,0,0,0,0,0,0,
0,0,0,0,0,0,0,0,0,0,0,0,0,0,0,0,0,0,0,0,0,0,0,0,0,0,0,0,0,0,
0,0,0,0,0,0,0,0,0,0,0,0,0,0,0,0,0,0,0,0,0,0,0,0,0,0,0,0,0,0,
0,0,0,0,0,0,0,0,0,0,0,0,0,0,0,0,0,0,0,0,0,0,0,0,0,0,0,0,0,0,
0,0,0,0,0,0,0,0,0,0,0,0,0,0,0,0,0,0,0,0,0,0,0,0,0,0,0,0,0,0,
0,0,0,0,0,0,0,0,0,0,0,0,0,0,0,0,0,0,0,0,0,0,0,0,0,0,0,0,0,0,
0,0,0,0,0,0,0,0,0,0,0,0,0,0,0,0,0,0,0,0,0,0,0,0,0,0,0,0,0,0,
0,0,0,0,0,0,0,0,0,0,0,0,0,0,0,0,0,0,0,0,0,0,0,0,0,0,0,0,0,0,
0,0,0,0,0,0,0,0,0,0,0,0,0,0,0,0,0,0,0,0,0,0,0,0,0,0,0,0,0,0,
0,0,0,0,0,0,0,0,0,0,0,0,0,0,0,0,0,0,0,0,0,0,0,0,0,0,0,0,0,0,
0,0,0,0,0,0,0,0,0,0,0,0,0,0,0,0,0,0,0,0,0,0,0,0,0,0,0,0,0,0,
0,0,0,0,0,0,0,0,0,0,0,0,0,0,0,0,0,0,0,0,0,0,0,0,0,0,0,0,0,0
</data>
 </layer>
 <layer id="4" name="walls" width="30" height="17">
  <data encoding="csv">
70,71,71,71,71,71,71,71,71,71,71,71,71,0,0,0,71,71,71,71,71,71,71,71,71,71,71,71,71,72,
36,0,0,0,0,0,0,0,0,0,0,0,0,0,0,0,0,0,0,0,0,0,0,0,0,0,0,0,0,38,
36,0,0,0,0,0,0,0,0,0,0,0,0,0,0,0,0,0,0,0,0,0,0,0,0,0,0,0,0,38,
36,0,0,0,0,0,0,0,0,0,0,0,0,0,0,0,0,0,0,0,0,0,0,0,0,0,0,0,0,38,
36,0,0,0,0,0,0,0,0,0,0,0,0,0,0,0,0,0,0,0,0,0,0,0,0,0,0,0,0,38,
36,0,0,0,0,0,0,0,0,0,0,0,0,0,0,0,0,0,0,0,0,0,0,0,0,0,0,0,0,38,
36,0,0,0,0,0,0,0,0,0,0,0,0,0,0,0,0,0,0,0,0,0,0,0,0,0,0,0,0,38,
0,0,0,0,0,0,0,0,0,0,0,0,0,0,0,0,0,0,0,0,0,0,0,0,0,0,0,0,0,0,
0,0,0,0,0,0,0,0,0,0,0,0,0,0,0,0,0,0,0,0,0,0,0,0,0,0,0,0,0,0,
0,0,0,0,0,0,0,0,0,0,0,0,0,0,0,0,0,0,0,0,0,0,0,0,0,0,0,0,0,0,
36,0,0,0,0,0,0,0,0,0,0,0,0,0,0,0,0,0,0,0,0,0,0,0,0,0,0,0,0,38,
36,0,0,0,0,0,0,0,0,0,0,0,0,0,0,0,0,0,0,0,0,0,0,0,0,0,0,0,0,38,
36,0,0,0,0,0,0,0,0,0,0,0,0,0,0,0,0,0,0,0,0,0,0,0,0,0,0,0,0,38,
36,0,0,0,0,0,0,0,0,0,0,0,0,0,0,0,0,0,0,0,0,0,0,0,0,0,0,0,0,38,
36,0,0,0,0,0,0,0,0,0,0,0,0,0,0,0,0,0,0,0,0,0,0,0,0,0,0,0,0,38,
36,0,0,0,0,0,0,0,0,0,0,0,0,0,0,0,0,0,0,0,0,0,0,0,0,0,0,0,0,38,
19,20,20,20,20,20,20,20,20,20,20,20,20,0,0,0,20,20,20,20,20,20,20,20,20,20,20,20,20,21
</data>
 </layer>
 <layer id="5" name="props" width="30" height="17">
  <data encoding="csv">
0,0,0,0,0,0,0,0,0,0,0,0,0,0,0,0,0,0,0,0,0,0,0,0,0,0,0,0,0,0,
0,0,0,0,0,0,0,0,0,0,0,0,20,0,0,0,20,0,0,0,0,0,0,0,0,0,0,0,0,0,
0,0,0,0,0,0,0,0,0,0,0,0,71,0,0,0,71,0,0,0,0,0,0,0,0,0,0,0,0,0,
0,0,0,1103,0,0,0,0,0,0,1103,0,0,0,0,0,0,0,0,0,1103,0,0,0,0,0,1106,0,0,0,
0,0,0,0,0,0,0,0,0,0,0,0,0,0,1106,0,0,0,0,0,0,0,0,0,0,0,0,0,0,0,
0,0,0,0,0,0,0,0,0,0,0,0,0,0,0,0,0,0,0,0,0,0,0,0,0,0,0,0,0,0,
0,71,71,0,1314,1315,1316,0,0,0,0,0,0,0,0,0,0,0,0,0,1314,1315,1316,0,0,0,0,71,71,0,
0,0,0,0,1343,1344,1345,0,0,0,0,0,0,0,0,0,0,0,0,0,1343,1344,1345,0,0,0,0,0,0,0,
0,0,0,0,1372,1373,1374,0,0,0,0,0,0,0,0,0,0,0,0,0,1372,1373,1374,0,0,0,0,0,0,0,
0,0,0,0,1401,1402,1403,0,0,0,0,0,0,0,0,0,0,0,0,0,1401,1402,1403,0,0,0,0,0,0,0,
0,71,71,0,1430,1431,1432,0,0,0,0,0,0,0,0,0,0,0,0,0,1430,1431,1432,0,0,0,0,71,71,0,
0,0,0,0,0,0,0,0,0,0,0,0,0,0,0,0,0,0,0,0,0,0,0,0,0,0,0,0,0,0,
0,0,0,0,0,0,0,0,0,0,0,0,0,0,0,0,0,0,0,0,0,0,0,0,0,0,0,0,0,0,
0,0,0,1106,0,0,0,0,0,0,1103,0,0,0,0,0,0,0,0,0,1103,0,0,0,0,0,1106,0,0,0,
0,0,0,0,0,0,0,0,0,0,0,0,20,0,0,0,20,0,0,0,0,0,0,0,0,0,0,0,0,0,
0,0,0,0,0,0,0,0,0,0,0,0,71,0,0,0,71,0,0,0,0,0,0,0,0,0,0,0,0,0,
0,0,0,0,0,0,0,0,0,0,0,0,0,0,0,0,0,0,0,0,0,0,0,0,0,0,0,0,0,0
</data>
 </layer>
 <layer id="6" name="overhead" width="30" height="17">
  <data encoding="csv">
0,0,0,0,0,0,0,0,0,0,0,0,0,0,0,0,0,0,0,0,0,0,0,0,0,0,0,0,0,0,
0,0,0,0,0,0,0,0,0,0,0,0,0,0,0,0,0,0,0,0,0,0,0,0,0,0,0,0,0,0,
0,0,0,0,0,0,0,0,0,0,0,0,0,0,0,0,0,0,0,0,0,0,0,0,0,0,0,0,0,0,
0,0,0,0,0,0,0,0,0,0,0,0,0,0,0,0,0,0,0,0,0,0,0,0,0,0,0,0,0,0,
0,0,0,0,0,0,0,0,0,0,0,0,0,0,0,0,0,0,0,0,0,0,0,0,0,0,0,0,0,0,
0,0,0,0,0,0,0,0,0,0,0,0,0,0,0,0,0,0,0,0,0,0,0,0,0,0,0,0,0,0,
0,0,0,0,0,0,0,0,0,0,0,0,0,0,0,0,0,0,0,0,0,0,0,0,0,0,0,0,0,0,
0,0,0,0,0,0,0,0,0,0,0,0,0,0,0,0,0,0,0,0,0,0,0,0,0,0,0,0,0,0,
0,0,0,0,0,0,0,0,0,0,0,0,0,0,0,0,0,0,0,0,0,0,0,0,0,0,0,0,0,0,
0,0,0,0,0,0,0,0,0,0,0,0,0,0,0,0,0,0,0,0,0,0,0,0,0,0,0,0,0,0,
0,0,0,0,0,0,0,0,0,0,0,0,0,0,0,0,0,0,0,0,0,0,0,0,0,0,0,0,0,0,
0,0,0,0,0,0,0,0,0,0,0,0,0,0,0,0,0,0,0,0,0,0,0,0,0,0,0,0,0,0,
0,0,0,0,0,0,0,0,0,0,0,0,0,0,0,0,0,0,0,0,0,0,0,0,0,0,0,0,0,0,
0,0,0,0,0,0,0,0,0,0,0,0,0,0,0,0,0,0,0,0,0,0,0,0,0,0,0,0,0,0,
0,0,0,0,0,0,0,0,0,0,0,0,0,0,0,0,0,0,0,0,0,0,0,0,0,0,0,0,0,0,
0,0,0,0,0,0,0,0,0,0,0,0,0,0,0,0,0,0,0,0,0,0,0,0,0,0,0,0,0,0,
0,0,0,0,0,0,0,0,0,0,0,0,0,0,0,0,0,0,0,0,0,0,0,0,0,0,0,0,0,0
</data>
 </layer>
 <objectgroup id="7" name="spawns">
  <object id="1" name="UP" type="ENTRY" x="232" y="24" />
  <object id="2" name="DOWN" type="ENTRY" x="232" y="248" />
  <object id="3" name="LEFT" type="ENTRY" x="24" y="136" />
  <object id="4" name="RIGHT" type="ENTRY" x="456" y="136" />
  <object id="5" name="" type="ENTRY" x="248" y="136" />
  <object id="6" name="locked" type="CHEST" x="232" y="136" />
  <object id="7" name="torch" type="PROP" x="56" y="264" />
  <object id="8" name="torch" type="PROP" x="424" y="264" />
  <object id="9" name="torch" type="PROP" x="8" y="232" />
  <object id="10" name="torch" type="PROP" x="472" y="232" />
  <object id="11" name="banner" type="PROP" x="120" y="264" />
  <object id="12" name="banner" type="PROP" x="360" y="264" />
 </objectgroup>
</map>