<?xml version='1.0' encoding='UTF-8'?>
<map version="1.10" tiledversion="1.10.2" orientation="orthogonal" renderorder="right-down" width="37" height="22" tilewidth="16" tileheight="16" infinite="0" nextlayerid="33" nextobjectid="291">
 <tileset firstgid="1" name="floor" tilewidth="16" tileheight="16" tilecount="572" columns="22">
  <image source="../gfx/tiles/overworld/tilesetfloor.png" width="352" height="416" />
 </tileset>
 <tileset firstgid="573" name="nature" tilewidth="16" tileheight="16" tilecount="504" columns="24">
  <image source="../gfx/tiles/overworld/tilesetnature.png" width="384" height="336" />
 </tileset>
 <tileset firstgid="1077" name="house" tilewidth="16" tileheight="16" tilecount="759" columns="33">
  <image source="../gfx/tiles/overworld/tilesethouse.png" width="528" height="368" />
 </tileset>
 <tileset firstgid="1836" name="ground_grass_details" tilewidth="16" tileheight="16" tilecount="378" columns="21">
  <image source="../gfx/tiles/home/ground_grass_details.png" width="336" height="288" />
 </tileset>
 <tileset firstgid="2214" name="exterior" tilewidth="16" tileheight="16" tilecount="969" columns="17">
  <image source="../gfx/tiles/home/exterior.png" width="272" height="912" />
 </tileset>
 <tileset firstgid="3183" name="house_details" tilewidth="16" tileheight="16" tilecount="170" columns="10">
  <image source="../gfx/tiles/home/house_details.png" width="160" height="272" />
 </tileset>
 <tileset firstgid="3353" name="smoke_animation" tilewidth="16" tileheight="16" tilecount="54" columns="18">
  <image source="../gfx/tiles/home/smoke_animation.png" width="288" height="48" />
  <tile id="0">
   <animation>
    <frame tileid="0" duration="150" />
    <frame tileid="3" duration="150" />
    <frame tileid="6" duration="150" />
    <frame tileid="9" duration="150" />
    <frame tileid="12" duration="150" />
    <frame tileid="15" duration="150" />
   </animation>
  </tile>
  <tile id="1">
   <animation>
    <frame tileid="1" duration="150" />
    <frame tileid="4" duration="150" />
    <frame tileid="7" duration="150" />
    <frame tileid="10" duration="150" />
    <frame tileid="13" duration="150" />
    <frame tileid="16" duration="150" />
   </animation>
  </tile>
  <tile id="2">
   <animation>
    <frame tileid="2" duration="150" />
    <frame tileid="5" duration="150" />
    <frame tileid="8" duration="150" />
    <frame tileid="11" duration="150" />
    <frame tileid="14" duration="150" />
    <frame tileid="17" duration="150" />
   </animation>
  </tile>
  <tile id="18">
   <animation>
    <frame tileid="18" duration="150" />
    <frame tileid="21" duration="150" />
    <frame tileid="24" duration="150" />
    <frame tileid="27" duration="150" />
    <frame tileid="30" duration="150" />
    <frame tileid="33" duration="150" />
   </animation>
  </tile>
  <tile id="19">
   <animation>
    <frame tileid="19" duration="150" />
    <frame tileid="22" duration="150" />
    <frame tileid="25" duration="150" />
    <frame tileid="28" duration="150" />
    <frame tileid="31" duration="150" />
    <frame tileid="34" duration="150" />
   </animation>
  </tile>
  <tile id="20">
   <animation>
    <frame tileid="20" duration="150" />
    <frame tileid="23" duration="150" />
    <frame tileid="26" duration="150" />
    <frame tileid="29" duration="150" />
    <frame tileid="32" duration="150" />
    <frame tileid="35" duration="150" />
   </animation>
  </tile>
  <tile id="36">
   <animation>
    <frame tileid="36" duration="150" />
    <frame tileid="39" duration="150" />
    <frame tileid="42" duration="150" />
    <frame tileid="45" duration="150" />
    <frame tileid="48" duration="150" />
    <frame tileid="51" duration="150" />
   </animation>
  </tile>
  <tile id="37">
   <animation>
    <frame tileid="37" duration="150" />
    <frame tileid="40" duration="150" />
    <frame tileid="43" duration="150" />
    <frame tileid="46" duration="150" />
    <frame tileid="49" duration="150" />
    <frame tileid="52" duration="150" />
   </animation>
  </tile>
  <tile id="38">
   <animation>
    <frame tileid="38" duration="150" />
    <frame tileid="41" duration="150" />
    <frame tileid="44" duration="150" />
    <frame tileid="47" duration="150" />
    <frame tileid="50" duration="150" />
    <frame tileid="53" duration="150" />
   </animation>
  </tile>
 </tileset>
 <tileset firstgid="3407" name="doors_windows_animation" tilewidth="16" tileheight="16" tilecount="204" columns="17">
  <image source="../gfx/tiles/home/doors_windows_animation.png" width="272" height="192" />
  <tile id="0">
   <animation>
    <frame tileid="0" duration="600" />
    <frame tileid="34" duration="150" />
    <frame tileid="68" duration="150" />
    <frame tileid="102" duration="600" />
    <frame tileid="136" duration="150" />
    <frame tileid="170" duration="150" />
   </animation>
  </tile>
  <tile id="1">
   <animation>
    <frame tileid="1" duration="600" />
    <frame tileid="35" duration="150" />
    <frame tileid="69" duration="150" />
    <frame tileid="103" duration="600" />
    <frame tileid="137" duration="150" />
    <frame tileid="171" duration="150" />
   </animation>
  </tile>
  <tile id="2">
   <animation>
    <frame tileid="2" duration="600" />
    <frame tileid="36" duration="150" />
    <frame tileid="70" duration="150" />
    <frame tileid="104" duration="600" />
    <frame tileid="138" duration="150" />
    <frame tileid="172" duration="150" />
   </animation>
  </tile>
  <tile id="3">
   <animation>
    <frame tileid="3" duration="600" />
    <frame tileid="37" duration="150" />
    <frame tileid="71" duration="150" />
    <frame tileid="105" duration="600" />
    <frame tileid="139" duration="150" />
    <frame tileid="173" duration="150" />
   </animation>
  </tile>
  <tile id="4">
   <animation>
    <frame tileid="4" duration="600" />
    <frame tileid="38" duration="150" />
    <frame tileid="72" duration="150" />
    <frame tileid="106" duration="600" />
    <frame tileid="140" duration="150" />
    <frame tileid="174" duration="150" />
   </animation>
  </tile>
  <tile id="5">
   <animation>
    <frame tileid="5" duration="600" />
    <frame tileid="39" duration="150" />
    <frame tileid="73" duration="150" />
    <frame tileid="107" duration="600" />
    <frame tileid="141" duration="150" />
    <frame tileid="175" duration="150" />
   </animation>
  </tile>
  <tile id="6">
   <animation>
    <frame tileid="6" duration="600" />
    <frame tileid="40" duration="150" />
    <frame tileid="74" duration="150" />
    <frame tileid="108" duration="600" />
    <frame tileid="142" duration="150" />
    <frame tileid="176" duration="150" />
   </animation>
  </tile>
  <tile id="7">
   <animation>
    <frame tileid="7" duration="600" />
    <frame tileid="41" duration="150" />
    <frame tileid="75" duration="150" />
    <frame tileid="109" duration="600" />
    <frame tileid="143" duration="150" />
    <frame tileid="177" duration="150" />
   </animation>
  </tile>
  <tile id="8">
   <animation>
    <frame tileid="8" duration="600" />
    <frame tileid="42" duration="150" />
    <frame tileid="76" duration="150" />
    <frame tileid="110" duration="600" />
    <frame tileid="144" duration="150" />
    <frame tileid="178" duration="150" />
   </animation>
  </tile>
  <tile id="9">
   <animation>
    <frame tileid="9" duration="600" />
    <frame tileid="43" duration="150" />
    <frame tileid="77" duration="150" />
    <frame tileid="111" duration="600" />
    <frame tileid="145" duration="150" />
    <frame tileid="179" duration="150" />
   </animation>
  </tile>
  <tile id="10">
   <animation>
    <frame tileid="10" duration="600" />
    <frame tileid="44" duration="150" />
    <frame tileid="78" duration="150" />
    <frame tileid="112" duration="600" />
    <frame tileid="146" duration="150" />
    <frame tileid="180" duration="150" />
   </animation>
  </tile>
  <tile id="11">
   <animation>
    <frame tileid="11" duration="600" />
    <frame tileid="45" duration="150" />
    <frame tileid="79" duration="150" />
    <frame tileid="113" duration="600" />
    <frame tileid="147" duration="150" />
    <frame tileid="181" duration="150" />
   </animation>
  </tile>
  <tile id="12">
   <animation>
    <frame tileid="12" duration="600" />
    <frame tileid="46" duration="150" />
    <frame tileid="80" duration="150" />
    <frame tileid="114" duration="600" />
    <frame tileid="148" duration="150" />
    <frame tileid="182" duration="150" />
   </animation>
  </tile>
  <tile id="13">
   <animation>
    <frame tileid="13" duration="600" />
    <frame tileid="47" duration="150" />
    <frame tileid="81" duration="150" />
    <frame tileid="115" duration="600" />
    <frame tileid="149" duration="150" />
    <frame tileid="183" duration="150" />
   </animation>
  </tile>
  <tile id="14">
   <animation>
    <frame tileid="14" duration="600" />
    <frame tileid="48" duration="150" />
    <frame tileid="82" duration="150" />
    <frame tileid="116" duration="600" />
    <frame tileid="150" duration="150" />
    <frame tileid="184" duration="150" />
   </animation>
  </tile>
  <tile id="15">
   <animation>
    <frame tileid="15" duration="600" />
    <frame tileid="49" duration="150" />
    <frame tileid="83" duration="150" />
    <frame tileid="117" duration="600" />
    <frame tileid="151" duration="150" />
    <frame tileid="185" duration="150" />
   </animation>
  </tile>
  <tile id="16">
   <animation>
    <frame tileid="16" duration="600" />
    <frame tileid="50" duration="150" />
    <frame tileid="84" duration="150" />
    <frame tileid="118" duration="600" />
    <frame tileid="152" duration="150" />
    <frame tileid="186" duration="150" />
   </animation>
  </tile>
  <tile id="17">
   <animation>
    <frame tileid="17" duration="600" />
    <frame tileid="51" duration="150" />
    <frame tileid="85" duration="150" />
    <frame tileid="119" duration="600" />
    <frame tileid="153" duration="150" />
    <frame tileid="187" duration="150" />
   </animation>
  </tile>
  <tile id="18">
   <animation>
    <frame tileid="18" duration="600" />
    <frame tileid="52" duration="150" />
    <frame tileid="86" duration="150" />
    <frame tileid="120" duration="600" />
    <frame tileid="154" duration="150" />
    <frame tileid="188" duration="150" />
   </animation>
  </tile>
  <tile id="19">
   <animation>
    <frame tileid="19" duration="600" />
    <frame tileid="53" duration="150" />
    <frame tileid="87" duration="150" />
    <frame tileid="121" duration="600" />
    <frame tileid="155" duration="150" />
    <frame tileid="189" duration="150" />
   </animation>
  </tile>
  <tile id="20">
   <animation>
    <frame tileid="20" duration="600" />
    <frame tileid="54" duration="150" />
    <frame tileid="88" duration="150" />
    <frame tileid="122" duration="600" />
    <frame tileid="156" duration="150" />
    <frame tileid="190" duration="150" />
   </animation>
  </tile>
  <tile id="21">
   <animation>
    <frame tileid="21" duration="600" />
    <frame tileid="55" duration="150" />
    <frame tileid="89" duration="150" />
    <frame tileid="123" duration="600" />
    <frame tileid="157" duration="150" />
    <frame tileid="191" duration="150" />
   </animation>
  </tile>
  <tile id="22">
   <animation>
    <frame tileid="22" duration="600" />
    <frame tileid="56" duration="150" />
    <frame tileid="90" duration="150" />
    <frame tileid="124" duration="600" />
    <frame tileid="158" duration="150" />
    <frame tileid="192" duration="150" />
   </animation>
  </tile>
  <tile id="23">
   <animation>
    <frame tileid="23" duration="600" />
    <frame tileid="57" duration="150" />
    <frame tileid="91" duration="150" />
    <frame tileid="125" duration="600" />
    <frame tileid="159" duration="150" />
    <frame tileid="193" duration="150" />
   </animation>
  </tile>
  <tile id="24">
   <animation>
    <frame tileid="24" duration="600" />
    <frame tileid="58" duration="150" />
    <frame tileid="92" duration="150" />
    <frame tileid="126" duration="600" />
    <frame tileid="160" duration="150" />
    <frame tileid="194" duration="150" />
   </animation>
  </tile>
  <tile id="25">
   <animation>
    <frame tileid="25" duration="600" />
    <frame tileid="59" duration="150" />
    <frame tileid="93" duration="150" />
    <frame tileid="127" duration="600" />
    <frame tileid="161" duration="150" />
    <frame tileid="195" duration="150" />
   </animation>
  </tile>
  <tile id="26">
   <animation>
    <frame tileid="26" duration="600" />
    <frame tileid="60" duration="150" />
    <frame tileid="94" duration="150" />
    <frame tileid="128" duration="600" />
    <frame tileid="162" duration="150" />
    <frame tileid="196" duration="150" />
   </animation>
  </tile>
  <tile id="27">
   <animation>
    <frame tileid="27" duration="600" />
    <frame tileid="61" duration="150" />
    <frame tileid="95" duration="150" />
    <frame tileid="129" duration="600" />
    <frame tileid="163" duration="150" />
    <frame tileid="197" duration="150" />
   </animation>
  </tile>
  <tile id="28">
   <animation>
    <frame tileid="28" duration="600" />
    <frame tileid="62" duration="150" />
    <frame tileid="96" duration="150" />
    <frame tileid="130" duration="600" />
    <frame tileid="164" duration="150" />
    <frame tileid="198" duration="150" />
   </animation>
  </tile>
  <tile id="29">
   <animation>
    <frame tileid="29" duration="600" />
    <frame tileid="63" duration="150" />
    <frame tileid="97" duration="150" />
    <frame tileid="131" duration="600" />
    <frame tileid="165" duration="150" />
    <frame tileid="199" duration="150" />
   </animation>
  </tile>
  <tile id="30">
   <animation>
    <frame tileid="30" duration="600" />
    <frame tileid="64" duration="150" />
    <frame tileid="98" duration="150" />
    <frame tileid="132" duration="600" />
    <frame tileid="166" duration="150" />
    <frame tileid="200" duration="150" />
   </animation>
  </tile>
  <tile id="31">
   <animation>
    <frame tileid="31" duration="600" />
    <frame tileid="65" duration="150" />
    <frame tileid="99" duration="150" />
    <frame tileid="133" duration="600" />
    <frame tileid="167" duration="150" />
    <frame tileid="201" duration="150" />
   </animation>
  </tile>
  <tile id="32">
   <animation>
    <frame tileid="32" duration="600" />
    <frame tileid="66" duration="150" />
    <frame tileid="100" duration="150" />
    <frame tileid="134" duration="600" />
    <frame tileid="168" duration="150" />
    <frame tileid="202" duration="150" />
   </animation>
  </tile>
  <tile id="33">
   <animation>
    <frame tileid="33" duration="600" />
    <frame tileid="67" duration="150" />
    <frame tileid="101" duration="150" />
    <frame tileid="135" duration="600" />
    <frame tileid="169" duration="150" />
    <frame tileid="203" duration="150" />
   </animation>
  </tile>
 </tileset>
 <tileset firstgid="3611" name="bird_jump_animation" tilewidth="16" tileheight="16" tilecount="240" columns="40">
  <image source="../gfx/tiles/home/bird_jump_animation.png" width="640" height="96" />
  <tile id="0">
   <animation>
    <frame tileid="0" duration="150" />
    <frame tileid="0" duration="150" />
    <frame tileid="0" duration="150" />
    <frame tileid="2" duration="150" />
    <frame tileid="4" duration="150" />
    <frame tileid="6" duration="150" />
    <frame tileid="8" duration="150" />
    <frame tileid="10" duration="150" />
    <frame tileid="12" duration="150" />
    <frame tileid="14" duration="150" />
    <frame tileid="16" duration="150" />
    <frame tileid="18" duration="150" />
    <frame tileid="20" duration="150" />
    <frame tileid="20" duration="150" />
    <frame tileid="20" duration="150" />
    <frame tileid="22" duration="150" />
    <frame tileid="24" duration="150" />
    <frame tileid="26" duration="150" />
    <frame tileid="28" duration="150" />
    <frame tileid="30" duration="150" />
    <frame tileid="32" duration="150" />
    <frame tileid="34" duration="150" />
    <frame tileid="36" duration="150" />
    <frame tileid="38" duration="150" />
   </animation>
  </tile>
  <tile id="1">
   <animation>
    <frame tileid="1" duration="150" />
    <frame tileid="1" duration="150" />
    <frame tileid="1" duration="150" />
    <frame tileid="3" duration="150" />
    <frame tileid="5" duration="150" />
    <frame tileid="7" duration="150" />
    <frame tileid="9" duration="150" />
    <frame tileid="11" duration="150" />
    <frame tileid="13" duration="150" />
    <frame tileid="15" duration="150" />
    <frame tileid="17" duration="150" />
    <frame tileid="19" duration="150" />
    <frame tileid="21" duration="150" />
    <frame tileid="21" duration="150" />
    <frame tileid="21" duration="150" />
    <frame tileid="23" duration="150" />
    <frame tileid="25" duration="150" />
    <frame tileid="27" duration="150" />
    <frame tileid="29" duration="150" />
    <frame tileid="31" duration="150" />
    <frame tileid="33" duration="150" />
    <frame tileid="35" duration="150" />
    <frame tileid="37" duration="150" />
    <frame tileid="39" duration="150" />
   </animation>
  </tile>
  <tile id="40">
   <animation>
    <frame tileid="40" duration="150" />
    <frame tileid="40" duration="150" />
    <frame tileid="40" duration="150" />
    <frame tileid="42" duration="150" />
    <frame tileid="44" duration="150" />
    <frame tileid="46" duration="150" />
    <frame tileid="48" duration="150" />
    <frame tileid="50" duration="150" />
    <frame tileid="52" duration="150" />
    <frame tileid="54" duration="150" />
    <frame tileid="56" duration="150" />
    <frame tileid="58" duration="150" />
    <frame tileid="60" duration="150" />
    <frame tileid="60" duration="150" />
    <frame tileid="60" duration="150" />
    <frame tileid="62" duration="150" />
    <frame tileid="64" duration="150" />
    <frame tileid="66" duration="150" />
    <frame tileid="68" duration="150" />
    <frame tileid="70" duration="150" />
    <frame tileid="72" duration="150" />
    <frame tileid="74" duration="150" />
    <frame tileid="76" duration="150" />
    <frame tileid="78" duration="150" />
   </animation>
  </tile>
  <tile id="41">
   <animation>
    <frame tileid="41" duration="150" />
    <frame tileid="41" duration="150" />
    <frame tileid="41" duration="150" />
    <frame tileid="43" duration="150" />
    <frame tileid="45" duration="150" />
    <frame tileid="47" duration="150" />
    <frame tileid="49" duration="150" />
    <frame tileid="51" duration="150" />
    <frame tileid="53" duration="150" />
    <frame tileid="55" duration="150" />
    <frame tileid="57" duration="150" />
    <frame tileid="59" duration="150" />
    <frame tileid="61" duration="150" />
    <frame tileid="61" duration="150" />
    <frame tileid="61" duration="150" />
    <frame tileid="63" duration="150" />
    <frame tileid="65" duration="150" />
    <frame tileid="67" duration="150" />
    <frame tileid="69" duration="150" />
    <frame tileid="71" duration="150" />
    <frame tileid="73" duration="150" />
    <frame tileid="75" duration="150" />
    <frame tileid="77" duration="150" />
    <frame tileid="79" duration="150" />
   </animation>
  </tile>
  <tile id="80">
   <animation>
    <frame tileid="102" duration="150" />
    <frame tileid="104" duration="150" />
    <frame tileid="106" duration="150" />
    <frame tileid="108" duration="150" />
    <frame tileid="110" duration="150" />
    <frame tileid="112" duration="150" />
    <frame tileid="114" duration="150" />
    <frame tileid="116" duration="150" />
    <frame tileid="118" duration="150" />
    <frame tileid="80" duration="150" />
    <frame tileid="80" duration="150" />
    <frame tileid="80" duration="150" />
    <frame tileid="82" duration="150" />
    <frame tileid="84" duration="150" />
    <frame tileid="86" duration="150" />
    <frame tileid="88" duration="150" />
    <frame tileid="90" duration="150" />
    <frame tileid="92" duration="150" />
    <frame tileid="94" duration="150" />
    <frame tileid="96" duration="150" />
    <frame tileid="98" duration="150" />
    <frame tileid="100" duration="150" />
    <frame tileid="100" duration="150" />
    <frame tileid="100" duration="150" />
   </animation>
  </tile>
  <tile id="81">
   <animation>
    <frame tileid="103" duration="150" />
    <frame tileid="105" duration="150" />
    <frame tileid="107" duration="150" />
    <frame tileid="109" duration="150" />
    <frame tileid="111" duration="150" />
    <frame tileid="113" duration="150" />
    <frame tileid="115" duration="150" />
    <frame tileid="117" duration="150" />
    <frame tileid="119" duration="150" />
    <frame tileid="81" duration="150" />
    <frame tileid="81" duration="150" />
    <frame tileid="81" duration="150" />
    <frame tileid="83" duration="150" />
    <frame tileid="85" duration="150" />
    <frame tileid="87" duration="150" />
    <frame tileid="89" duration="150" />
    <frame tileid="91" duration="150" />
    <frame tileid="93" duration="150" />
    <frame tileid="95" duration="150" />
    <frame tileid="97" duration="150" />
    <frame tileid="99" duration="150" />
    <frame tileid="101" duration="150" />
    <frame tileid="101" duration="150" />
    <frame tileid="101" duration="150" />
   </animation>
  </tile>
  <tile id="120">
   <animation>
    <frame tileid="142" duration="150" />
    <frame tileid="144" duration="150" />
    <frame tileid="146" duration="150" />
    <frame tileid="148" duration="150" />
    <frame tileid="150" duration="150" />
    <frame tileid="152" duration="150" />
    <frame tileid="154" duration="150" />
    <frame tileid="156" duration="150" />
    <frame tileid="158" duration="150" />
    <frame tileid="120" duration="150" />
    <frame tileid="120" duration="150" />
    <frame tileid="120" duration="150" />
    <frame tileid="122" duration="150" />
    <frame tileid="124" duration="150" />
    <frame tileid="126" duration="150" />
    <frame tileid="128" duration="150" />
    <frame tileid="130" duration="150" />
    <frame tileid="132" duration="150" />
    <frame tileid="134" duration="150" />
    <frame tileid="136" duration="150" />
    <frame tileid="138" duration="150" />
    <frame tileid="140" duration="150" />
    <frame tileid="140" duration="150" />
    <frame tileid="140" duration="150" />
   </animation>
  </tile>
  <tile id="121">
   <animation>
    <frame tileid="143" duration="150" />
    <frame tileid="145" duration="150" />
    <frame tileid="147" duration="150" />
    <frame tileid="149" duration="150" />
    <frame tileid="151" duration="150" />
    <frame tileid="153" duration="150" />
    <frame tileid="155" duration="150" />
    <frame tileid="157" duration="150" />
    <frame tileid="159" duration="150" />
    <frame tileid="121" duration="150" />
    <frame tileid="121" duration="150" />
    <frame tileid="121" duration="150" />
    <frame tileid="123" duration="150" />
    <frame tileid="125" duration="150" />
    <frame tileid="127" duration="150" />
    <frame tileid="129" duration="150" />
    <frame tileid="131" duration="150" />
    <frame tileid="133" duration="150" />
    <frame tileid="135" duration="150" />
    <frame tileid="137" duration="150" />
    <frame tileid="139" duration="150" />
    <frame tileid="141" duration="150" />
    <frame tileid="141" duration="150" />
    <frame tileid="141" duration="150" />
   </animation>
  </tile>
  <tile id="160">
   <animation>
    <frame tileid="190" duration="150" />
    <frame tileid="192" duration="150" />
    <frame tileid="194" duration="150" />
    <frame tileid="196" duration="150" />
    <frame tileid="198" duration="150" />
    <frame tileid="160" duration="150" />
    <frame tileid="160" duration="150" />
    <frame tileid="160" duration="150" />
    <frame tileid="162" duration="150" />
    <frame tileid="164" duration="150" />
    <frame tileid="166" duration="150" />
    <frame tileid="168" duration="150" />
    <frame tileid="170" duration="150" />
    <frame tileid="172" duration="150" />
    <frame tileid="174" duration="150" />
    <frame tileid="176" duration="150" />
    <frame tileid="178" duration="150" />
    <frame tileid="180" duration="150" />
    <frame tileid="180" duration="150" />
    <frame tileid="180" duration="150" />
    <frame tileid="182" duration="150" />
    <frame tileid="184" duration="150" />
    <frame tileid="186" duration="150" />
    <frame tileid="188" duration="150" />
   </animation>
  </tile>
  <tile id="161">
   <animation>
    <frame tileid="191" duration="150" />
    <frame tileid="193" duration="150" />
    <frame tileid="195" duration="150" />
    <frame tileid="197" duration="150" />
    <frame tileid="199" duration="150" />
    <frame tileid="161" duration="150" />
    <frame tileid="161" duration="150" />
    <frame tileid="161" duration="150" />
    <frame tileid="163" duration="150" />
    <frame tileid="165" duration="150" />
    <frame tileid="167" duration="150" />
    <frame tileid="169" duration="150" />
    <frame tileid="171" duration="150" />
    <frame tileid="173" duration="150" />
    <frame tileid="175" duration="150" />
    <frame tileid="177" duration="150" />
    <frame tileid="179" duration="150" />
    <frame tileid="181" duration="150" />
    <frame tileid="181" duration="150" />
    <frame tileid="181" duration="150" />
    <frame tileid="183" duration="150" />
    <frame tileid="185" duration="150" />
    <frame tileid="187" duration="150" />
    <frame tileid="189" duration="150" />
   </animation>
  </tile>
  <tile id="200">
   <animation>
    <frame tileid="230" duration="150" />
    <frame tileid="232" duration="150" />
    <frame tileid="234" duration="150" />
    <frame tileid="236" duration="150" />
    <frame tileid="238" duration="150" />
    <frame tileid="200" duration="150" />
    <frame tileid="200" duration="150" />
    <frame tileid="200" duration="150" />
    <frame tileid="202" duration="150" />
    <frame tileid="204" duration="150" />
    <frame tileid="206" duration="150" />
    <frame tileid="208" duration="150" />
    <frame tileid="210" duration="150" />
    <frame tileid="212" duration="150" />
    <frame tileid="214" duration="150" />
    <frame tileid="216" duration="150" />
    <frame tileid="218" duration="150" />
    <frame tileid="220" duration="150" />
    <frame tileid="220" duration="150" />
    <frame tileid="220" duration="150" />
    <frame tileid="222" duration="150" />
    <frame tileid="224" duration="150" />
    <frame tileid="226" duration="150" />
    <frame tileid="228" duration="150" />
   </animation>
  </tile>
  <tile id="201">
   <animation>
    <frame tileid="231" duration="150" />
    <frame tileid="233" duration="150" />
    <frame tileid="235" duration="150" />
    <frame tileid="237" duration="150" />
    <frame tileid="239" duration="150" />
    <frame tileid="201" duration="150" />
    <frame tileid="201" duration="150" />
    <frame tileid="201" duration="150" />
    <frame tileid="203" duration="150" />
    <frame tileid="205" duration="150" />
    <frame tileid="207" duration="150" />
    <frame tileid="209" duration="150" />
    <frame tileid="211" duration="150" />
    <frame tileid="213" duration="150" />
    <frame tileid="215" duration="150" />
    <frame tileid="217" duration="150" />
    <frame tileid="219" duration="150" />
    <frame tileid="221" duration="150" />
    <frame tileid="221" duration="150" />
    <frame tileid="221" duration="150" />
    <frame tileid="223" duration="150" />
    <frame tileid="225" duration="150" />
    <frame tileid="227" duration="150" />
    <frame tileid="229" duration="150" />
   </animation>
  </tile>
 </tileset>
 <tileset firstgid="3851" name="bird_fly_animation" tilewidth="16" tileheight="16" tilecount="1728" columns="27">
  <image source="../gfx/tiles/home/bird_fly_animation.png" width="432" height="1024" />
  <tile id="0">
   <animation>
    <frame tileid="0" duration="150" />
    <frame tileid="0" duration="150" />
    <frame tileid="0" duration="150" />
    <frame tileid="0" duration="150" />
    <frame tileid="0" duration="150" />
    <frame tileid="0" duration="150" />
    <frame tileid="0" duration="150" />
    <frame tileid="0" duration="150" />
    <frame tileid="0" duration="150" />
    <frame tileid="108" duration="150" />
    <frame tileid="216" duration="150" />
    <frame tileid="324" duration="150" />
    <frame tileid="432" duration="150" />
    <frame tileid="540" duration="150" />
    <frame tileid="648" duration="150" />
    <frame tileid="756" duration="150" />
    <frame tileid="864" duration="150" />
    <frame tileid="972" duration="150" />
    <frame tileid="1080" duration="150" />
    <frame tileid="1188" duration="150" />
    <frame tileid="1296" duration="150" />
    <frame tileid="1404" duration="150" />
    <frame tileid="1512" duration="150" />
    <frame tileid="1620" duration="150" />
   </animation>
  </tile>
  <tile id="1">
   <animation>
    <frame tileid="1" duration="150" />
    <frame tileid="1" duration="150" />
    <frame tileid="1" duration="150" />
    <frame tileid="1" duration="150" />
    <frame tileid="1" duration="150" />
    <frame tileid="1" duration="150" />
    <frame tileid="1" duration="150" />
    <frame tileid="1" duration="150" />
    <frame tileid="1" duration="150" />
    <frame tileid="109" duration="150" />
    <frame tileid="217" duration="150" />
    <frame tileid="325" duration="150" />
    <frame tileid="433" duration="150" />
    <frame tileid="541" duration="150" />
    <frame tileid="649" duration="150" />
    <frame tileid="757" duration="150" />
    <frame tileid="865" duration="150" />
    <frame tileid="973" duration="150" />
    <frame tileid="1081" duration="150" />
    <frame tileid="1189" duration="150" />
    <frame tileid="1297" duration="150" />
    <frame tileid="1405" duration="150" />
    <frame tileid="1513" duration="150" />
    <frame tileid="1621" duration="150" />
   </animation>
  </tile>
  <tile id="2">
   <animation>
    <frame tileid="2" duration="150" />
    <frame tileid="2" duration="150" />
    <frame tileid="2" duration="150" />
    <frame tileid="2" duration="150" />
    <frame tileid="2" duration="150" />
    <frame tileid="2" duration="150" />
    <frame tileid="2" duration="150" />
    <frame tileid="2" duration="150" />
    <frame tileid="2" duration="150" />
    <frame tileid="110" duration="150" />
    <frame tileid="218" duration="150" />
    <frame tileid="326" duration="150" />
    <frame tileid="434" duration="150" />
    <frame tileid="542" duration="150" />
    <frame tileid="650" duration="150" />
    <frame tileid="758" duration="150" />
    <frame tileid="866" duration="150" />
    <frame tileid="974" duration="150" />
    <frame tileid="1082" duration="150" />
    <frame tileid="1190" duration="150" />
    <frame tileid="1298" duration="150" />
    <frame tileid="1406" duration="150" />
    <frame tileid="1514" duration="150" />
    <frame tileid="1622" duration="150" />
   </animation>
  </tile>
  <tile id="3">
   <animation>
    <frame tileid="3" duration="150" />
    <frame tileid="3" duration="150" />
    <frame tileid="3" duration="150" />
    <frame tileid="3" duration="150" />
    <frame tileid="3" duration="150" />
    <frame tileid="3" duration="150" />
    <frame tileid="3" duration="150" />
    <frame tileid="3" duration="150" />
    <frame tileid="3" duration="150" />
    <frame tileid="111" duration="150" />
    <frame tileid="219" duration="150" />
    <frame tileid="327" duration="150" />
    <frame tileid="435" duration="150" />
    <frame tileid="543" duration="150" />
    <frame tileid="651" duration="150" />
    <frame tileid="759" duration="150" />
    <frame tileid="867" duration="150" />
    <frame tileid="975" duration="150" />
    <frame tileid="1083" duration="150" />
    <frame tileid="1191" duration="150" />
    <frame tileid="1299" duration="150" />
    <frame tileid="1407" duration="150" />
    <frame tileid="1515" duration="150" />
    <frame tileid="1623" duration="150" />
   </animation>
  </tile>
  <tile id="4">
   <animation>
    <frame tileid="4" duration="150" />
    <frame tileid="4" duration="150" />
    <frame tileid="4" duration="150" />
    <frame tileid="4" duration="150" />
    <frame tileid="4" duration="150" />
    <frame tileid="4" duration="150" />
    <frame tileid="4" duration="150" />
    <frame tileid="4" duration="150" />
    <frame tileid="4" duration="150" />
    <frame tileid="112" duration="150" />
    <frame tileid="220" duration="150" />
    <frame tileid="328" duration="150" />
    <frame tileid="436" duration="150" />
    <frame tileid="544" duration="150" />
    <frame tileid="652" duration="150" />
    <frame tileid="760" duration="150" />
    <frame tileid="868" duration="150" />
    <frame tileid="976" duration="150" />
    <frame tileid="1084" duration="150" />
    <frame tileid="1192" duration="150" />
    <frame tileid="1300" duration="150" />
    <frame tileid="1408" duration="150" />
    <frame tileid="1516" duration="150" />
    <frame tileid="1624" duration="150" />
   </animation>
  </tile>
  <tile id="5">
   <animation>
    <frame tileid="5" duration="150" />
    <frame tileid="5" duration="150" />
    <frame tileid="5" duration="150" />
    <frame tileid="5" duration="150" />
    <frame tileid="5" duration="150" />
    <frame tileid="5" duration="150" />
    <frame tileid="5" duration="150" />
    <frame tileid="5" duration="150" />
    <frame tileid="5" duration="150" />
    <frame tileid="113" duration="150" />
    <frame tileid="221" duration="150" />
    <frame tileid="329" duration="150" />
    <frame tileid="437" duration="150" />
    <frame tileid="545" duration="150" />
    <frame tileid="653" duration="150" />
    <frame tileid="761" duration="150" />
    <frame tileid="869" duration="150" />
    <frame tileid="977" duration="150" />
    <frame tileid="1085" duration="150" />
    <frame tileid="1193" duration="150" />
    <frame tileid="1301" duration="150" />
    <frame tileid="1409" duration="150" />
    <frame tileid="1517" duration="150" />
    <frame tileid="1625" duration="150" />
   </animation>
  </tile>
  <tile id="6">
   <animation>
    <frame tileid="6" duration="150" />
    <frame tileid="6" duration="150" />
    <frame tileid="6" duration="150" />
    <frame tileid="6" duration="150" />
    <frame tileid="6" duration="150" />
    <frame tileid="6" duration="150" />
    <frame tileid="6" duration="150" />
    <frame tileid="6" duration="150" />
    <frame tileid="6" duration="150" />
    <frame tileid="114" duration="150" />
    <frame tileid="222" duration="150" />
    <frame tileid="330" duration="150" />
    <frame tileid="438" duration="150" />
    <frame tileid="546" duration="150" />
    <frame tileid="654" duration="150" />
    <frame tileid="762" duration="150" />
    <frame tileid="870" duration="150" />
    <frame tileid="978" duration="150" />
    <frame tileid="1086" duration="150" />
    <frame tileid="1194" duration="150" />
    <frame tileid="1302" duration="150" />
    <frame tileid="1410" duration="150" />
    <frame tileid="1518" duration="150" />
    <frame tileid="1626" duration="150" />
   </animation>
  </tile>
  <tile id="7">
   <animation>
    <frame tileid="7" duration="150" />
    <frame tileid="7" duration="150" />
    <frame tileid="7" duration="150" />
    <frame tileid="7" duration="150" />
    <frame tileid="7" duration="150" />
    <frame tileid="7" duration="150" />
    <frame tileid="7" duration="150" />
    <frame tileid="7" duration="150" />
    <frame tileid="7" duration="150" />
    <frame tileid="115" duration="150" />
    <frame tileid="223" duration="150" />
    <frame tileid="331" duration="150" />
    <frame tileid="439" duration="150" />
    <frame tileid="547" duration="150" />
    <frame tileid="655" duration="150" />
    <frame tileid="763" duration="150" />
    <frame tileid="871" duration="150" />
    <frame tileid="979" duration="150" />
    <frame tileid="1087" duration="150" />
    <frame tileid="1195" duration="150" />
    <frame tileid="1303" duration="150" />
    <frame tileid="1411" duration="150" />
    <frame tileid="1519" duration="150" />
    <frame tileid="1627" duration="150" />
   </animation>
  </tile>
  <tile id="8">
   <animation>
    <frame tileid="8" duration="150" />
    <frame tileid="8" duration="150" />
    <frame tileid="8" duration="150" />
    <frame tileid="8" duration="150" />
    <frame tileid="8" duration="150" />
    <frame tileid="8" duration="150" />
    <frame tileid="8" duration="150" />
    <frame tileid="8" duration="150" />
    <frame tileid="8" duration="150" />
    <frame tileid="116" duration="150" />
    <frame tileid="224" duration="150" />
    <frame tileid="332" duration="150" />
    <frame tileid="440" duration="150" />
    <frame tileid="548" duration="150" />
    <frame tileid="656" duration="150" />
    <frame tileid="764" duration="150" />
    <frame tileid="872" duration="150" />
    <frame tileid="980" duration="150" />
    <frame tileid="1088" duration="150" />
    <frame tileid="1196" duration="150" />
    <frame tileid="1304" duration="150" />
    <frame tileid="1412" duration="150" />
    <frame tileid="1520" duration="150" />
    <frame tileid="1628" duration="150" />
   </animation>
  </tile>
  <tile id="9">
   <animation>
    <frame tileid="117" duration="150" />
    <frame tileid="225" duration="150" />
    <frame tileid="333" duration="150" />
    <frame tileid="441" duration="150" />
    <frame tileid="549" duration="150" />
    <frame tileid="657" duration="150" />
    <frame tileid="765" duration="150" />
    <frame tileid="873" duration="150" />
    <frame tileid="981" duration="150" />
    <frame tileid="1089" duration="150" />
    <frame tileid="1197" duration="150" />
    <frame tileid="1305" duration="150" />
    <frame tileid="1413" duration="150" />
    <frame tileid="1521" duration="150" />
    <frame tileid="1629" duration="150" />
    <frame tileid="9" duration="150" />
    <frame tileid="9" duration="150" />
    <frame tileid="9" duration="150" />
    <frame tileid="9" duration="150" />
    <frame tileid="9" duration="150" />
    <frame tileid="9" duration="150" />
    <frame tileid="9" duration="150" />
    <frame tileid="9" duration="150" />
    <frame tileid="9" duration="150" />
   </animation>
  </tile>
  <tile id="10">
   <animation>
    <frame tileid="118" duration="150" />
    <frame tileid="226" duration="150" />
    <frame tileid="334" duration="150" />
    <frame tileid="442" duration="150" />
    <frame tileid="550" duration="150" />
    <frame tileid="658" duration="150" />
    <frame tileid="766" duration="150" />
    <frame tileid="874" duration="150" />
    <frame tileid="982" duration="150" />
    <frame tileid="1090" duration="150" />
    <frame tileid="1198" duration="150" />
    <frame tileid="1306" duration="150" />
    <frame tileid="1414" duration="150" />
    <frame tileid="1522" duration="150" />
    <frame tileid="1630" duration="150" />
    <frame tileid="10" duration="150" />
    <frame tileid="10" duration="150" />
    <frame tileid="10" duration="150" />
    <frame tileid="10" duration="150" />
    <frame tileid="10" duration="150" />
    <frame tileid="10" duration="150" />
    <frame tileid="10" duration="150" />
    <frame tileid="10" duration="150" />
    <frame tileid="10" duration="150" />
   </animation>
  </tile>
  <tile id="11">
   <animation>
    <frame tileid="119" duration="150" />
    <frame tileid="227" duration="150" />
    <frame tileid="335" duration="150" />
    <frame tileid="443" duration="150" />
    <frame tileid="551" duration="150" />
    <frame tileid="659" duration="150" />
    <frame tileid="767" duration="150" />
    <frame tileid="875" duration="150" />
    <frame tileid="983" duration="150" />
    <frame tileid="1091" duration="150" />
    <frame tileid="1199" duration="150" />
    <frame tileid="1307" duration="150" />
    <frame tileid="1415" duration="150" />
    <frame tileid="1523" duration="150" />
    <frame tileid="1631" duration="150" />
    <frame tileid="11" duration="150" />
    <frame tileid="11" duration="150" />
    <frame tileid="11" duration="150" />
    <frame tileid="11" duration="150" />
    <frame tileid="11" duration="150" />
    <frame tileid="11" duration="150" />
    <frame tileid="11" duration="150" />
    <frame tileid="11" duration="150" />
    <frame tileid="11" duration="150" />
   </animation>
  </tile>
  <tile id="12">
   <animation>
    <frame tileid="120" duration="150" />
    <frame tileid="228" duration="150" />
    <frame tileid="336" duration="150" />
    <frame tileid="444" duration="150" />
    <frame tileid="552" duration="150" />
    <frame tileid="660" duration="150" />
    <frame tileid="768" duration="150" />
    <frame tileid="876" duration="150" />
    <frame tileid="984" duration="150" />
    <frame tileid="1092" duration="150" />
    <frame tileid="1200" duration="150" />
    <frame tileid="1308" duration="150" />
    <frame tileid="1416" duration="150" />
    <frame tileid="1524" duration="150" />
    <frame tileid="1632" duration="150" />
    <frame tileid="12" duration="150" />
    <frame tileid="12" duration="150" />
    <frame tileid="12" duration="150" />
    <frame tileid="12" duration="150" />
    <frame tileid="12" duration="150" />
    <frame tileid="12" duration="150" />
    <frame tileid="12" duration="150" />
    <frame tileid="12" duration="150" />
    <frame tileid="12" duration="150" />
   </animation>
  </tile>
  <tile id="13">
   <animation>
    <frame tileid="121" duration="150" />
    <frame tileid="229" duration="150" />
    <frame tileid="337" duration="150" />
    <frame tileid="445" duration="150" />
    <frame tileid="553" duration="150" />
    <frame tileid="661" duration="150" />
    <frame tileid="769" duration="150" />
    <frame tileid="877" duration="150" />
    <frame tileid="985" duration="150" />
    <frame tileid="1093" duration="150" />
    <frame tileid="1201" duration="150" />
    <frame tileid="1309" duration="150" />
    <frame tileid="1417" duration="150" />
    <frame tileid="1525" duration="150" />
    <frame tileid="1633" duration="150" />
    <frame tileid="13" duration="150" />
    <frame tileid="13" duration="150" />
    <frame tileid="13" duration="150" />
    <frame tileid="13" duration="150" />
    <frame tileid="13" duration="150" />
    <frame tileid="13" duration="150" />
    <frame tileid="13" duration="150" />
    <frame tileid="13" duration="150" />
    <frame tileid="13" duration="150" />
   </animation>
  </tile>
  <tile id="14">
   <animation>
    <frame tileid="122" duration="150" />
    <frame tileid="230" duration="150" />
    <frame tileid="338" duration="150" />
    <frame tileid="446" duration="150" />
    <frame tileid="554" duration="150" />
    <frame tileid="662" duration="150" />
    <frame tileid="770" duration="150" />
    <frame tileid="878" duration="150" />
    <frame tileid="986" duration="150" />
    <frame tileid="1094" duration="150" />
    <frame tileid="1202" duration="150" />
    <frame tileid="1310" duration="150" />
    <frame tileid="1418" duration="150" />
    <frame tileid="1526" duration="150" />
    <frame tileid="1634" duration="150" />
    <frame tileid="14" duration="150" />
    <frame tileid="14" duration="150" />
    <frame tileid="14" duration="150" />
    <frame tileid="14" duration="150" />
    <frame tileid="14" duration="150" />
    <frame tileid="14" duration="150" />
    <frame tileid="14" duration="150" />
    <frame tileid="14" duration="150" />
    <frame tileid="14" duration="150" />
   </animation>
  </tile>
  <tile id="15">
   <animation>
    <frame tileid="123" duration="150" />
    <frame tileid="231" duration="150" />
    <frame tileid="339" duration="150" />
    <frame tileid="447" duration="150" />
    <frame tileid="555" duration="150" />
    <frame tileid="663" duration="150" />
    <frame tileid="771" duration="150" />
    <frame tileid="879" duration="150" />
    <frame tileid="987" duration="150" />
    <frame tileid="1095" duration="150" />
    <frame tileid="1203" duration="150" />
    <frame tileid="1311" duration="150" />
    <frame tileid="1419" duration="150" />
    <frame tileid="1527" duration="150" />
    <frame tileid="1635" duration="150" />
    <frame tileid="15" duration="150" />
    <frame tileid="15" duration="150" />
    <frame tileid="15" duration="150" />
    <frame tileid="15" duration="150" />
    <frame tileid="15" duration="150" />
    <frame tileid="15" duration="150" />
    <frame tileid="15" duration="150" />
    <frame tileid="15" duration="150" />
    <frame tileid="15" duration="150" />
   </animation>
  </tile>
  <tile id="16">
   <animation>
    <frame tileid="124" duration="150" />
    <frame tileid="232" duration="150" />
    <frame tileid="340" duration="150" />
    <frame tileid="448" duration="150" />
    <frame tileid="556" duration="150" />
    <frame tileid="664" duration="150" />
    <frame tileid="772" duration="150" />
    <frame tileid="880" duration="150" />
    <frame tileid="988" duration="150" />
    <frame tileid="1096" duration="150" />
    <frame tileid="1204" duration="150" />
    <frame tileid="1312" duration="150" />
    <frame tileid="1420" duration="150" />
    <frame tileid="1528" duration="150" />
    <frame tileid="1636" duration="150" />
    <frame tileid="16" duration="150" />
    <frame tileid="16" duration="150" />
    <frame tileid="16" duration="150" />
    <frame tileid="16" duration="150" />
    <frame tileid="16" duration="150" />
    <frame tileid="16" duration="150" />
    <frame tileid="16" duration="150" />
    <frame tileid="16" duration="150" />
    <frame tileid="16" duration="150" />
   </animation>
  </tile>
  <tile id="17">
   <animation>
    <frame tileid="125" duration="150" />
    <frame tileid="233" duration="150" />
    <frame tileid="341" duration="150" />
    <frame tileid="449" duration="150" />
    <frame tileid="557" duration="150" />
    <frame tileid="665" duration="150" />
    <frame tileid="773" duration="150" />
    <frame tileid="881" duration="150" />
    <frame tileid="989" duration="150" />
    <frame tileid="1097" duration="150" />
    <frame tileid="1205" duration="150" />
    <frame tileid="1313" duration="150" />
    <frame tileid="1421" duration="150" />
    <frame tileid="1529" duration="150" />
    <frame tileid="1637" duration="150" />
    <frame tileid="17" duration="150" />
    <frame tileid="17" duration="150" />
    <frame tileid="17" duration="150" />
    <frame tileid="17" duration="150" />
    <frame tileid="17" duration="150" />
    <frame tileid="17" duration="150" />
    <frame tileid="17" duration="150" />
    <frame tileid="17" duration="150" />
    <frame tileid="17" duration="150" />
   </animation>
  </tile>
  <tile id="18">
   <animation>
    <frame tileid="18" duration="150" />
    <frame tileid="18" duration="150" />
    <frame tileid="18" duration="150" />
    <frame tileid="18" duration="150" />
    <frame tileid="126" duration="150" />
    <frame tileid="234" duration="150" />
    <frame tileid="342" duration="150" />
    <frame tileid="450" duration="150" />
    <frame tileid="558" duration="150" />
    <frame tileid="666" duration="150" />
    <frame tileid="774" duration="150" />
    <frame tileid="882" duration="150" />
    <frame tileid="990" duration="150" />
    <frame tileid="1098" duration="150" />
    <frame tileid="1206" duration="150" />
    <frame tileid="1314" duration="150" />
    <frame tileid="1422" duration="150" />
    <frame tileid="1530" duration="150" />
    <frame tileid="1638" duration="150" />
    <frame tileid="18" duration="150" />
    <frame tileid="18" duration="150" />
    <frame tileid="18" duration="150" />
    <frame tileid="18" duration="150" />
    <frame tileid="18" duration="150" />
   </animation>
  </tile>
  <tile id="19">
   <animation>
    <frame tileid="19" duration="150" />
    <frame tileid="19" duration="150" />
    <frame tileid="19" duration="150" />
    <frame tileid="19" duration="150" />
    <frame tileid="127" duration="150" />
    <frame tileid="235" duration="150" />
    <frame tileid="343" duration="150" />
    <frame tileid="451" duration="150" />
    <frame tileid="559" duration="150" />
    <frame tileid="667" duration="150" />
    <frame tileid="775" duration="150" />
    <frame tileid="883" duration="150" />
    <frame tileid="991" duration="150" />
    <frame tileid="1099" duration="150" />
    <frame tileid="1207" duration="150" />
    <frame tileid="1315" duration="150" />
    <frame tileid="1423" duration="150" />
    <frame tileid="1531" duration="150" />
    <frame tileid="1639" duration="150" />
    <frame tileid="19" duration="150" />
    <frame tileid="19" duration="150" />
    <frame tileid="19" duration="150" />
    <frame tileid="19" duration="150" />
    <frame tileid="19" duration="150" />
   </animation>
  </tile>
  <tile id="20">
   <animation>
    <frame tileid="20" duration="150" />
    <frame tileid="20" duration="150" />
    <frame tileid="20" duration="150" />
    <frame tileid="20" duration="150" />
    <frame tileid="128" duration="150" />
    <frame tileid="236" duration="150" />
    <frame tileid="344" duration="150" />
    <frame tileid="452" duration="150" />
    <frame tileid="560" duration="150" />
    <frame tileid="668" duration="150" />
    <frame tileid="776" duration="150" />
    <frame tileid="884" duration="150" />
    <frame tileid="992" duration="150" />
    <frame tileid="1100" duration="150" />
    <frame tileid="1208" duration="150" />
    <frame tileid="1316" duration="150" />
    <frame tileid="1424" duration="150" />
    <frame tileid="1532" duration="150" />
    <frame tileid="1640" duration="150" />
    <frame tileid="20" duration="150" />
    <frame tileid="20" duration="150" />
    <frame tileid="20" duration="150" />
    <frame tileid="20" duration="150" />
    <frame tileid="20" duration="150" />
   </animation>
  </tile>
  <tile id="21">
   <animation>
    <frame tileid="21" duration="150" />
    <frame tileid="21" duration="150" />
    <frame tileid="21" duration="150" />
    <frame tileid="21" duration="150" />
    <frame tileid="129" duration="150" />
    <frame tileid="237" duration="150" />
    <frame tileid="345" duration="150" />
    <frame tileid="453" duration="150" />
    <frame tileid="561" duration="150" />
    <frame tileid="669" duration="150" />
    <frame tileid="777" duration="150" />
    <frame tileid="885" duration="150" />
    <frame tileid="993" duration="150" />
    <frame tileid="1101" duration="150" />
    <frame tileid="1209" duration="150" />
    <frame tileid="1317" duration="150" />
    <frame tileid="1425" duration="150" />
    <frame tileid="1533" duration="150" />
    <frame tileid="1641" duration="150" />
    <frame tileid="21" duration="150" />
    <frame tileid="21" duration="150" />
    <frame tileid="21" duration="150" />
    <frame tileid="21" duration="150" />
    <frame tileid="21" duration="150" />
   </animation>
  </tile>
  <tile id="22">
   <animation>
    <frame tileid="22" duration="150" />
    <frame tileid="22" duration="150" />
    <frame tileid="22" duration="150" />
    <frame tileid="22" duration="150" />
    <frame tileid="130" duration="150" />
    <frame tileid="238" duration="150" />
    <frame tileid="346" duration="150" />
    <frame tileid="454" duration="150" />
    <frame tileid="562" duration="150" />
    <frame tileid="670" duration="150" />
    <frame tileid="778" duration="150" />
    <frame tileid="886" duration="150" />
    <frame tileid="994" duration="150" />
    <frame tileid="1102" duration="150" />
    <frame tileid="1210" duration="150" />
    <frame tileid="1318" duration="150" />
    <frame tileid="1426" duration="150" />
    <frame tileid="1534" duration="150" />
    <frame tileid="1642" duration="150" />
    <frame tileid="22" duration="150" />
    <frame tileid="22" duration="150" />
    <frame tileid="22" duration="150" />
    <frame tileid="22" duration="150" />
    <frame tileid="22" duration="150" />
   </animation>
  </tile>
  <tile id="23">
   <animation>
    <frame tileid="23" duration="150" />
    <frame tileid="23" duration="150" />
    <frame tileid="23" duration="150" />
    <frame tileid="23" duration="150" />
    <frame tileid="131" duration="150" />
    <frame tileid="239" duration="150" />
    <frame tileid="347" duration="150" />
    <frame tileid="455" duration="150" />
    <frame tileid="563" duration="150" />
    <frame tileid="671" duration="150" />
    <frame tileid="779" duration="150" />
    <frame tileid="887" duration="150" />
    <frame tileid="995" duration="150" />
    <frame tileid="1103" duration="150" />
    <frame tileid="1211" duration="150" />
    <frame tileid="1319" duration="150" />
    <frame tileid="1427" duration="150" />
    <frame tileid="1535" duration="150" />
    <frame tileid="1643" duration="150" />
    <frame tileid="23" duration="150" />
    <frame tileid="23" duration="150" />
    <frame tileid="23" duration="150" />
    <frame tileid="23" duration="150" />
    <frame tileid="23" duration="150" />
   </animation>
  </tile>
  <tile id="24">
   <animation>
    <frame tileid="24" duration="150" />
    <frame tileid="24" duration="150" />
    <frame tileid="24" duration="150" />
    <frame tileid="24" duration="150" />
    <frame tileid="132" duration="150" />
    <frame tileid="240" duration="150" />
    <frame tileid="348" duration="150" />
    <frame tileid="456" duration="150" />
    <frame tileid="564" duration="150" />
    <frame tileid="672" duration="150" />
    <frame tileid="780" duration="150" />
    <frame tileid="888" duration="150" />
    <frame tileid="996" duration="150" />
    <frame tileid="1104" duration="150" />
    <frame tileid="1212" duration="150" />
    <frame tileid="1320" duration="150" />
    <frame tileid="1428" duration="150" />
    <frame tileid="1536" duration="150" />
    <frame tileid="1644" duration="150" />
    <frame tileid="24" duration="150" />
    <frame tileid="24" duration="150" />
    <frame tileid="24" duration="150" />
    <frame tileid="24" duration="150" />
    <frame tileid="24" duration="150" />
   </animation>
  </tile>
  <tile id="25">
   <animation>
    <frame tileid="25" duration="150" />
    <frame tileid="25" duration="150" />
    <frame tileid="25" duration="150" />
    <frame tileid="25" duration="150" />
    <frame tileid="133" duration="150" />
    <frame tileid="241" duration="150" />
    <frame tileid="349" duration="150" />
    <frame tileid="457" duration="150" />
    <frame tileid="565" duration="150" />
    <frame tileid="673" duration="150" />
    <frame tileid="781" duration="150" />
    <frame tileid="889" duration="150" />
    <frame tileid="997" duration="150" />
    <frame tileid="1105" duration="150" />
    <frame tileid="1213" duration="150" />
    <frame tileid="1321" duration="150" />
    <frame tileid="1429" duration="150" />
    <frame tileid="1537" duration="150" />
    <frame tileid="1645" duration="150" />
    <frame tileid="25" duration="150" />
    <frame tileid="25" duration="150" />
    <frame tileid="25" duration="150" />
    <frame tileid="25" duration="150" />
    <frame tileid="25" duration="150" />
   </animation>
  </tile>
  <tile id="26">
   <animation>
    <frame tileid="25" duration="150" />
    <frame tileid="25" duration="150" />
    <frame tileid="25" duration="150" />
    <frame tileid="26" duration="150" />
    <frame tileid="134" duration="150" />
    <frame tileid="242" duration="150" />
    <frame tileid="350" duration="150" />
    <frame tileid="458" duration="150" />
    <frame tileid="566" duration="150" />
    <frame tileid="674" duration="150" />
    <frame tileid="782" duration="150" />
    <frame tileid="890" duration="150" />
    <frame tileid="998" duration="150" />
    <frame tileid="1106" duration="150" />
    <frame tileid="1214" duration="150" />
    <frame tileid="1322" duration="150" />
    <frame tileid="1430" duration="150" />
    <frame tileid="1538" duration="150" />
    <frame tileid="1646" duration="150" />
    <frame tileid="25" duration="150" />
    <frame tileid="25" duration="150" />
    <frame tileid="25" duration="150" />
    <frame tileid="25" duration="150" />
    <frame tileid="25" duration="150" />
   </animation>
  </tile>
  <tile id="27">
   <animation>
    <frame tileid="27" duration="150" />
    <frame tileid="27" duration="150" />
    <frame tileid="27" duration="150" />
    <frame tileid="27" duration="150" />
    <frame tileid="27" duration="150" />
    <frame tileid="27" duration="150" />
    <frame tileid="27" duration="150" />
    <frame tileid="27" duration="150" />
    <frame tileid="27" duration="150" />
    <frame tileid="135" duration="150" />
    <frame tileid="243" duration="150" />
    <frame tileid="351" duration="150" />
    <frame tileid="459" duration="150" />
    <frame tileid="567" duration="150" />
    <frame tileid="675" duration="150" />
    <frame tileid="783" duration="150" />
    <frame tileid="891" duration="150" />
    <frame tileid="999" duration="150" />
    <frame tileid="1107" duration="150" />
    <frame tileid="1215" duration="150" />
    <frame tileid="1323" duration="150" />
    <frame tileid="1431" duration="150" />
    <frame tileid="1539" duration="150" />
    <frame tileid="1647" duration="150" />
   </animation>
  </tile>
  <tile id="28">
   <animation>
    <frame tileid="28" duration="150" />
    <frame tileid="28" duration="150" />
    <frame tileid="28" duration="150" />
    <frame tileid="28" duration="150" />
    <frame tileid="28" duration="150" />
    <frame tileid="28" duration="150" />
    <frame tileid="28" duration="150" />
    <frame tileid="28" duration="150" />
    <frame tileid="28" duration="150" />
    <frame tileid="136" duration="150" />
    <frame tileid="244" duration="150" />
    <frame tileid="352" duration="150" />
    <frame tileid="460" duration="150" />
    <frame tileid="568" duration="150" />
    <frame tileid="676" duration="150" />
    <frame tileid="784" duration="150" />
    <frame tileid="892" duration="150" />
    <frame tileid="1000" duration="150" />
    <frame tileid="1108" duration="150" />
    <frame tileid="1216" duration="150" />
    <frame tileid="1324" duration="150" />
    <frame tileid="1432" duration="150" />
    <frame tileid="1540" duration="150" />
    <frame tileid="1648" duration="150" />
   </animation>
  </tile>
  <tile id="29">
   <animation>
    <frame tileid="29" duration="150" />
    <frame tileid="29" duration="150" />
    <frame tileid="29" duration="150" />
    <frame tileid="29" duration="150" />
    <frame tileid="29" duration="150" />
    <frame tileid="29" duration="150" />
    <frame tileid="29" duration="150" />
    <frame tileid="29" duration="150" />
    <frame tileid="29" duration="150" />
    <frame tileid="137" duration="150" />
    <frame tileid="245" duration="150" />
    <frame tileid="353" duration="150" />
    <frame tileid="461" duration="150" />
    <frame tileid="569" duration="150" />
    <frame tileid="677" duration="150" />
    <frame tileid="785" duration="150" />
    <frame tileid="893" duration="150" />
    <frame tileid="1001" duration="150" />
    <frame tileid="1109" duration="150" />
    <frame tileid="1217" duration="150" />
    <frame tileid="1325" duration="150" />
    <frame tileid="1433" duration="150" />
    <frame tileid="1541" duration="150" />
    <frame tileid="1649" duration="150" />
   </animation>
  </tile>
  <tile id="30">
   <animation>
    <frame tileid="30" duration="150" />
    <frame tileid="30" duration="150" />
    <frame tileid="30" duration="150" />
    <frame tileid="30" duration="150" />
    <frame tileid="30" duration="150" />
    <frame tileid="30" duration="150" />
    <frame tileid="30" duration="150" />
    <frame tileid="30" duration="150" />
    <frame tileid="30" duration="150" />
    <frame tileid="138" duration="150" />
    <frame tileid="246" duration="150" />
    <frame tileid="354" duration="150" />
    <frame tileid="462" duration="150" />
    <frame tileid="570" duration="150" />
    <frame tileid="678" duration="150" />
    <frame tileid="786" duration="150" />
    <frame tileid="894" duration="150" />
    <frame tileid="1002" duration="150" />
    <frame tileid="1110" duration="150" />
    <frame tileid="1218" duration="150" />
    <frame tileid="1326" duration="150" />
    <frame tileid="1434" duration="150" />
    <frame tileid="1542" duration="150" />
    <frame tileid="1650" duration="150" />
   </animation>
  </tile>
  <tile id="31">
   <animation>
    <frame tileid="31" duration="150" />
    <frame tileid="31" duration="150" />
    <frame tileid="31" duration="150" />
    <frame tileid="31" duration="150" />
    <frame tileid="31" duration="150" />
    <frame tileid="31" duration="150" />
    <frame tileid="31" duration="150" />
    <frame tileid="31" duration="150" />
    <frame tileid="31" duration="150" />
    <frame tileid="139" duration="150" />
    <frame tileid="247" duration="150" />
    <frame tileid="355" duration="150" />
    <frame tileid="463" duration="150" />
    <frame tileid="571" duration="150" />
    <frame tileid="679" duration="150" />
    <frame tileid="787" duration="150" />
    <frame tileid="895" duration="150" />
    <frame tileid="1003" duration="150" />
    <frame tileid="1111" duration="150" />
    <frame tileid="1219" duration="150" />
    <frame tileid="1327" duration="150" />
    <frame tileid="1435" duration="150" />
    <frame tileid="1543" duration="150" />
    <frame tileid="1651" duration="150" />
   </animation>
  </tile>
  <tile id="32">
   <animation>
    <frame tileid="32" duration="150" />
    <frame tileid="32" duration="150" />
    <frame tileid="32" duration="150" />
    <frame tileid="32" duration="150" />
    <frame tileid="32" duration="150" />
    <frame tileid="32" duration="150" />
    <frame tileid="32" duration="150" />
    <frame tileid="32" duration="150" />
    <frame tileid="32" duration="150" />
    <frame tileid="140" duration="150" />
    <frame tileid="248" duration="150" />
    <frame tileid="356" duration="150" />
    <frame tileid="464" duration="150" />
    <frame tileid="572" duration="150" />
    <frame tileid="680" duration="150" />
    <frame tileid="788" duration="150" />
    <frame tileid="896" duration="150" />
    <frame tileid="1004" duration="150" />
    <frame tileid="1112" duration="150" />
    <frame tileid="1220" duration="150" />
    <frame tileid="1328" duration="150" />
    <frame tileid="1436" duration="150" />
    <frame tileid="1544" duration="150" />
    <frame tileid="1652" duration="150" />
   </animation>
  </tile>
  <tile id="33">
   <animation>
    <frame tileid="33" duration="150" />
    <frame tileid="33" duration="150" />
    <frame tileid="33" duration="150" />
    <frame tileid="33" duration="150" />
    <frame tileid="33" duration="150" />
    <frame tileid="33" duration="150" />
    <frame tileid="33" duration="150" />
    <frame tileid="33" duration="150" />
    <frame tileid="33" duration="150" />
    <frame tileid="141" duration="150" />
    <frame tileid="249" duration="150" />
    <frame tileid="357" duration="150" />
    <frame tileid="465" duration="150" />
    <frame tileid="573" duration="150" />
    <frame tileid="681" duration="150" />
    <frame tileid="789" duration="150" />
    <frame tileid="897" duration="150" />
    <frame tileid="1005" duration="150" />
    <frame tileid="1113" duration="150" />
    <frame tileid="1221" duration="150" />
    <frame tileid="1329" duration="150" />
    <frame tileid="1437" duration="150" />
    <frame tileid="1545" duration="150" />
    <frame tileid="1653" duration="150" />
   </animation>
  </tile>
  <tile id="34">
   <animation>
    <frame tileid="34" duration="150" />
    <frame tileid="34" duration="150" />
    <frame tileid="34" duration="150" />
    <frame tileid="34" duration="150" />
    <frame tileid="34" duration="150" />
    <frame tileid="34" duration="150" />
    <frame tileid="34" duration="150" />
    <frame tileid="34" duration="150" />
    <frame tileid="34" duration="150" />
    <frame tileid="142" duration="150" />
    <frame tileid="250" duration="150" />
    <frame tileid="358" duration="150" />
    <frame tileid="466" duration="150" />
    <frame tileid="574" duration="150" />
    <frame tileid="682" duration="150" />
    <frame tileid="790" duration="150" />
    <frame tileid="898" duration="150" />
    <frame tileid="1006" duration="150" />
    <frame tileid="1114" duration="150" />
    <frame tileid="1222" duration="150" />
    <frame tileid="1330" duration="150" />
    <frame tileid="1438" duration="150" />
    <frame tileid="1546" duration="150" />
    <frame tileid="1654" duration="150" />
   </animation>
  </tile>
  <tile id="35">
   <animation>
    <frame tileid="35" duration="150" />
    <frame tileid="35" duration="150" />
    <frame tileid="35" duration="150" />
    <frame tileid="35" duration="150" />
    <frame tileid="35" duration="150" />
    <frame tileid="35" duration="150" />
    <frame tileid="35" duration="150" />
    <frame tileid="35" duration="150" />
    <frame tileid="35" duration="150" />
    <frame tileid="143" duration="150" />
    <frame tileid="251" duration="150" />
    <frame tileid="359" duration="150" />
    <frame tileid="467" duration="150" />
    <frame tileid="575" duration="150" />
    <frame tileid="683" duration="150" />
    <frame tileid="791" duration="150" />
    <frame tileid="899" duration="150" />
    <frame tileid="1007" duration="150" />
    <frame tileid="1115" duration="150" />
    <frame tileid="1223" duration="150" />
    <frame tileid="1331" duration="150" />
    <frame tileid="1439" duration="150" />
    <frame tileid="1547" duration="150" />
    <frame tileid="1655" duration="150" />
   </animation>
  </tile>
  <tile id="36">
   <animation>
    <frame tileid="144" duration="150" />
    <frame tileid="252" duration="150" />
    <frame tileid="360" duration="150" />
    <frame tileid="468" duration="150" />
    <frame tileid="576" duration="150" />
    <frame tileid="684" duration="150" />
    <frame tileid="792" duration="150" />
    <frame tileid="900" duration="150" />
    <frame tileid="1008" duration="150" />
    <frame tileid="1116" duration="150" />
    <frame tileid="1224" duration="150" />
    <frame tileid="1332" duration="150" />
    <frame tileid="1440" duration="150" />
    <frame tileid="1548" duration="150" />
    <frame tileid="1656" duration="150" />
    <frame tileid="36" duration="150" />
    <frame tileid="36" duration="150" />
    <frame tileid="36" duration="150" />
    <frame tileid="36" duration="150" />
    <frame tileid="36" duration="150" />
    <frame tileid="36" duration="150" />
    <frame tileid="36" duration="150" />
    <frame tileid="36" duration="150" />
    <frame tileid="36" duration="150" />
   </animation>
  </tile>
  <tile id="37">
   <animation>
    <frame tileid="145" duration="150" />
    <frame tileid="253" duration="150" />
    <frame tileid="361" duration="150" />
    <frame tileid="469" duration="150" />
    <frame tileid="577" duration="150" />
    <frame tileid="685" duration="150" />
    <frame tileid="793" duration="150" />
    <frame tileid="901" duration="150" />
    <frame tileid="1009" duration="150" />
    <frame tileid="1117" duration="150" />
    <frame tileid="1225" duration="150" />
    <frame tileid="1333" duration="150" />
    <frame tileid="1441" duration="150" />
    <frame tileid="1549" duration="150" />
    <frame tileid="1657" duration="150" />
    <frame tileid="37" duration="150" />
    <frame tileid="37" duration="150" />
    <frame tileid="37" duration="150" />
    <frame tileid="37" duration="150" />
    <frame tileid="37" duration="150" />
    <frame tileid="37" duration="150" />
    <frame tileid="37" duration="150" />
    <frame tileid="37" duration="150" />
    <frame tileid="37" duration="150" />
   </animation>
  </tile>
  <tile id="38">
   <animation>
    <frame tileid="146" duration="150" />
    <frame tileid="254" duration="150" />
    <frame tileid="362" duration="150" />
    <frame tileid="470" duration="150" />
    <frame tileid="578" duration="150" />
    <frame tileid="686" duration="150" />
    <frame tileid="794" duration="150" />
    <frame tileid="902" duration="150" />
    <frame tileid="1010" duration="150" />
    <frame tileid="1118" duration="150" />
    <frame tileid="1226" duration="150" />
    <frame tileid="1334" duration="150" />
    <frame tileid="1442" duration="150" />
    <frame tileid="1550" duration="150" />
    <frame tileid="1658" duration="150" />
    <frame tileid="38" duration="150" />
    <frame tileid="38" duration="150" />
    <frame tileid="38" duration="150" />
    <frame tileid="38" duration="150" />
    <frame tileid="38" duration="150" />
    <frame tileid="38" duration="150" />
    <frame tileid="38" duration="150" />
    <frame tileid="38" duration="150" />
    <frame tileid="38" duration="150" />
   </animation>
  </tile>
  <tile id="39">
   <animation>
    <frame tileid="147" duration="150" />
    <frame tileid="255" duration="150" />
    <frame tileid="363" duration="150" />
    <frame tileid="471" duration="150" />
    <frame tileid="579" duration="150" />
    <frame tileid="687" duration="150" />
    <frame tileid="795" duration="150" />
    <frame tileid="903" duration="150" />
    <frame tileid="1011" duration="150" />
    <frame tileid="1119" duration="150" />
    <frame tileid="1227" duration="150" />
    <frame tileid="1335" duration="150" />
    <frame tileid="1443" duration="150" />
    <frame tileid="1551" duration="150" />
    <frame tileid="1659" duration="150" />
    <frame tileid="39" duration="150" />
    <frame tileid="39" duration="150" />
    <frame tileid="39" duration="150" />
    <frame tileid="39" duration="150" />
    <frame tileid="39" duration="150" />
    <frame tileid="39" duration="150" />
    <frame tileid="39" duration="150" />
    <frame tileid="39" duration="150" />
    <frame tileid="39" duration="150" />
   </animation>
  </tile>
  <tile id="40">
   <animation>
    <frame tileid="148" duration="150" />
    <frame tileid="256" duration="150" />
    <frame tileid="364" duration="150" />
    <frame tileid="472" duration="150" />
    <frame tileid="580" duration="150" />
    <frame tileid="688" duration="150" />
    <frame tileid="796" duration="150" />
    <frame tileid="904" duration="150" />
    <frame tileid="1012" duration="150" />
    <frame tileid="1120" duration="150" />
    <frame tileid="1228" duration="150" />
    <frame tileid="1336" duration="150" />
    <frame tileid="1444" duration="150" />
    <frame tileid="1552" duration="150" />
    <frame tileid="1660" duration="150" />
    <frame tileid="40" duration="150" />
    <frame tileid="40" duration="150" />
    <frame tileid="40" duration="150" />
    <frame tileid="40" duration="150" />
    <frame tileid="40" duration="150" />
    <frame tileid="40" duration="150" />
    <frame tileid="40" duration="150" />
    <frame tileid="40" duration="150" />
    <frame tileid="40" duration="150" />
   </animation>
  </tile>
  <tile id="41">
   <animation>
    <frame tileid="149" duration="150" />
    <frame tileid="257" duration="150" />
    <frame tileid="365" duration="150" />
    <frame tileid="473" duration="150" />
    <frame tileid="581" duration="150" />
    <frame tileid="689" duration="150" />
    <frame tileid="797" duration="150" />
    <frame tileid="905" duration="150" />
    <frame tileid="1013" duration="150" />
    <frame tileid="1121" duration="150" />
    <frame tileid="1229" duration="150" />
    <frame tileid="1337" duration="150" />
    <frame tileid="1445" duration="150" />
    <frame tileid="1553" duration="150" />
    <frame tileid="1661" duration="150" />
    <frame tileid="41" duration="150" />
    <frame tileid="41" duration="150" />
    <frame tileid="41" duration="150" />
    <frame tileid="41" duration="150" />
    <frame tileid="41" duration="150" />
    <frame tileid="41" duration="150" />
    <frame tileid="41" duration="150" />
    <frame tileid="41" duration="150" />
    <frame tileid="41" duration="150" />
   </animation>
  </tile>
  <tile id="42">
   <animation>
    <frame tileid="150" duration="150" />
    <frame tileid="258" duration="150" />
    <frame tileid="366" duration="150" />
    <frame tileid="474" duration="150" />
    <frame tileid="582" duration="150" />
    <frame tileid="690" duration="150" />
    <frame tileid="798" duration="150" />
    <frame tileid="906" duration="150" />
    <frame tileid="1014" duration="150" />
    <frame tileid="1122" duration="150" />
    <frame tileid="1230" duration="150" />
    <frame tileid="1338" duration="150" />
    <frame tileid="1446" duration="150" />
    <frame tileid="1554" duration="150" />
    <frame tileid="1662" duration="150" />
    <frame tileid="42" duration="150" />
    <frame tileid="42" duration="150" />
    <frame tileid="42" duration="150" />
    <frame tileid="42" duration="150" />
    <frame tileid="42" duration="150" />
    <frame tileid="42" duration="150" />
    <frame tileid="42" duration="150" />
    <frame tileid="42" duration="150" />
    <frame tileid="42" duration="150" />
   </animation>
  </tile>
  <tile id="43">
   <animation>
    <frame tileid="151" duration="150" />
    <frame tileid="259" duration="150" />
    <frame tileid="367" duration="150" />
    <frame tileid="475" duration="150" />
    <frame tileid="583" duration="150" />
    <frame tileid="691" duration="150" />
    <frame tileid="799" duration="150" />
    <frame tileid="907" duration="150" />
    <frame tileid="1015" duration="150" />
    <frame tileid="1123" duration="150" />
    <frame tileid="1231" duration="150" />
    <frame tileid="1339" duration="150" />
    <frame tileid="1447" duration="150" />
    <frame tileid="1555" duration="150" />
    <frame tileid="1663" duration="150" />
    <frame tileid="43" duration="150" />
    <frame tileid="43" duration="150" />
    <frame tileid="43" duration="150" />
    <frame tileid="43" duration="150" />
    <frame tileid="43" duration="150" />
    <frame tileid="43" duration="150" />
    <frame tileid="43" duration="150" />
    <frame tileid="43" duration="150" />
    <frame tileid="43" duration="150" />
   </animation>
  </tile>
  <tile id="44">
   <animation>
    <frame tileid="152" duration="150" />
    <frame tileid="260" duration="150" />
    <frame tileid="368" duration="150" />
    <frame tileid="476" duration="150" />
    <frame tileid="584" duration="150" />
    <frame tileid="692" duration="150" />
    <frame tileid="800" duration="150" />
    <frame tileid="908" duration="150" />
    <frame tileid="1016" duration="150" />
    <frame tileid="1124" duration="150" />
    <frame tileid="1232" duration="150" />
    <frame tileid="1340" duration="150" />
    <frame tileid="1448" duration="150" />
    <frame tileid="1556" duration="150" />
    <frame tileid="1664" duration="150" />
    <frame tileid="44" duration="150" />
    <frame tileid="44" duration="150" />
    <frame tileid="44" duration="150" />
    <frame tileid="44" duration="150" />
    <frame tileid="44" duration="150" />
    <frame tileid="44" duration="150" />
    <frame tileid="44" duration="150" />
    <frame tileid="44" duration="150" />
    <frame tileid="44" duration="150" />
   </animation>
  </tile>
  <tile id="45">
   <animation>
    <frame tileid="45" duration="150" />
    <frame tileid="45" duration="150" />
    <frame tileid="45" duration="150" />
    <frame tileid="45" duration="150" />
    <frame tileid="153" duration="150" />
    <frame tileid="261" duration="150" />
    <frame tileid="369" duration="150" />
    <frame tileid="477" duration="150" />
    <frame tileid="585" duration="150" />
    <frame tileid="693" duration="150" />
    <frame tileid="801" duration="150" />
    <frame tileid="909" duration="150" />
    <frame tileid="1017" duration="150" />
    <frame tileid="1125" duration="150" />
    <frame tileid="1233" duration="150" />
    <frame tileid="1341" duration="150" />
    <frame tileid="1449" duration="150" />
    <frame tileid="1557" duration="150" />
    <frame tileid="1665" duration="150" />
    <frame tileid="45" duration="150" />
    <frame tileid="45" duration="150" />
    <frame tileid="45" duration="150" />
    <frame tileid="45" duration="150" />
    <frame tileid="45" duration="150" />
   </animation>
  </tile>
  <tile id="46">
   <animation>
    <frame tileid="46" duration="150" />
    <frame tileid="46" duration="150" />
    <frame tileid="46" duration="150" />
    <frame tileid="46" duration="150" />
    <frame tileid="154" duration="150" />
    <frame tileid="262" duration="150" />
    <frame tileid="370" duration="150" />
    <frame tileid="478" duration="150" />
    <frame tileid="586" duration="150" />
    <frame tileid="694" duration="150" />
    <frame tileid="802" duration="150" />
    <frame tileid="910" duration="150" />
    <frame tileid="1018" duration="150" />
    <frame tileid="1126" duration="150" />
    <frame tileid="1234" duration="150" />
    <frame tileid="1342" duration="150" />
    <frame tileid="1450" duration="150" />
    <frame tileid="1558" duration="150" />
    <frame tileid="1666" duration="150" />
    <frame tileid="46" duration="150" />
    <frame tileid="46" duration="150" />
    <frame tileid="46" duration="150" />
    <frame tileid="46" duration="150" />
    <frame tileid="46" duration="150" />
   </animation>
  </tile>
  <tile id="47">
   <animation>
    <frame tileid="47" duration="150" />
    <frame tileid="47" duration="150" />
    <frame tileid="47" duration="150" />
    <frame tileid="47" duration="150" />
    <frame tileid="155" duration="150" />
    <frame tileid="263" duration="150" />
    <frame tileid="371" duration="150" />
    <frame tileid="479" duration="150" />
    <frame tileid="587" duration="150" />
    <frame tileid="695" duration="150" />
    <frame tileid="803" duration="150" />
    <frame tileid="911" duration="150" />
    <frame tileid="1019" duration="150" />
    <frame tileid="1127" duration="150" />
    <frame tileid="1235" duration="150" />
    <frame tileid="1343" duration="150" />
    <frame tileid="1451" duration="150" />
    <frame tileid="1559" duration="150" />
    <frame tileid="1667" duration="150" />
    <frame tileid="47" duration="150" />
    <frame tileid="47" duration="150" />
    <frame tileid="47" duration="150" />
    <frame tileid="47" duration="150" />
    <frame tileid="47" duration="150" />
   </animation>
  </tile>
  <tile id="48">
   <animation>
    <frame tileid="48" duration="150" />
    <frame tileid="48" duration="150" />
    <frame tileid="48" duration="150" />
    <frame tileid="48" duration="150" />
    <frame tileid="156" duration="150" />
    <frame tileid="264" duration="150" />
    <frame tileid="372" duration="150" />
    <frame tileid="480" duration="150" />
    <frame tileid="588" duration="150" />
    <frame tileid="696" duration="150" />
    <frame tileid="804" duration="150" />
    <frame tileid="912" duration="150" />
    <frame tileid="1020" duration="150" />
    <frame tileid="1128" duration="150" />
    <frame tileid="1236" duration="150" />
    <frame tileid="1344" duration="150" />
    <frame tileid="1452" duration="150" />
    <frame tileid="1560" duration="150" />
    <frame tileid="1668" duration="150" />
    <frame tileid="48" duration="150" />
    <frame tileid="48" duration="150" />
    <frame tileid="48" duration="150" />
    <frame tileid="48" duration="150" />
    <frame tileid="48" duration="150" />
   </animation>
  </tile>
  <tile id="49">
   <animation>
    <frame tileid="49" duration="150" />
    <frame tileid="49" duration="150" />
    <frame tileid="49" duration="150" />
    <frame tileid="49" duration="150" />
    <frame tileid="157" duration="150" />
    <frame tileid="265" duration="150" />
    <frame tileid="373" duration="150" />
    <frame tileid="481" duration="150" />
    <frame tileid="589" duration="150" />
    <frame tileid="697" duration="150" />
    <frame tileid="805" duration="150" />
    <frame tileid="913" duration="150" />
    <frame tileid="1021" duration="150" />
    <frame tileid="1129" duration="150" />
    <frame tileid="1237" duration="150" />
    <frame tileid="1345" duration="150" />
    <frame tileid="1453" duration="150" />
    <frame tileid="1561" duration="150" />
    <frame tileid="1669" duration="150" />
    <frame tileid="49" duration="150" />
    <frame tileid="49" duration="150" />
    <frame tileid="49" duration="150" />
    <frame tileid="49" duration="150" />
    <frame tileid="49" duration="150" />
   </animation>
  </tile>
  <tile id="50">
   <animation>
    <frame tileid="50" duration="150" />
    <frame tileid="50" duration="150" />
    <frame tileid="50" duration="150" />
    <frame tileid="50" duration="150" />
    <frame tileid="158" duration="150" />
    <frame tileid="266" duration="150" />
    <frame tileid="374" duration="150" />
    <frame tileid="482" duration="150" />
    <frame tileid="590" duration="150" />
    <frame tileid="698" duration="150" />
    <frame tileid="806" duration="150" />
    <frame tileid="914" duration="150" />
    <frame tileid="1022" duration="150" />
    <frame tileid="1130" duration="150" />
    <frame tileid="1238" duration="150" />
    <frame tileid="1346" duration="150" />
    <frame tileid="1454" duration="150" />
    <frame tileid="1562" duration="150" />
    <frame tileid="1670" duration="150" />
    <frame tileid="50" duration="150" />
    <frame tileid="50" duration="150" />
    <frame tileid="50" duration="150" />
    <frame tileid="50" duration="150" />
    <frame tileid="50" duration="150" />
   </animation>
  </tile>
  <tile id="51">
   <animation>
    <frame tileid="51" duration="150" />
    <frame tileid="51" duration="150" />
    <frame tileid="51" duration="150" />
    <frame tileid="51" duration="150" />
    <frame tileid="159" duration="150" />
    <frame tileid="267" duration="150" />
    <frame tileid="375" duration="150" />
    <frame tileid="483" duration="150" />
    <frame tileid="591" duration="150" />
    <frame tileid="699" duration="150" />
    <frame tileid="807" duration="150" />
    <frame tileid="915" duration="150" />
    <frame tileid="1023" duration="150" />
    <frame tileid="1131" duration="150" />
    <frame tileid="1239" duration="150" />
    <frame tileid="1347" duration="150" />
    <frame tileid="1455" duration="150" />
    <frame tileid="1563" duration="150" />
    <frame tileid="1671" duration="150" />
    <frame tileid="51" duration="150" />
    <frame tileid="51" duration="150" />
    <frame tileid="51" duration="150" />
    <frame tileid="51" duration="150" />
    <frame tileid="51" duration="150" />
   </animation>
  </tile>
  <tile id="52">
   <animation>
    <frame tileid="52" duration="150" />
    <frame tileid="52" duration="150" />
    <frame tileid="52" duration="150" />
    <frame tileid="52" duration="150" />
    <frame tileid="160" duration="150" />
    <frame tileid="268" duration="150" />
    <frame tileid="376" duration="150" />
    <frame tileid="484" duration="150" />
    <frame tileid="592" duration="150" />
    <frame tileid="700" duration="150" />
    <frame tileid="808" duration="150" />
    <frame tileid="916" duration="150" />
    <frame tileid="1024" duration="150" />
    <frame tileid="1132" duration="150" />
    <frame tileid="1240" duration="150" />
    <frame tileid="1348" duration="150" />
    <frame tileid="1456" duration="150" />
    <frame tileid="1564" duration="150" />
    <frame tileid="1672" duration="150" />
    <frame tileid="52" duration="150" />
    <frame tileid="52" duration="150" />
    <frame tileid="52" duration="150" />
    <frame tileid="52" duration="150" />
    <frame tileid="52" duration="150" />
   </animation>
  </tile>
  <tile id="53">
   <animation>
    <frame tileid="53" duration="150" />
    <frame tileid="53" duration="150" />
    <frame tileid="53" duration="150" />
    <frame tileid="53" duration="150" />
    <frame tileid="161" duration="150" />
    <frame tileid="269" duration="150" />
    <frame tileid="377" duration="150" />
    <frame tileid="485" duration="150" />
    <frame tileid="593" duration="150" />
    <frame tileid="701" duration="150" />
    <frame tileid="809" duration="150" />
    <frame tileid="917" duration="150" />
    <frame tileid="1025" duration="150" />
    <frame tileid="1133" duration="150" />
    <frame tileid="1241" duration="150" />
    <frame tileid="1349" duration="150" />
    <frame tileid="1457" duration="150" />
    <frame tileid="1565" duration="150" />
    <frame tileid="1673" duration="150" />
    <frame tileid="53" duration="150" />
    <frame tileid="53" duration="150" />
    <frame tileid="53" duration="150" />
    <frame tileid="53" duration="150" />
    <frame tileid="53" duration="150" />
   </animation>
  </tile>
  <tile id="54">
   <animation>
    <frame tileid="54" duration="150" />
    <frame tileid="54" duration="150" />
    <frame tileid="54" duration="150" />
    <frame tileid="54" duration="150" />
    <frame tileid="54" duration="150" />
    <frame tileid="54" duration="150" />
    <frame tileid="54" duration="150" />
    <frame tileid="54" duration="150" />
    <frame tileid="54" duration="150" />
    <frame tileid="162" duration="150" />
    <frame tileid="270" duration="150" />
    <frame tileid="378" duration="150" />
    <frame tileid="486" duration="150" />
    <frame tileid="567" duration="150" />
    <frame tileid="702" duration="150" />
    <frame tileid="810" duration="150" />
    <frame tileid="918" duration="150" />
    <frame tileid="1026" duration="150" />
    <frame tileid="1134" duration="150" />
    <frame tileid="1242" duration="150" />
    <frame tileid="1350" duration="150" />
    <frame tileid="1458" duration="150" />
    <frame tileid="1566" duration="150" />
    <frame tileid="1674" duration="150" />
   </animation>
  </tile>
  <tile id="55">
   <animation>
    <frame tileid="55" duration="150" />
    <frame tileid="55" duration="150" />
    <frame tileid="55" duration="150" />
    <frame tileid="55" duration="150" />
    <frame tileid="55" duration="150" />
    <frame tileid="55" duration="150" />
    <frame tileid="55" duration="150" />
    <frame tileid="55" duration="150" />
    <frame tileid="55" duration="150" />
    <frame tileid="163" duration="150" />
    <frame tileid="271" duration="150" />
    <frame tileid="379" duration="150" />
    <frame tileid="487" duration="150" />
    <frame tileid="595" duration="150" />
    <frame tileid="703" duration="150" />
    <frame tileid="811" duration="150" />
    <frame tileid="919" duration="150" />
    <frame tileid="1027" duration="150" />
    <frame tileid="1135" duration="150" />
    <frame tileid="1243" duration="150" />
    <frame tileid="1351" duration="150" />
    <frame tileid="1459" duration="150" />
    <frame tileid="1567" duration="150" />
    <frame tileid="1675" duration="150" />
   </animation>
  </tile>
  <tile id="56">
   <animation>
    <frame tileid="56" duration="150" />
    <frame tileid="56" duration="150" />
    <frame tileid="56" duration="150" />
    <frame tileid="56" duration="150" />
    <frame tileid="56" duration="150" />
    <frame tileid="56" duration="150" />
    <frame tileid="56" duration="150" />
    <frame tileid="56" duration="150" />
    <frame tileid="56" duration="150" />
    <frame tileid="164" duration="150" />
    <frame tileid="272" duration="150" />
    <frame tileid="380" duration="150" />
    <frame tileid="488" duration="150" />
    <frame tileid="596" duration="150" />
    <frame tileid="704" duration="150" />
    <frame tileid="812" duration="150" />
    <frame tileid="920" duration="150" />
    <frame tileid="1028" duration="150" />
    <frame tileid="1136" duration="150" />
    <frame tileid="1244" duration="150" />
    <frame tileid="1352" duration="150" />
    <frame tileid="1460" duration="150" />
    <frame tileid="1568" duration="150" />
    <frame tileid="1676" duration="150" />
   </animation>
  </tile>
  <tile id="57">
   <animation>
    <frame tileid="57" duration="150" />
    <frame tileid="57" duration="150" />
    <frame tileid="57" duration="150" />
    <frame tileid="57" duration="150" />
    <frame tileid="57" duration="150" />
    <frame tileid="57" duration="150" />
    <frame tileid="57" duration="150" />
    <frame tileid="57" duration="150" />
    <frame tileid="57" duration="150" />
    <frame tileid="165" duration="150" />
    <frame tileid="273" duration="150" />
    <frame tileid="381" duration="150" />
    <frame tileid="489" duration="150" />
    <frame tileid="597" duration="150" />
    <frame tileid="705" duration="150" />
    <frame tileid="813" duration="150" />
    <frame tileid="921" duration="150" />
    <frame tileid="1029" duration="150" />
    <frame tileid="1137" duration="150" />
    <frame tileid="1245" duration="150" />
    <frame tileid="1353" duration="150" />
    <frame tileid="1461" duration="150" />
    <frame tileid="1569" duration="150" />
    <frame tileid="1677" duration="150" />
   </animation>
  </tile>
  <tile id="58">
   <animation>
    <frame tileid="58" duration="150" />
    <frame tileid="58" duration="150" />
    <frame tileid="58" duration="150" />
    <frame tileid="58" duration="150" />
    <frame tileid="58" duration="150" />
    <frame tileid="58" duration="150" />
    <frame tileid="58" duration="150" />
    <frame tileid="58" duration="150" />
    <frame tileid="58" duration="150" />
    <frame tileid="166" duration="150" />
    <frame tileid="274" duration="150" />
    <frame tileid="382" duration="150" />
    <frame tileid="490" duration="150" />
    <frame tileid="598" duration="150" />
    <frame tileid="706" duration="150" />
    <frame tileid="814" duration="150" />
    <frame tileid="922" duration="150" />
    <frame tileid="1030" duration="150" />
    <frame tileid="1138" duration="150" />
    <frame tileid="1246" duration="150" />
    <frame tileid="1354" duration="150" />
    <frame tileid="1462" duration="150" />
    <frame tileid="1570" duration="150" />
    <frame tileid="1678" duration="150" />
   </animation>
  </tile>
  <tile id="59">
   <animation>
    <frame tileid="59" duration="150" />
    <frame tileid="59" duration="150" />
    <frame tileid="59" duration="150" />
    <frame tileid="59" duration="150" />
    <frame tileid="59" duration="150" />
    <frame tileid="59" duration="150" />
    <frame tileid="59" duration="150" />
    <frame tileid="59" duration="150" />
    <frame tileid="59" duration="150" />
    <frame tileid="167" duration="150" />
    <frame tileid="275" duration="150" />
    <frame tileid="383" duration="150" />
    <frame tileid="491" duration="150" />
    <frame tileid="599" duration="150" />
    <frame tileid="707" duration="150" />
    <frame tileid="815" duration="150" />
    <frame tileid="923" duration="150" />
    <frame tileid="1031" duration="150" />
    <frame tileid="1139" duration="150" />
    <frame tileid="1247" duration="150" />
    <frame tileid="1355" duration="150" />
    <frame tileid="1463" duration="150" />
    <frame tileid="1571" duration="150" />
    <frame tileid="1679" duration="150" />
   </animation>
  </tile>
  <tile id="60">
   <animation>
    <frame tileid="59" duration="150" />
    <frame tileid="59" duration="150" />
    <frame tileid="59" duration="150" />
    <frame tileid="59" duration="150" />
    <frame tileid="59" duration="150" />
    <frame tileid="59" duration="150" />
    <frame tileid="59" duration="150" />
    <frame tileid="59" duration="150" />
    <frame tileid="60" duration="150" />
    <frame tileid="168" duration="150" />
    <frame tileid="276" duration="150" />
    <frame tileid="384" duration="150" />
    <frame tileid="492" duration="150" />
    <frame tileid="600" duration="150" />
    <frame tileid="708" duration="150" />
    <frame tileid="816" duration="150" />
    <frame tileid="924" duration="150" />
    <frame tileid="1032" duration="150" />
    <frame tileid="1140" duration="150" />
    <frame tileid="1248" duration="150" />
    <frame tileid="1356" duration="150" />
    <frame tileid="1464" duration="150" />
    <frame tileid="1572" duration="150" />
    <frame tileid="1680" duration="150" />
   </animation>
  </tile>
  <tile id="61">
   <animation>
    <frame tileid="61" duration="150" />
    <frame tileid="61" duration="150" />
    <frame tileid="61" duration="150" />
    <frame tileid="61" duration="150" />
    <frame tileid="61" duration="150" />
    <frame tileid="61" duration="150" />
    <frame tileid="61" duration="150" />
    <frame tileid="61" duration="150" />
    <frame tileid="61" duration="150" />
    <frame tileid="169" duration="150" />
    <frame tileid="277" duration="150" />
    <frame tileid="385" duration="150" />
    <frame tileid="493" duration="150" />
    <frame tileid="601" duration="150" />
    <frame tileid="709" duration="150" />
    <frame tileid="817" duration="150" />
    <frame tileid="925" duration="150" />
    <frame tileid="1033" duration="150" />
    <frame tileid="1141" duration="150" />
    <frame tileid="1249" duration="150" />
    <frame tileid="1357" duration="150" />
    <frame tileid="1465" duration="150" />
    <frame tileid="1573" duration="150" />
    <frame tileid="1681" duration="150" />
   </animation>
  </tile>
  <tile id="62">
   <animation>
    <frame tileid="62" duration="150" />
    <frame tileid="62" duration="150" />
    <frame tileid="62" duration="150" />
    <frame tileid="62" duration="150" />
    <frame tileid="62" duration="150" />
    <frame tileid="62" duration="150" />
    <frame tileid="62" duration="150" />
    <frame tileid="62" duration="150" />
    <frame tileid="62" duration="150" />
    <frame tileid="170" duration="150" />
    <frame tileid="278" duration="150" />
    <frame tileid="386" duration="150" />
    <frame tileid="494" duration="150" />
    <frame tileid="602" duration="150" />
    <frame tileid="710" duration="150" />
    <frame tileid="818" duration="150" />
    <frame tileid="926" duration="150" />
    <frame tileid="1034" duration="150" />
    <frame tileid="1142" duration="150" />
    <frame tileid="1250" duration="150" />
    <frame tileid="1358" duration="150" />
    <frame tileid="1466" duration="150" />
    <frame tileid="1574" duration="150" />
    <frame tileid="1682" duration="150" />
   </animation>
  </tile>
  <tile id="63">
   <animation>
    <frame tileid="171" duration="150" />
    <frame tileid="279" duration="150" />
    <frame tileid="387" duration="150" />
    <frame tileid="495" duration="150" />
    <frame tileid="603" duration="150" />
    <frame tileid="711" duration="150" />
    <frame tileid="819" duration="150" />
    <frame tileid="927" duration="150" />
    <frame tileid="1035" duration="150" />
    <frame tileid="1143" duration="150" />
    <frame tileid="1251" duration="150" />
    <frame tileid="1359" duration="150" />
    <frame tileid="1467" duration="150" />
    <frame tileid="1575" duration="150" />
    <frame tileid="1683" duration="150" />
    <frame tileid="63" duration="150" />
    <frame tileid="63" duration="150" />
    <frame tileid="63" duration="150" />
    <frame tileid="63" duration="150" />
    <frame tileid="63" duration="150" />
    <frame tileid="63" duration="150" />
    <frame tileid="63" duration="150" />
    <frame tileid="63" duration="150" />
    <frame tileid="63" duration="150" />
   </animation>
  </tile>
  <tile id="64">
   <animation>
    <frame tileid="172" duration="150" />
    <frame tileid="280" duration="150" />
    <frame tileid="388" duration="150" />
    <frame tileid="496" duration="150" />
    <frame tileid="604" duration="150" />
    <frame tileid="712" duration="150" />
    <frame tileid="820" duration="150" />
    <frame tileid="928" duration="150" />
    <frame tileid="1036" duration="150" />
    <frame tileid="1144" duration="150" />
    <frame tileid="1252" duration="150" />
    <frame tileid="1360" duration="150" />
    <frame tileid="1468" duration="150" />
    <frame tileid="1576" duration="150" />
    <frame tileid="1684" duration="150" />
    <frame tileid="64" duration="150" />
    <frame tileid="64" duration="150" />
    <frame tileid="64" duration="150" />
    <frame tileid="64" duration="150" />
    <frame tileid="64" duration="150" />
    <frame tileid="64" duration="150" />
    <frame tileid="64" duration="150" />
    <frame tileid="64" duration="150" />
    <frame tileid="64" duration="150" />
   </animation>
  </tile>
  <tile id="65">
   <animation>
    <frame tileid="173" duration="150" />
    <frame tileid="281" duration="150" />
    <frame tileid="389" duration="150" />
    <frame tileid="497" duration="150" />
    <frame tileid="605" duration="150" />
    <frame tileid="713" duration="150" />
    <frame tileid="821" duration="150" />
    <frame tileid="929" duration="150" />
    <frame tileid="1037" duration="150" />
    <frame tileid="1145" duration="150" />
    <frame tileid="1253" duration="150" />
    <frame tileid="1361" duration="150" />
    <frame tileid="1469" duration="150" />
    <frame tileid="1577" duration="150" />
    <frame tileid="1685" duration="150" />
    <frame tileid="65" duration="150" />
    <frame tileid="65" duration="150" />
    <frame tileid="65" duration="150" />
    <frame tileid="65" duration="150" />
    <frame tileid="65" duration="150" />
    <frame tileid="65" duration="150" />
    <frame tileid="65" duration="150" />
    <frame tileid="65" duration="150" />
    <frame tileid="65" duration="150" />
   </animation>
  </tile>
  <tile id="66">
   <animation>
    <frame tileid="174" duration="150" />
    <frame tileid="282" duration="150" />
    <frame tileid="390" duration="150" />
    <frame tileid="498" duration="150" />
    <frame tileid="606" duration="150" />
    <frame tileid="714" duration="150" />
    <frame tileid="822" duration="150" />
    <frame tileid="930" duration="150" />
    <frame tileid="1038" duration="150" />
    <frame tileid="1146" duration="150" />
    <frame tileid="1254" duration="150" />
    <frame tileid="1362" duration="150" />
    <frame tileid="1470" duration="150" />
    <frame tileid="1578" duration="150" />
    <frame tileid="1686" duration="150" />
    <frame tileid="66" duration="150" />
    <frame tileid="66" duration="150" />
    <frame tileid="66" duration="150" />
    <frame tileid="66" duration="150" />
    <frame tileid="66" duration="150" />
    <frame tileid="66" duration="150" />
    <frame tileid="66" duration="150" />
    <frame tileid="66" duration="150" />
    <frame tileid="66" duration="150" />
   </animation>
  </tile>
  <tile id="67">
   <animation>
    <frame tileid="175" duration="150" />
    <frame tileid="283" duration="150" />
    <frame tileid="391" duration="150" />
    <frame tileid="499" duration="150" />
    <frame tileid="607" duration="150" />
    <frame tileid="715" duration="150" />
    <frame tileid="823" duration="150" />
    <frame tileid="931" duration="150" />
    <frame tileid="1039" duration="150" />
    <frame tileid="1147" duration="150" />
    <frame tileid="1255" duration="150" />
    <frame tileid="1363" duration="150" />
    <frame tileid="1471" duration="150" />
    <frame tileid="1579" duration="150" />
    <frame tileid="1687" duration="150" />
    <frame tileid="67" duration="150" />
    <frame tileid="67" duration="150" />
    <frame tileid="67" duration="150" />
    <frame tileid="67" duration="150" />
    <frame tileid="67" duration="150" />
    <frame tileid="67" duration="150" />
    <frame tileid="67" duration="150" />
    <frame tileid="67" duration="150" />
    <frame tileid="67" duration="150" />
   </animation>
  </tile>
  <tile id="68">
   <animation>
    <frame tileid="176" duration="150" />
    <frame tileid="284" duration="150" />
    <frame tileid="392" duration="150" />
    <frame tileid="500" duration="150" />
    <frame tileid="608" duration="150" />
    <frame tileid="716" duration="150" />
    <frame tileid="824" duration="150" />
    <frame tileid="932" duration="150" />
    <frame tileid="1040" duration="150" />
    <frame tileid="1148" duration="150" />
    <frame tileid="1256" duration="150" />
    <frame tileid="1364" duration="150" />
    <frame tileid="1472" duration="150" />
    <frame tileid="1580" duration="150" />
    <frame tileid="1688" duration="150" />
    <frame tileid="68" duration="150" />
    <frame tileid="68" duration="150" />
    <frame tileid="68" duration="150" />
    <frame tileid="68" duration="150" />
    <frame tileid="68" duration="150" />
    <frame tileid="68" duration="150" />
    <frame tileid="68" duration="150" />
    <frame tileid="68" duration="150" />
    <frame tileid="68" duration="150" />
   </animation>
  </tile>
  <tile id="69">
   <animation>
    <frame tileid="177" duration="150" />
    <frame tileid="285" duration="150" />
    <frame tileid="393" duration="150" />
    <frame tileid="501" duration="150" />
    <frame tileid="609" duration="150" />
    <frame tileid="717" duration="150" />
    <frame tileid="825" duration="150" />
    <frame tileid="933" duration="150" />
    <frame tileid="1041" duration="150" />
    <frame tileid="1149" duration="150" />
    <frame tileid="1257" duration="150" />
    <frame tileid="1365" duration="150" />
    <frame tileid="1473" duration="150" />
    <frame tileid="1581" duration="150" />
    <frame tileid="1689" duration="150" />
    <frame tileid="69" duration="150" />
    <frame tileid="69" duration="150" />
    <frame tileid="69" duration="150" />
    <frame tileid="69" duration="150" />
    <frame tileid="69" duration="150" />
    <frame tileid="69" duration="150" />
    <frame tileid="69" duration="150" />
    <frame tileid="69" duration="150" />
    <frame tileid="69" duration="150" />
   </animation>
  </tile>
  <tile id="70">
   <animation>
    <frame tileid="178" duration="150" />
    <frame tileid="286" duration="150" />
    <frame tileid="394" duration="150" />
    <frame tileid="502" duration="150" />
    <frame tileid="610" duration="150" />
    <frame tileid="718" duration="150" />
    <frame tileid="826" duration="150" />
    <frame tileid="934" duration="150" />
    <frame tileid="1042" duration="150" />
    <frame tileid="1150" duration="150" />
    <frame tileid="1258" duration="150" />
    <frame tileid="1366" duration="150" />
    <frame tileid="1474" duration="150" />
    <frame tileid="1582" duration="150" />
    <frame tileid="1690" duration="150" />
    <frame tileid="70" duration="150" />
    <frame tileid="70" duration="150" />
    <frame tileid="70" duration="150" />
    <frame tileid="70" duration="150" />
    <frame tileid="70" duration="150" />
    <frame tileid="70" duration="150" />
    <frame tileid="70" duration="150" />
    <frame tileid="70" duration="150" />
    <frame tileid="70" duration="150" />
   </animation>
  </tile>
  <tile id="71">
   <animation>
    <frame tileid="179" duration="150" />
    <frame tileid="287" duration="150" />
    <frame tileid="395" duration="150" />
    <frame tileid="503" duration="150" />
    <frame tileid="611" duration="150" />
    <frame tileid="719" duration="150" />
    <frame tileid="827" duration="150" />
    <frame tileid="935" duration="150" />
    <frame tileid="1043" duration="150" />
    <frame tileid="1151" duration="150" />
    <frame tileid="1259" duration="150" />
    <frame tileid="1367" duration="150" />
    <frame tileid="1475" duration="150" />
    <frame tileid="1583" duration="150" />
    <frame tileid="1691" duration="150" />
    <frame tileid="71" duration="150" />
    <frame tileid="71" duration="150" />
    <frame tileid="71" duration="150" />
    <frame tileid="71" duration="150" />
    <frame tileid="71" duration="150" />
    <frame tileid="71" duration="150" />
    <frame tileid="71" duration="150" />
    <frame tileid="71" duration="150" />
    <frame tileid="71" duration="150" />
   </animation>
  </tile>
  <tile id="72">
   <animation>
    <frame tileid="72" duration="150" />
    <frame tileid="72" duration="150" />
    <frame tileid="72" duration="150" />
    <frame tileid="72" duration="150" />
    <frame tileid="180" duration="150" />
    <frame tileid="288" duration="150" />
    <frame tileid="396" duration="150" />
    <frame tileid="504" duration="150" />
    <frame tileid="612" duration="150" />
    <frame tileid="720" duration="150" />
    <frame tileid="828" duration="150" />
    <frame tileid="936" duration="150" />
    <frame tileid="1044" duration="150" />
    <frame tileid="1152" duration="150" />
    <frame tileid="1260" duration="150" />
    <frame tileid="1368" duration="150" />
    <frame tileid="1476" duration="150" />
    <frame tileid="1584" duration="150" />
    <frame tileid="1692" duration="150" />
    <frame tileid="72" duration="150" />
    <frame tileid="72" duration="150" />
    <frame tileid="72" duration="150" />
    <frame tileid="72" duration="150" />
    <frame tileid="72" duration="150" />
   </animation>
  </tile>
  <tile id="73">
   <animation>
    <frame tileid="73" duration="150" />
    <frame tileid="73" duration="150" />
    <frame tileid="73" duration="150" />
    <frame tileid="73" duration="150" />
    <frame tileid="181" duration="150" />
    <frame tileid="289" duration="150" />
    <frame tileid="397" duration="150" />
    <frame tileid="505" duration="150" />
    <frame tileid="613" duration="150" />
    <frame tileid="721" duration="150" />
    <frame tileid="829" duration="150" />
    <frame tileid="937" duration="150" />
    <frame tileid="1045" duration="150" />
    <frame tileid="1153" duration="150" />
    <frame tileid="1261" duration="150" />
    <frame tileid="1369" duration="150" />
    <frame tileid="1477" duration="150" />
    <frame tileid="1585" duration="150" />
    <frame tileid="1693" duration="150" />
    <frame tileid="73" duration="150" />
    <frame tileid="73" duration="150" />
    <frame tileid="73" duration="150" />
    <frame tileid="73" duration="150" />
    <frame tileid="73" duration="150" />
   </animation>
  </tile>
  <tile id="74">
   <animation>
    <frame tileid="74" duration="150" />
    <frame tileid="74" duration="150" />
    <frame tileid="74" duration="150" />
    <frame tileid="74" duration="150" />
    <frame tileid="182" duration="150" />
    <frame tileid="290" duration="150" />
    <frame tileid="398" duration="150" />
    <frame tileid="506" duration="150" />
    <frame tileid="614" duration="150" />
    <frame tileid="722" duration="150" />
    <frame tileid="830" duration="150" />
    <frame tileid="938" duration="150" />
    <frame tileid="1046" duration="150" />
    <frame tileid="1154" duration="150" />
    <frame tileid="1262" duration="150" />
    <frame tileid="1370" duration="150" />
    <frame tileid="1478" duration="150" />
    <frame tileid="1586" duration="150" />
    <frame tileid="1694" duration="150" />
    <frame tileid="74" duration="150" />
    <frame tileid="74" duration="150" />
    <frame tileid="74" duration="150" />
    <frame tileid="74" duration="150" />
    <frame tileid="74" duration="150" />
   </animation>
  </tile>
  <tile id="75">
   <animation>
    <frame tileid="75" duration="150" />
    <frame tileid="75" duration="150" />
    <frame tileid="75" duration="150" />
    <frame tileid="75" duration="150" />
    <frame tileid="183" duration="150" />
    <frame tileid="291" duration="150" />
    <frame tileid="399" duration="150" />
    <frame tileid="507" duration="150" />
    <frame tileid="615" duration="150" />
    <frame tileid="723" duration="150" />
    <frame tileid="831" duration="150" />
    <frame tileid="939" duration="150" />
    <frame tileid="1047" duration="150" />
    <frame tileid="1155" duration="150" />
    <frame tileid="1263" duration="150" />
    <frame tileid="1371" duration="150" />
    <frame tileid="1479" duration="150" />
    <frame tileid="1587" duration="150" />
    <frame tileid="1695" duration="150" />
    <frame tileid="75" duration="150" />
    <frame tileid="75" duration="150" />
    <frame tileid="75" duration="150" />
    <frame tileid="75" duration="150" />
    <frame tileid="75" duration="150" />
   </animation>
  </tile>
  <tile id="76">
   <animation>
    <frame tileid="76" duration="150" />
    <frame tileid="76" duration="150" />
    <frame tileid="76" duration="150" />
    <frame tileid="76" duration="150" />
    <frame tileid="184" duration="150" />
    <frame tileid="292" duration="150" />
    <frame tileid="400" duration="150" />
    <frame tileid="508" duration="150" />
    <frame tileid="616" duration="150" />
    <frame tileid="724" duration="150" />
    <frame tileid="832" duration="150" />
    <frame tileid="940" duration="150" />
    <frame tileid="1048" duration="150" />
    <frame tileid="1156" duration="150" />
    <frame tileid="1264" duration="150" />
    <frame tileid="1372" duration="150" />
    <frame tileid="1480" duration="150" />
    <frame tileid="1588" duration="150" />
    <frame tileid="1696" duration="150" />
    <frame tileid="76" duration="150" />
    <frame tileid="76" duration="150" />
    <frame tileid="76" duration="150" />
    <frame tileid="76" duration="150" />
    <frame tileid="76" duration="150" />
   </animation>
  </tile>
  <tile id="77">
   <animation>
    <frame tileid="77" duration="150" />
    <frame tileid="77" duration="150" />
    <frame tileid="77" duration="150" />
    <frame tileid="77" duration="150" />
    <frame tileid="185" duration="150" />
    <frame tileid="293" duration="150" />
    <frame tileid="401" duration="150" />
    <frame tileid="509" duration="150" />
    <frame tileid="617" duration="150" />
    <frame tileid="725" duration="150" />
    <frame tileid="833" duration="150" />
    <frame tileid="941" duration="150" />
    <frame tileid="1049" duration="150" />
    <frame tileid="1157" duration="150" />
    <frame tileid="1265" duration="150" />
    <frame tileid="1373" duration="150" />
    <frame tileid="1481" duration="150" />
    <frame tileid="1589" duration="150" />
    <frame tileid="1697" duration="150" />
    <frame tileid="77" duration="150" />
    <frame tileid="77" duration="150" />
    <frame tileid="77" duration="150" />
    <frame tileid="77" duration="150" />
    <frame tileid="77" duration="150" />
   </animation>
  </tile>
  <tile id="78">
   <animation>
    <frame tileid="78" duration="150" />
    <frame tileid="78" duration="150" />
    <frame tileid="78" duration="150" />
    <frame tileid="78" duration="150" />
    <frame tileid="186" duration="150" />
    <frame tileid="294" duration="150" />
    <frame tileid="402" duration="150" />
    <frame tileid="510" duration="150" />
    <frame tileid="618" duration="150" />
    <frame tileid="726" duration="150" />
    <frame tileid="834" duration="150" />
    <frame tileid="942" duration="150" />
    <frame tileid="1050" duration="150" />
    <frame tileid="1158" duration="150" />
    <frame tileid="1266" duration="150" />
    <frame tileid="1374" duration="150" />
    <frame tileid="1482" duration="150" />
    <frame tileid="1590" duration="150" />
    <frame tileid="1698" duration="150" />
    <frame tileid="78" duration="150" />
    <frame tileid="78" duration="150" />
    <frame tileid="78" duration="150" />
    <frame tileid="78" duration="150" />
    <frame tileid="78" duration="150" />
   </animation>
  </tile>
  <tile id="79">
   <animation>
    <frame tileid="79" duration="150" />
    <frame tileid="79" duration="150" />
    <frame tileid="79" duration="150" />
    <frame tileid="79" duration="150" />
    <frame tileid="187" duration="150" />
    <frame tileid="295" duration="150" />
    <frame tileid="403" duration="150" />
    <frame tileid="511" duration="150" />
    <frame tileid="619" duration="150" />
    <frame tileid="727" duration="150" />
    <frame tileid="835" duration="150" />
    <frame tileid="943" duration="150" />
    <frame tileid="1051" duration="150" />
    <frame tileid="1159" duration="150" />
    <frame tileid="1267" duration="150" />
    <frame tileid="1375" duration="150" />
    <frame tileid="1483" duration="150" />
    <frame tileid="1591" duration="150" />
    <frame tileid="1699" duration="150" />
    <frame tileid="79" duration="150" />
    <frame tileid="79" duration="150" />
    <frame tileid="79" duration="150" />
    <frame tileid="79" duration="150" />
    <frame tileid="79" duration="150" />
   </animation>
  </tile>
  <tile id="80">
   <animation>
    <frame tileid="80" duration="150" />
    <frame tileid="80" duration="150" />
    <frame tileid="80" duration="150" />
    <frame tileid="80" duration="150" />
    <frame tileid="188" duration="150" />
    <frame tileid="296" duration="150" />
    <frame tileid="404" duration="150" />
    <frame tileid="512" duration="150" />
    <frame tileid="620" duration="150" />
    <frame tileid="728" duration="150" />
    <frame tileid="836" duration="150" />
    <frame tileid="944" duration="150" />
    <frame tileid="1052" duration="150" />
    <frame tileid="1160" duration="150" />
    <frame tileid="1268" duration="150" />
    <frame tileid="1376" duration="150" />
    <frame tileid="1484" duration="150" />
    <frame tileid="1592" duration="150" />
    <frame tileid="1700" duration="150" />
    <frame tileid="80" duration="150" />
    <frame tileid="80" duration="150" />
    <frame tileid="80" duration="150" />
    <frame tileid="80" duration="150" />
    <frame tileid="80" duration="150" />
   </animation>
  </tile>
  <tile id="81">
   <animation>
    <frame tileid="81" duration="150" />
    <frame tileid="81" duration="150" />
    <frame tileid="81" duration="150" />
    <frame tileid="81" duration="150" />
    <frame tileid="81" duration="150" />
    <frame tileid="81" duration="150" />
    <frame tileid="81" duration="150" />
    <frame tileid="81" duration="150" />
    <frame tileid="81" duration="150" />
    <frame tileid="189" duration="150" />
    <frame tileid="297" duration="150" />
    <frame tileid="405" duration="150" />
    <frame tileid="513" duration="150" />
    <frame tileid="621" duration="150" />
    <frame tileid="729" duration="150" />
    <frame tileid="837" duration="150" />
    <frame tileid="945" duration="150" />
    <frame tileid="1053" duration="150" />
    <frame tileid="1161" duration="150" />
    <frame tileid="1269" duration="150" />
    <frame tileid="1377" duration="150" />
    <frame tileid="1485" duration="150" />
    <frame tileid="1593" duration="150" />
    <frame tileid="1701" duration="150" />
   </animation>
  </tile>
  <tile id="82">
   <animation>
    <frame tileid="82" duration="150" />
    <frame tileid="82" duration="150" />
    <frame tileid="82" duration="150" />
    <frame tileid="82" duration="150" />
    <frame tileid="82" duration="150" />
    <frame tileid="82" duration="150" />
    <frame tileid="82" duration="150" />
    <frame tileid="82" duration="150" />
    <frame tileid="82" duration="150" />
    <frame tileid="190" duration="150" />
    <frame tileid="298" duration="150" />
    <frame tileid="406" duration="150" />
    <frame tileid="514" duration="150" />
    <frame tileid="622" duration="150" />
    <frame tileid="730" duration="150" />
    <frame tileid="838" duration="150" />
    <frame tileid="946" duration="150" />
    <frame tileid="1054" duration="150" />
    <frame tileid="1162" duration="150" />
    <frame tileid="1270" duration="150" />
    <frame tileid="1378" duration="150" />
    <frame tileid="1486" duration="150" />
    <frame tileid="1594" duration="150" />
    <frame tileid="1702" duration="150" />
   </animation>
  </tile>
  <tile id="83">
   <animation>
    <frame tileid="83" duration="150" />
    <frame tileid="83" duration="150" />
    <frame tileid="83" duration="150" />
    <frame tileid="83" duration="150" />
    <frame tileid="83" duration="150" />
    <frame tileid="83" duration="150" />
    <frame tileid="83" duration="150" />
    <frame tileid="83" duration="150" />
    <frame tileid="83" duration="150" />
    <frame tileid="191" duration="150" />
    <frame tileid="299" duration="150" />
    <frame tileid="407" duration="150" />
    <frame tileid="515" duration="150" />
    <frame tileid="623" duration="150" />
    <frame tileid="731" duration="150" />
    <frame tileid="839" duration="150" />
    <frame tileid="947" duration="150" />
    <frame tileid="1055" duration="150" />
    <frame tileid="1163" duration="150" />
    <frame tileid="1271" duration="150" />
    <frame tileid="1379" duration="150" />
    <frame tileid="1487" duration="150" />
    <frame tileid="1595" duration="150" />
    <frame tileid="1703" duration="150" />
   </animation>
  </tile>
  <tile id="84">
   <animation>
    <frame tileid="84" duration="150" />
    <frame tileid="84" duration="150" />
    <frame tileid="84" duration="150" />
    <frame tileid="84" duration="150" />
    <frame tileid="84" duration="150" />
    <frame tileid="84" duration="150" />
    <frame tileid="84" duration="150" />
    <frame tileid="84" duration="150" />
    <frame tileid="84" duration="150" />
    <frame tileid="192" duration="150" />
    <frame tileid="300" duration="150" />
    <frame tileid="408" duration="150" />
    <frame tileid="516" duration="150" />
    <frame tileid="624" duration="150" />
    <frame tileid="732" duration="150" />
    <frame tileid="840" duration="150" />
    <frame tileid="948" duration="150" />
    <frame tileid="1056" duration="150" />
    <frame tileid="1164" duration="150" />
    <frame tileid="1272" duration="150" />
    <frame tileid="1380" duration="150" />
    <frame tileid="1488" duration="150" />
    <frame tileid="1596" duration="150" />
    <frame tileid="1704" duration="150" />
   </animation>
  </tile>
  <tile id="85">
   <animation>
    <frame tileid="85" duration="150" />
    <frame tileid="85" duration="150" />
    <frame tileid="85" duration="150" />
    <frame tileid="85" duration="150" />
    <frame tileid="85" duration="150" />
    <frame tileid="85" duration="150" />
    <frame tileid="85" duration="150" />
    <frame tileid="85" duration="150" />
    <frame tileid="85" duration="150" />
    <frame tileid="193" duration="150" />
    <frame tileid="301" duration="150" />
    <frame tileid="409" duration="150" />
    <frame tileid="517" duration="150" />
    <frame tileid="625" duration="150" />
    <frame tileid="733" duration="150" />
    <frame tileid="841" duration="150" />
    <frame tileid="949" duration="150" />
    <frame tileid="1057" duration="150" />
    <frame tileid="1165" duration="150" />
    <frame tileid="1273" duration="150" />
    <frame tileid="1381" duration="150" />
    <frame tileid="1489" duration="150" />
    <frame tileid="1597" duration="150" />
    <frame tileid="1705" duration="150" />
   </animation>
  </tile>
  <tile id="86">
   <animation>
    <frame tileid="86" duration="150" />
    <frame tileid="86" duration="150" />
    <frame tileid="86" duration="150" />
    <frame tileid="86" duration="150" />
    <frame tileid="86" duration="150" />
    <frame tileid="86" duration="150" />
    <frame tileid="86" duration="150" />
    <frame tileid="86" duration="150" />
    <frame tileid="86" duration="150" />
    <frame tileid="194" duration="150" />
    <frame tileid="302" duration="150" />
    <frame tileid="410" duration="150" />
    <frame tileid="518" duration="150" />
    <frame tileid="626" duration="150" />
    <frame tileid="734" duration="150" />
    <frame tileid="842" duration="150" />
    <frame tileid="950" duration="150" />
    <frame tileid="1058" duration="150" />
    <frame tileid="1166" duration="150" />
    <frame tileid="1274" duration="150" />
    <frame tileid="1382" duration="150" />
    <frame tileid="1490" duration="150" />
    <frame tileid="1598" duration="150" />
    <frame tileid="1706" duration="150" />
   </animation>
  </tile>
  <tile id="87">
   <animation>
    <frame tileid="87" duration="150" />
    <frame tileid="87" duration="150" />
    <frame tileid="87" duration="150" />
    <frame tileid="87" duration="150" />
    <frame tileid="87" duration="150" />
    <frame tileid="87" duration="150" />
    <frame tileid="87" duration="150" />
    <frame tileid="87" duration="150" />
    <frame tileid="87" duration="150" />
    <frame tileid="195" duration="150" />
    <frame tileid="303" duration="150" />
    <frame tileid="411" duration="150" />
    <frame tileid="519" duration="150" />
    <frame tileid="627" duration="150" />
    <frame tileid="735" duration="150" />
    <frame tileid="843" duration="150" />
    <frame tileid="951" duration="150" />
    <frame tileid="1059" duration="150" />
    <frame tileid="1167" duration="150" />
    <frame tileid="1275" duration="150" />
    <frame tileid="1383" duration="150" />
    <frame tileid="1491" duration="150" />
    <frame tileid="1599" duration="150" />
    <frame tileid="1707" duration="150" />
   </animation>
  </tile>
  <tile id="88">
   <animation>
    <frame tileid="88" duration="150" />
    <frame tileid="88" duration="150" />
    <frame tileid="88" duration="150" />
    <frame tileid="88" duration="150" />
    <frame tileid="88" duration="150" />
    <frame tileid="88" duration="150" />
    <frame tileid="88" duration="150" />
    <frame tileid="88" duration="150" />
    <frame tileid="88" duration="150" />
    <frame tileid="196" duration="150" />
    <frame tileid="304" duration="150" />
    <frame tileid="412" duration="150" />
    <frame tileid="520" duration="150" />
    <frame tileid="628" duration="150" />
    <frame tileid="736" duration="150" />
    <frame tileid="844" duration="150" />
    <frame tileid="952" duration="150" />
    <frame tileid="1060" duration="150" />
    <frame tileid="1168" duration="150" />
    <frame tileid="1276" duration="150" />
    <frame tileid="1384" duration="150" />
    <frame tileid="1492" duration="150" />
    <frame tileid="1600" duration="150" />
    <frame tileid="1708" duration="150" />
   </animation>
  </tile>
  <tile id="89">
   <animation>
    <frame tileid="89" duration="150" />
    <frame tileid="89" duration="150" />
    <frame tileid="89" duration="150" />
    <frame tileid="89" duration="150" />
    <frame tileid="89" duration="150" />
    <frame tileid="89" duration="150" />
    <frame tileid="89" duration="150" />
    <frame tileid="89" duration="150" />
    <frame tileid="89" duration="150" />
    <frame tileid="197" duration="150" />
    <frame tileid="305" duration="150" />
    <frame tileid="413" duration="150" />
    <frame tileid="521" duration="150" />
    <frame tileid="629" duration="150" />
    <frame tileid="737" duration="150" />
    <frame tileid="845" duration="150" />
    <frame tileid="953" duration="150" />
    <frame tileid="1061" duration="150" />
    <frame tileid="1169" duration="150" />
    <frame tileid="1277" duration="150" />
    <frame tileid="1385" duration="150" />
    <frame tileid="1493" duration="150" />
    <frame tileid="1601" duration="150" />
    <frame tileid="1709" duration="150" />
   </animation>
  </tile>
  <tile id="90">
   <animation>
    <frame tileid="198" duration="150" />
    <frame tileid="306" duration="150" />
    <frame tileid="414" duration="150" />
    <frame tileid="522" duration="150" />
    <frame tileid="630" duration="150" />
    <frame tileid="738" duration="150" />
    <frame tileid="846" duration="150" />
    <frame tileid="954" duration="150" />
    <frame tileid="1062" duration="150" />
    <frame tileid="1170" duration="150" />
    <frame tileid="1278" duration="150" />
    <frame tileid="1386" duration="150" />
    <frame tileid="1494" duration="150" />
    <frame tileid="1602" duration="150" />
    <frame tileid="1710" duration="150" />
    <frame tileid="90" duration="150" />
    <frame tileid="90" duration="150" />
    <frame tileid="90" duration="150" />
    <frame tileid="90" duration="150" />
    <frame tileid="90" duration="150" />
    <frame tileid="90" duration="150" />
    <frame tileid="90" duration="150" />
    <frame tileid="90" duration="150" />
    <frame tileid="90" duration="150" />
   </animation>
  </tile>
  <tile id="91">
   <animation>
    <frame tileid="199" duration="150" />
    <frame tileid="307" duration="150" />
    <frame tileid="415" duration="150" />
    <frame tileid="523" duration="150" />
    <frame tileid="631" duration="150" />
    <frame tileid="739" duration="150" />
    <frame tileid="847" duration="150" />
    <frame tileid="955" duration="150" />
    <frame tileid="1063" duration="150" />
    <frame tileid="1171" duration="150" />
    <frame tileid="1279" duration="150" />
    <frame tileid="1387" duration="150" />
    <frame tileid="1495" duration="150" />
    <frame tileid="1603" duration="150" />
    <frame tileid="1711" duration="150" />
    <frame tileid="91" duration="150" />
    <frame tileid="91" duration="150" />
    <frame tileid="91" duration="150" />
    <frame tileid="91" duration="150" />
    <frame tileid="91" duration="150" />
    <frame tileid="91" duration="150" />
    <frame tileid="91" duration="150" />
    <frame tileid="91" duration="150" />
    <frame tileid="91" duration="150" />
   </animation>
  </tile>
  <tile id="92">
   <animation>
    <frame tileid="200" duration="150" />
    <frame tileid="308" duration="150" />
    <frame tileid="416" duration="150" />
    <frame tileid="524" duration="150" />
    <frame tileid="632" duration="150" />
    <frame tileid="740" duration="150" />
    <frame tileid="848" duration="150" />
    <frame tileid="956" duration="150" />
    <frame tileid="1064" duration="150" />
    <frame tileid="1172" duration="150" />
    <frame tileid="1280" duration="150" />
    <frame tileid="1388" duration="150" />
    <frame tileid="1496" duration="150" />
    <frame tileid="1604" duration="150" />
    <frame tileid="1712" duration="150" />
    <frame tileid="92" duration="150" />
    <frame tileid="92" duration="150" />
    <frame tileid="92" duration="150" />
    <frame tileid="92" duration="150" />
    <frame tileid="92" duration="150" />
    <frame tileid="92" duration="150" />
    <frame tileid="92" duration="150" />
    <frame tileid="92" duration="150" />
    <frame tileid="92" duration="150" />
   </animation>
  </tile>
  <tile id="93">
   <animation>
    <frame tileid="201" duration="150" />
    <frame tileid="309" duration="150" />
    <frame tileid="417" duration="150" />
    <frame tileid="525" duration="150" />
    <frame tileid="633" duration="150" />
    <frame tileid="741" duration="150" />
    <frame tileid="849" duration="150" />
    <frame tileid="957" duration="150" />
    <frame tileid="1065" duration="150" />
    <frame tileid="1173" duration="150" />
    <frame tileid="1281" duration="150" />
    <frame tileid="1389" duration="150" />
    <frame tileid="1497" duration="150" />
    <frame tileid="1605" duration="150" />
    <frame tileid="1713" duration="150" />
    <frame tileid="93" duration="150" />
    <frame tileid="93" duration="150" />
    <frame tileid="93" duration="150" />
    <frame tileid="93" duration="150" />
    <frame tileid="93" duration="150" />
    <frame tileid="93" duration="150" />
    <frame tileid="93" duration="150" />
    <frame tileid="93" duration="150" />
    <frame tileid="93" duration="150" />
   </animation>
  </tile>
  <tile id="94">
   <animation>
    <frame tileid="202" duration="150" />
    <frame tileid="310" duration="150" />
    <frame tileid="418" duration="150" />
    <frame tileid="526" duration="150" />
    <frame tileid="634" duration="150" />
    <frame tileid="742" duration="150" />
    <frame tileid="850" duration="150" />
    <frame tileid="958" duration="150" />
    <frame tileid="1066" duration="150" />
    <frame tileid="1174" duration="150" />
    <frame tileid="1282" duration="150" />
    <frame tileid="1390" duration="150" />
    <frame tileid="1498" duration="150" />
    <frame tileid="1606" duration="150" />
    <frame tileid="1714" duration="150" />
    <frame tileid="94" duration="150" />
    <frame tileid="94" duration="150" />
    <frame tileid="94" duration="150" />
    <frame tileid="94" duration="150" />
    <frame tileid="94" duration="150" />
    <frame tileid="94" duration="150" />
    <frame tileid="94" duration="150" />
    <frame tileid="94" duration="150" />
    <frame tileid="94" duration="150" />
   </animation>
  </tile>
  <tile id="95">
   <animation>
    <frame tileid="203" duration="150" />
    <frame tileid="311" duration="150" />
    <frame tileid="419" duration="150" />
    <frame tileid="527" duration="150" />
    <frame tileid="635" duration="150" />
    <frame tileid="743" duration="150" />
    <frame tileid="851" duration="150" />
    <frame tileid="959" duration="150" />
    <frame tileid="1067" duration="150" />
    <frame tileid="1175" duration="150" />
    <frame tileid="1283" duration="150" />
    <frame tileid="1391" duration="150" />
    <frame tileid="1499" duration="150" />
    <frame tileid="1607" duration="150" />
    <frame tileid="1715" duration="150" />
    <frame tileid="95" duration="150" />
    <frame tileid="95" duration="150" />
    <frame tileid="95" duration="150" />
    <frame tileid="95" duration="150" />
    <frame tileid="95" duration="150" />
    <frame tileid="95" duration="150" />
    <frame tileid="95" duration="150" />
    <frame tileid="95" duration="150" />
    <frame tileid="95" duration="150" />
   </animation>
  </tile>
  <tile id="96">
   <animation>
    <frame tileid="204" duration="150" />
    <frame tileid="312" duration="150" />
    <frame tileid="420" duration="150" />
    <frame tileid="528" duration="150" />
    <frame tileid="636" duration="150" />
    <frame tileid="744" duration="150" />
    <frame tileid="852" duration="150" />
    <frame tileid="960" duration="150" />
    <frame tileid="1068" duration="150" />
    <frame tileid="1176" duration="150" />
    <frame tileid="1284" duration="150" />
    <frame tileid="1392" duration="150" />
    <frame tileid="1500" duration="150" />
    <frame tileid="1608" duration="150" />
    <frame tileid="1716" duration="150" />
    <frame tileid="96" duration="150" />
    <frame tileid="96" duration="150" />
    <frame tileid="96" duration="150" />
    <frame tileid="96" duration="150" />
    <frame tileid="96" duration="150" />
    <frame tileid="96" duration="150" />
    <frame tileid="96" duration="150" />
    <frame tileid="96" duration="150" />
    <frame tileid="96" duration="150" />
   </animation>
  </tile>
  <tile id="97">
   <animation>
    <frame tileid="205" duration="150" />
    <frame tileid="313" duration="150" />
    <frame tileid="421" duration="150" />
    <frame tileid="529" duration="150" />
    <frame tileid="637" duration="150" />
    <frame tileid="745" duration="150" />
    <frame tileid="853" duration="150" />
    <frame tileid="961" duration="150" />
    <frame tileid="1069" duration="150" />
    <frame tileid="1177" duration="150" />
    <frame tileid="1285" duration="150" />
    <frame tileid="1393" duration="150" />
    <frame tileid="1501" duration="150" />
    <frame tileid="1609" duration="150" />
    <frame tileid="1717" duration="150" />
    <frame tileid="97" duration="150" />
    <frame tileid="97" duration="150" />
    <frame tileid="97" duration="150" />
    <frame tileid="97" duration="150" />
    <frame tileid="97" duration="150" />
    <frame tileid="97" duration="150" />
    <frame tileid="97" duration="150" />
    <frame tileid="97" duration="150" />
    <frame tileid="97" duration="150" />
   </animation>
  </tile>
  <tile id="98">
   <animation>
    <frame tileid="206" duration="150" />
    <frame tileid="314" duration="150" />
    <frame tileid="422" duration="150" />
    <frame tileid="530" duration="150" />
    <frame tileid="638" duration="150" />
    <frame tileid="746" duration="150" />
    <frame tileid="854" duration="150" />
    <frame tileid="962" duration="150" />
    <frame tileid="1070" duration="150" />
    <frame tileid="1178" duration="150" />
    <frame tileid="1286" duration="150" />
    <frame tileid="1394" duration="150" />
    <frame tileid="1502" duration="150" />
    <frame tileid="1610" duration="150" />
    <frame tileid="1718" duration="150" />
    <frame tileid="98" duration="150" />
    <frame tileid="98" duration="150" />
    <frame tileid="98" duration="150" />
    <frame tileid="98" duration="150" />
    <frame tileid="98" duration="150" />
    <frame tileid="98" duration="150" />
    <frame tileid="98" duration="150" />
    <frame tileid="98" duration="150" />
    <frame tileid="98" duration="150" />
   </animation>
  </tile>
  <tile id="99">
   <animation>
    <frame tileid="99" duration="150" />
    <frame tileid="99" duration="150" />
    <frame tileid="99" duration="150" />
    <frame tileid="99" duration="150" />
    <frame tileid="207" duration="150" />
    <frame tileid="315" duration="150" />
    <frame tileid="423" duration="150" />
    <frame tileid="531" duration="150" />
    <frame tileid="639" duration="150" />
    <frame tileid="747" duration="150" />
    <frame tileid="855" duration="150" />
    <frame tileid="963" duration="150" />
    <frame tileid="1071" duration="150" />
    <frame tileid="1179" duration="150" />
    <frame tileid="1287" duration="150" />
    <frame tileid="1395" duration="150" />
    <frame tileid="1503" duration="150" />
    <frame tileid="1611" duration="150" />
    <frame tileid="1719" duration="150" />
    <frame tileid="99" duration="150" />
    <frame tileid="99" duration="150" />
    <frame tileid="99" duration="150" />
    <frame tileid="99" duration="150" />
    <frame tileid="99" duration="150" />
   </animation>
  </tile>
  <tile id="100">
   <animation>
    <frame tileid="100" duration="150" />
    <frame tileid="100" duration="150" />
    <frame tileid="100" duration="150" />
    <frame tileid="100" duration="150" />
    <frame tileid="208" duration="150" />
    <frame tileid="316" duration="150" />
    <frame tileid="424" duration="150" />
    <frame tileid="532" duration="150" />
    <frame tileid="640" duration="150" />
    <frame tileid="748" duration="150" />
    <frame tileid="856" duration="150" />
    <frame tileid="964" duration="150" />
    <frame tileid="1072" duration="150" />
    <frame tileid="1180" duration="150" />
    <frame tileid="1288" duration="150" />
    <frame tileid="1396" duration="150" />
    <frame tileid="1504" duration="150" />
    <frame tileid="1612" duration="150" />
    <frame tileid="1720" duration="150" />
    <frame tileid="100" duration="150" />
    <frame tileid="100" duration="150" />
    <frame tileid="100" duration="150" />
    <frame tileid="100" duration="150" />
    <frame tileid="100" duration="150" />
   </animation>
  </tile>
  <tile id="101">
   <animation>
    <frame tileid="101" duration="150" />
    <frame tileid="101" duration="150" />
    <frame tileid="101" duration="150" />
    <frame tileid="101" duration="150" />
    <frame tileid="209" duration="150" />
    <frame tileid="317" duration="150" />
    <frame tileid="425" duration="150" />
    <frame tileid="533" duration="150" />
    <frame tileid="641" duration="150" />
    <frame tileid="749" duration="150" />
    <frame tileid="857" duration="150" />
    <frame tileid="965" duration="150" />
    <frame tileid="1073" duration="150" />
    <frame tileid="1181" duration="150" />
    <frame tileid="1289" duration="150" />
    <frame tileid="1397" duration="150" />
    <frame tileid="1505" duration="150" />
    <frame tileid="1613" duration="150" />
    <frame tileid="1721" duration="150" />
    <frame tileid="101" duration="150" />
    <frame tileid="101" duration="150" />
    <frame tileid="101" duration="150" />
    <frame tileid="101" duration="150" />
    <frame tileid="101" duration="150" />
   </animation>
  </tile>
  <tile id="102">
   <animation>
    <frame tileid="102" duration="150" />
    <frame tileid="102" duration="150" />
    <frame tileid="102" duration="150" />
    <frame tileid="102" duration="150" />
    <frame tileid="210" duration="150" />
    <frame tileid="318" duration="150" />
    <frame tileid="426" duration="150" />
    <frame tileid="534" duration="150" />
    <frame tileid="642" duration="150" />
    <frame tileid="750" duration="150" />
    <frame tileid="858" duration="150" />
    <frame tileid="966" duration="150" />
    <frame tileid="1074" duration="150" />
    <frame tileid="1182" duration="150" />
    <frame tileid="1290" duration="150" />
    <frame tileid="1398" duration="150" />
    <frame tileid="1506" duration="150" />
    <frame tileid="1614" duration="150" />
    <frame tileid="1722" duration="150" />
    <frame tileid="102" duration="150" />
    <frame tileid="102" duration="150" />
    <frame tileid="102" duration="150" />
    <frame tileid="102" duration="150" />
    <frame tileid="102" duration="150" />
   </animation>
  </tile>
  <tile id="103">
   <animation>
    <frame tileid="103" duration="150" />
    <frame tileid="103" duration="150" />
    <frame tileid="103" duration="150" />
    <frame tileid="103" duration="150" />
    <frame tileid="211" duration="150" />
    <frame tileid="319" duration="150" />
    <frame tileid="427" duration="150" />
    <frame tileid="535" duration="150" />
    <frame tileid="643" duration="150" />
    <frame tileid="751" duration="150" />
    <frame tileid="859" duration="150" />
    <frame tileid="967" duration="150" />
    <frame tileid="1075" duration="150" />
    <frame tileid="1183" duration="150" />
    <frame tileid="1291" duration="150" />
    <frame tileid="1399" duration="150" />
    <frame tileid="1507" duration="150" />
    <frame tileid="1615" duration="150" />
    <frame tileid="1723" duration="150" />
    <frame tileid="103" duration="150" />
    <frame tileid="103" duration="150" />
    <frame tileid="103" duration="150" />
    <frame tileid="103" duration="150" />
    <frame tileid="103" duration="150" />
   </animation>
  </tile>
  <tile id="104">
   <animation>
    <frame tileid="104" duration="150" />
    <frame tileid="104" duration="150" />
    <frame tileid="104" duration="150" />
    <frame tileid="104" duration="150" />
    <frame tileid="212" duration="150" />
    <frame tileid="320" duration="150" />
    <frame tileid="428" duration="150" />
    <frame tileid="536" duration="150" />
    <frame tileid="644" duration="150" />
    <frame tileid="752" duration="150" />
    <frame tileid="860" duration="150" />
    <frame tileid="968" duration="150" />
    <frame tileid="1076" duration="150" />
    <frame tileid="1184" duration="150" />
    <frame tileid="1292" duration="150" />
    <frame tileid="1400" duration="150" />
    <frame tileid="1508" duration="150" />
    <frame tileid="1616" duration="150" />
    <frame tileid="1724" duration="150" />
    <frame tileid="104" duration="150" />
    <frame tileid="104" duration="150" />
    <frame tileid="104" duration="150" />
    <frame tileid="104" duration="150" />
    <frame tileid="104" duration="150" />
   </animation>
  </tile>
  <tile id="105">
   <animation>
    <frame tileid="105" duration="150" />
    <frame tileid="105" duration="150" />
    <frame tileid="105" duration="150" />
    <frame tileid="105" duration="150" />
    <frame tileid="213" duration="150" />
    <frame tileid="321" duration="150" />
    <frame tileid="429" duration="150" />
    <frame tileid="537" duration="150" />
    <frame tileid="645" duration="150" />
    <frame tileid="753" duration="150" />
    <frame tileid="861" duration="150" />
    <frame tileid="969" duration="150" />
    <frame tileid="1077" duration="150" />
    <frame tileid="1185" duration="150" />
    <frame tileid="1293" duration="150" />
    <frame tileid="1401" duration="150" />
    <frame tileid="1509" duration="150" />
    <frame tileid="1617" duration="150" />
    <frame tileid="1725" duration="150" />
    <frame tileid="105" duration="150" />
    <frame tileid="105" duration="150" />
    <frame tileid="105" duration="150" />
    <frame tileid="105" duration="150" />
    <frame tileid="105" duration="150" />
   </animation>
  </tile>
  <tile id="106">
   <animation>
    <frame tileid="106" duration="150" />
    <frame tileid="106" duration="150" />
    <frame tileid="106" duration="150" />
    <frame tileid="106" duration="150" />
    <frame tileid="214" duration="150" />
    <frame tileid="322" duration="150" />
    <frame tileid="430" duration="150" />
    <frame tileid="538" duration="150" />
    <frame tileid="646" duration="150" />
    <frame tileid="754" duration="150" />
    <frame tileid="862" duration="150" />
    <frame tileid="970" duration="150" />
    <frame tileid="1078" duration="150" />
    <frame tileid="1186" duration="150" />
    <frame tileid="1294" duration="150" />
    <frame tileid="1402" duration="150" />
    <frame tileid="1510" duration="150" />
    <frame tileid="1618" duration="150" />
    <frame tileid="1726" duration="150" />
    <frame tileid="106" duration="150" />
    <frame tileid="106" duration="150" />
    <frame tileid="106" duration="150" />
    <frame tileid="106" duration="150" />
    <frame tileid="106" duration="150" />
   </animation>
  </tile>
  <tile id="107">
   <animation>
    <frame tileid="107" duration="150" />
    <frame tileid="107" duration="150" />
    <frame tileid="107" duration="150" />
    <frame tileid="107" duration="150" />
    <frame tileid="215" duration="150" />
    <frame tileid="323" duration="150" />
    <frame tileid="431" duration="150" />
    <frame tileid="539" duration="150" />
    <frame tileid="647" duration="150" />
    <frame tileid="755" duration="150" />
    <frame tileid="863" duration="150" />
    <frame tileid="971" duration="150" />
    <frame tileid="1079" duration="150" />
    <frame tileid="1187" duration="150" />
    <frame tileid="1295" duration="150" />
    <frame tileid="1403" duration="150" />
    <frame tileid="1511" duration="150" />
    <frame tileid="1619" duration="150" />
    <frame tileid="1727" duration="150" />
    <frame tileid="107" duration="150" />
    <frame tileid="107" duration="150" />
    <frame tileid="107" duration="150" />
    <frame tileid="107" duration="150" />
    <frame tileid="107" duration="150" />
   </animation>
  </tile>
 </tileset>
 <tileset firstgid="5579" name="trees_animation" tilewidth="16" tileheight="16" tilecount="2340" columns="36">
  <image source="../gfx/tiles/home/trees_animation.png" width="576" height="1040" />
  <tile id="12">
   <animation>
    <frame tileid="12" duration="150" />
    <frame tileid="12" duration="150" />
    <frame tileid="12" duration="150" />
    <frame tileid="12" duration="150" />
    <frame tileid="192" duration="150" />
    <frame tileid="372" duration="150" />
    <frame tileid="552" duration="150" />
    <frame tileid="732" duration="150" />
    <frame tileid="912" duration="150" />
    <frame tileid="1092" duration="150" />
    <frame tileid="1272" duration="150" />
    <frame tileid="1452" duration="150" />
    <frame tileid="1632" duration="150" />
    <frame tileid="1812" duration="150" />
    <frame tileid="1992" duration="150" />
    <frame tileid="2172" duration="150" />
    <frame tileid="12" duration="150" />
    <frame tileid="12" duration="150" />
    <frame tileid="12" duration="150" />
    <frame tileid="12" duration="150" />
    <frame tileid="12" duration="150" />
    <frame tileid="12" duration="150" />
    <frame tileid="12" duration="150" />
    <frame tileid="12" duration="150" />
   </animation>
  </tile>
  <tile id="15">
   <animation>
    <frame tileid="15" duration="150" />
    <frame tileid="15" duration="150" />
    <frame tileid="15" duration="150" />
    <frame tileid="15" duration="150" />
    <frame tileid="195" duration="150" />
    <frame tileid="375" duration="150" />
    <frame tileid="555" duration="150" />
    <frame tileid="735" duration="150" />
    <frame tileid="915" duration="150" />
    <frame tileid="1095" duration="150" />
    <frame tileid="1275" duration="150" />
    <frame tileid="1455" duration="150" />
    <frame tileid="1635" duration="150" />
    <frame tileid="1815" duration="150" />
    <frame tileid="1995" duration="150" />
    <frame tileid="2175" duration="150" />
    <frame tileid="15" duration="150" />
    <frame tileid="15" duration="150" />
    <frame tileid="15" duration="150" />
    <frame tileid="15" duration="150" />
    <frame tileid="15" duration="150" />
    <frame tileid="15" duration="150" />
    <frame tileid="15" duration="150" />
    <frame tileid="15" duration="150" />
   </animation>
  </tile>
  <tile id="36">
   <animation>
    <frame tileid="36" duration="150" />
    <frame tileid="36" duration="150" />
    <frame tileid="36" duration="150" />
    <frame tileid="36" duration="150" />
    <frame tileid="36" duration="150" />
    <frame tileid="36" duration="150" />
    <frame tileid="36" duration="150" />
    <frame tileid="36" duration="150" />
    <frame tileid="36" duration="150" />
    <frame tileid="36" duration="150" />
    <frame tileid="36" duration="150" />
    <frame tileid="36" duration="150" />
    <frame tileid="216" duration="150" />
    <frame tileid="396" duration="150" />
    <frame tileid="576" duration="150" />
    <frame tileid="756" duration="150" />
    <frame tileid="936" duration="150" />
    <frame tileid="1116" duration="150" />
    <frame tileid="1296" duration="150" />
    <frame tileid="1476" duration="150" />
    <frame tileid="1656" duration="150" />
    <frame tileid="1836" duration="150" />
    <frame tileid="2016" duration="150" />
    <frame tileid="2196" duration="150" />
   </animation>
  </tile>
  <tile id="37">
   <animation>
    <frame tileid="37" duration="150" />
    <frame tileid="37" duration="150" />
    <frame tileid="37" duration="150" />
    <frame tileid="37" duration="150" />
    <frame tileid="37" duration="150" />
    <frame tileid="37" duration="150" />
    <frame tileid="37" duration="150" />
    <frame tileid="37" duration="150" />
    <frame tileid="37" duration="150" />
    <frame tileid="37" duration="150" />
    <frame tileid="37" duration="150" />
    <frame tileid="37" duration="150" />
    <frame tileid="217" duration="150" />
    <frame tileid="397" duration="150" />
    <frame tileid="577" duration="150" />
    <frame tileid="757" duration="150" />
    <frame tileid="937" duration="150" />
    <frame tileid="1117" duration="150" />
    <frame tileid="1297" duration="150" />
    <frame tileid="1477" duration="150" />
    <frame tileid="1657" duration="150" />
    <frame tileid="1837" duration="150" />
    <frame tileid="2017" duration="150" />
    <frame tileid="2197" duration="150" />
   </animation>
  </tile>
  <tile id="38">
   <animation>
    <frame tileid="38" duration="150" />
    <frame tileid="38" duration="150" />
    <frame tileid="38" duration="150" />
    <frame tileid="38" duration="150" />
    <frame tileid="38" duration="150" />
    <frame tileid="38" duration="150" />
    <frame tileid="38" duration="150" />
    <frame tileid="38" duration="150" />
    <frame tileid="38" duration="150" />
    <frame tileid="38" duration="150" />
    <frame tileid="38" duration="150" />
    <frame tileid="38" duration="150" />
    <frame tileid="218" duration="150" />
    <frame tileid="398" duration="150" />
    <frame tileid="578" duration="150" />
    <frame tileid="758" duration="150" />
    <frame tileid="938" duration="150" />
    <frame tileid="1118" duration="150" />
    <frame tileid="1298" duration="150" />
    <frame tileid="1478" duration="150" />
    <frame tileid="1658" duration="150" />
    <frame tileid="1838" duration="150" />
    <frame tileid="2018" duration="150" />
    <frame tileid="2198" duration="150" />
   </animation>
  </tile>
  <tile id="39">
   <animation>
    <frame tileid="39" duration="150" />
    <frame tileid="39" duration="150" />
    <frame tileid="39" duration="150" />
    <frame tileid="39" duration="150" />
    <frame tileid="39" duration="150" />
    <frame tileid="39" duration="150" />
    <frame tileid="39" duration="150" />
    <frame tileid="39" duration="150" />
    <frame tileid="39" duration="150" />
    <frame tileid="39" duration="150" />
    <frame tileid="39" duration="150" />
    <frame tileid="39" duration="150" />
    <frame tileid="219" duration="150" />
    <frame tileid="399" duration="150" />
    <frame tileid="579" duration="150" />
    <frame tileid="759" duration="150" />
    <frame tileid="939" duration="150" />
    <frame tileid="1119" duration="150" />
    <frame tileid="1299" duration="150" />
    <frame tileid="1479" duration="150" />
    <frame tileid="1659" duration="150" />
    <frame tileid="1839" duration="150" />
    <frame tileid="2019" duration="150" />
    <frame tileid="2199" duration="150" />
   </animation>
  </tile>
  <tile id="41">
   <animation>
    <frame tileid="221" duration="150" />
    <frame tileid="401" duration="150" />
    <frame tileid="581" duration="150" />
    <frame tileid="761" duration="150" />
    <frame tileid="941" duration="150" />
    <frame tileid="1121" duration="150" />
    <frame tileid="1301" duration="150" />
    <frame tileid="1481" duration="150" />
    <frame tileid="1661" duration="150" />
    <frame tileid="1841" duration="150" />
    <frame tileid="2021" duration="150" />
    <frame tileid="2201" duration="150" />
    <frame tileid="41" duration="150" />
    <frame tileid="41" duration="150" />
    <frame tileid="41" duration="150" />
    <frame tileid="41" duration="150" />
    <frame tileid="41" duration="150" />
    <frame tileid="41" duration="150" />
    <frame tileid="41" duration="150" />
    <frame tileid="41" duration="150" />
    <frame tileid="41" duration="150" />
    <frame tileid="41" duration="150" />
    <frame tileid="41" duration="150" />
    <frame tileid="41" duration="150" />
   </animation>
  </tile>
  <tile id="43">
   <animation>
    <frame tileid="223" duration="150" />
    <frame tileid="403" duration="150" />
    <frame tileid="583" duration="150" />
    <frame tileid="763" duration="150" />
    <frame tileid="943" duration="150" />
    <frame tileid="1123" duration="150" />
    <frame tileid="1303" duration="150" />
    <frame tileid="1483" duration="150" />
    <frame tileid="1663" duration="150" />
    <frame tileid="1843" duration="150" />
    <frame tileid="2023" duration="150" />
    <frame tileid="2203" duration="150" />
    <frame tileid="43" duration="150" />
    <frame tileid="43" duration="150" />
    <frame tileid="43" duration="150" />
    <frame tileid="43" duration="150" />
    <frame tileid="43" duration="150" />
    <frame tileid="43" duration="150" />
    <frame tileid="43" duration="150" />
    <frame tileid="43" duration="150" />
    <frame tileid="43" duration="150" />
    <frame tileid="43" duration="150" />
    <frame tileid="43" duration="150" />
    <frame tileid="43" duration="150" />
   </animation>
  </tile>
  <tile id="48">
   <animation>
    <frame tileid="48" duration="150" />
    <frame tileid="48" duration="150" />
    <frame tileid="48" duration="150" />
    <frame tileid="48" duration="150" />
    <frame tileid="228" duration="150" />
    <frame tileid="408" duration="150" />
    <frame tileid="588" duration="150" />
    <frame tileid="768" duration="150" />
    <frame tileid="948" duration="150" />
    <frame tileid="1128" duration="150" />
    <frame tileid="1308" duration="150" />
    <frame tileid="1488" duration="150" />
    <frame tileid="1668" duration="150" />
    <frame tileid="1848" duration="150" />
    <frame tileid="2028" duration="150" />
    <frame tileid="2208" duration="150" />
    <frame tileid="48" duration="150" />
    <frame tileid="48" duration="150" />
    <frame tileid="48" duration="150" />
    <frame tileid="48" duration="150" />
    <frame tileid="48" duration="150" />
    <frame tileid="48" duration="150" />
    <frame tileid="48" duration="150" />
    <frame tileid="48" duration="150" />
   </animation>
  </tile>
  <tile id="49">
   <animation>
    <frame tileid="49" duration="150" />
    <frame tileid="49" duration="150" />
    <frame tileid="49" duration="150" />
    <frame tileid="49" duration="150" />
    <frame tileid="229" duration="150" />
    <frame tileid="409" duration="150" />
    <frame tileid="589" duration="150" />
    <frame tileid="769" duration="150" />
    <frame tileid="949" duration="150" />
    <frame tileid="1129" duration="150" />
    <frame tileid="1309" duration="150" />
    <frame tileid="1489" duration="150" />
    <frame tileid="1669" duration="150" />
    <frame tileid="1849" duration="150" />
    <frame tileid="2029" duration="150" />
    <frame tileid="2209" duration="150" />
    <frame tileid="49" duration="150" />
    <frame tileid="49" duration="150" />
    <frame tileid="49" duration="150" />
    <frame tileid="49" duration="150" />
    <frame tileid="49" duration="150" />
    <frame tileid="49" duration="150" />
    <frame tileid="49" duration="150" />
    <frame tileid="49" duration="150" />
   </animation>
  </tile>
  <tile id="50">
   <animation>
    <frame tileid="50" duration="150" />
    <frame tileid="50" duration="150" />
    <frame tileid="50" duration="150" />
    <frame tileid="50" duration="150" />
    <frame tileid="230" duration="150" />
    <frame tileid="410" duration="150" />
    <frame tileid="590" duration="150" />
    <frame tileid="770" duration="150" />
    <frame tileid="950" duration="150" />
    <frame tileid="1130" duration="150" />
    <frame tileid="1310" duration="150" />
    <frame tileid="1490" duration="150" />
    <frame tileid="1670" duration="150" />
    <frame tileid="1850" duration="150" />
    <frame tileid="2030" duration="150" />
    <frame tileid="2210" duration="150" />
    <frame tileid="50" duration="150" />
    <frame tileid="50" duration="150" />
    <frame tileid="50" duration="150" />
    <frame tileid="50" duration="150" />
    <frame tileid="50" duration="150" />
    <frame tileid="50" duration="150" />
    <frame tileid="50" duration="150" />
    <frame tileid="50" duration="150" />
   </animation>
  </tile>
  <tile id="51">
   <animation>
    <frame tileid="51" duration="150" />
    <frame tileid="51" duration="150" />
    <frame tileid="51" duration="150" />
    <frame tileid="51" duration="150" />
    <frame tileid="231" duration="150" />
    <frame tileid="411" duration="150" />
    <frame tileid="591" duration="150" />
    <frame tileid="771" duration="150" />
    <frame tileid="951" duration="150" />
    <frame tileid="1131" duration="150" />
    <frame tileid="1311" duration="150" />
    <frame tileid="1491" duration="150" />
    <frame tileid="1671" duration="150" />
    <frame tileid="1851" duration="150" />
    <frame tileid="2031" duration="150" />
    <frame tileid="2211" duration="150" />
    <frame tileid="51" duration="150" />
    <frame tileid="51" duration="150" />
    <frame tileid="51" duration="150" />
    <frame tileid="51" duration="150" />
    <frame tileid="51" duration="150" />
    <frame tileid="51" duration="150" />
    <frame tileid="51" duration="150" />
    <frame tileid="51" duration="150" />
   </animation>
  </tile>
  <tile id="53">
   <animation>
    <frame tileid="53" duration="150" />
    <frame tileid="53" duration="150" />
    <frame tileid="53" duration="150" />
    <frame tileid="53" duration="150" />
    <frame tileid="53" duration="150" />
    <frame tileid="53" duration="150" />
    <frame tileid="53" duration="150" />
    <frame tileid="53" duration="150" />
    <frame tileid="53" duration="150" />
    <frame tileid="53" duration="150" />
    <frame tileid="233" duration="150" />
    <frame tileid="413" duration="150" />
    <frame tileid="593" duration="150" />
    <frame tileid="773" duration="150" />
    <frame tileid="953" duration="150" />
    <frame tileid="1133" duration="150" />
    <frame tileid="1313" duration="150" />
    <frame tileid="1493" duration="150" />
    <frame tileid="1673" duration="150" />
    <frame tileid="1853" duration="150" />
    <frame tileid="2033" duration="150" />
    <frame tileid="2213" duration="150" />
    <frame tileid="53" duration="150" />
    <frame tileid="53" duration="150" />
   </animation>
  </tile>
  <tile id="54">
   <animation>
    <frame tileid="54" duration="150" />
    <frame tileid="54" duration="150" />
    <frame tileid="54" duration="150" />
    <frame tileid="54" duration="150" />
    <frame tileid="54" duration="150" />
    <frame tileid="54" duration="150" />
    <frame tileid="54" duration="150" />
    <frame tileid="54" duration="150" />
    <frame tileid="54" duration="150" />
    <frame tileid="54" duration="150" />
    <frame tileid="234" duration="150" />
    <frame tileid="414" duration="150" />
    <frame tileid="594" duration="150" />
    <frame tileid="774" duration="150" />
    <frame tileid="954" duration="150" />
    <frame tileid="1134" duration="150" />
    <frame tileid="1314" duration="150" />
    <frame tileid="1494" duration="150" />
    <frame tileid="1674" duration="150" />
    <frame tileid="1854" duration="150" />
    <frame tileid="2034" duration="150" />
    <frame tileid="2214" duration="150" />
    <frame tileid="54" duration="150" />
    <frame tileid="54" duration="150" />
   </animation>
  </tile>
  <tile id="55">
   <animation>
    <frame tileid="55" duration="150" />
    <frame tileid="55" duration="150" />
    <frame tileid="55" duration="150" />
    <frame tileid="55" duration="150" />
    <frame tileid="55" duration="150" />
    <frame tileid="55" duration="150" />
    <frame tileid="55" duration="150" />
    <frame tileid="55" duration="150" />
    <frame tileid="55" duration="150" />
    <frame tileid="55" duration="150" />
    <frame tileid="235" duration="150" />
    <frame tileid="415" duration="150" />
    <frame tileid="595" duration="150" />
    <frame tileid="775" duration="150" />
    <frame tileid="955" duration="150" />
    <frame tileid="1135" duration="150" />
    <frame tileid="1315" duration="150" />
    <frame tileid="1495" duration="150" />
    <frame tileid="1675" duration="150" />
    <frame tileid="1855" duration="150" />
    <frame tileid="2035" duration="150" />
    <frame tileid="2215" duration="150" />
    <frame tileid="55" duration="150" />
    <frame tileid="55" duration="150" />
   </animation>
  </tile>
  <tile id="58">
   <animation>
    <frame tileid="58" duration="150" />
    <frame tileid="58" duration="150" />
    <frame tileid="238" duration="150" />
    <frame tileid="418" duration="150" />
    <frame tileid="598" duration="150" />
    <frame tileid="778" duration="150" />
    <frame tileid="958" duration="150" />
    <frame tileid="1138" duration="150" />
    <frame tileid="1318" duration="150" />
    <frame tileid="1498" duration="150" />
    <frame tileid="1678" duration="150" />
    <frame tileid="1858" duration="150" />
    <frame tileid="2038" duration="150" />
    <frame tileid="2218" duration="150" />
    <frame tileid="58" duration="150" />
    <frame tileid="58" duration="150" />
    <frame tileid="58" duration="150" />
    <frame tileid="58" duration="150" />
    <frame tileid="58" duration="150" />
    <frame tileid="58" duration="150" />
    <frame tileid="58" duration="150" />
    <frame tileid="58" duration="150" />
    <frame tileid="58" duration="150" />
    <frame tileid="58" duration="150" />
   </animation>
  </tile>
  <tile id="59">
   <animation>
    <frame tileid="59" duration="150" />
    <frame tileid="59" duration="150" />
    <frame tileid="239" duration="150" />
    <frame tileid="419" duration="150" />
    <frame tileid="599" duration="150" />
    <frame tileid="779" duration="150" />
    <frame tileid="959" duration="150" />
    <frame tileid="1139" duration="150" />
    <frame tileid="1319" duration="150" />
    <frame tileid="1499" duration="150" />
    <frame tileid="1679" duration="150" />
    <frame tileid="1859" duration="150" />
    <frame tileid="2039" duration="150" />
    <frame tileid="2219" duration="150" />
    <frame tileid="59" duration="150" />
    <frame tileid="59" duration="150" />
    <frame tileid="59" duration="150" />
    <frame tileid="59" duration="150" />
    <frame tileid="59" duration="150" />
    <frame tileid="59" duration="150" />
    <frame tileid="59" duration="150" />
    <frame tileid="59" duration="150" />
    <frame tileid="59" duration="150" />
    <frame tileid="59" duration="150" />
   </animation>
  </tile>
  <tile id="64">
   <animation>
    <frame tileid="64" duration="150" />
    <frame tileid="64" duration="150" />
    <frame tileid="64" duration="150" />
    <frame tileid="64" duration="150" />
    <frame tileid="64" duration="150" />
    <frame tileid="64" duration="150" />
    <frame tileid="64" duration="150" />
    <frame tileid="244" duration="150" />
    <frame tileid="424" duration="150" />
    <frame tileid="604" duration="150" />
    <frame tileid="784" duration="150" />
    <frame tileid="964" duration="150" />
    <frame tileid="1144" duration="150" />
    <frame tileid="1324" duration="150" />
    <frame tileid="1504" duration="150" />
    <frame tileid="1684" duration="150" />
    <frame tileid="1864" duration="150" />
    <frame tileid="2044" duration="150" />
    <frame tileid="2224" duration="150" />
    <frame tileid="64" duration="150" />
    <frame tileid="64" duration="150" />
    <frame tileid="64" duration="150" />
    <frame tileid="64" duration="150" />
    <frame tileid="64" duration="150" />
   </animation>
  </tile>
  <tile id="65">
   <animation>
    <frame tileid="65" duration="150" />
    <frame tileid="65" duration="150" />
    <frame tileid="65" duration="150" />
    <frame tileid="65" duration="150" />
    <frame tileid="65" duration="150" />
    <frame tileid="65" duration="150" />
    <frame tileid="65" duration="150" />
    <frame tileid="245" duration="150" />
    <frame tileid="425" duration="150" />
    <frame tileid="605" duration="150" />
    <frame tileid="785" duration="150" />
    <frame tileid="965" duration="150" />
    <frame tileid="1145" duration="150" />
    <frame tileid="1325" duration="150" />
    <frame tileid="1505" duration="150" />
    <frame tileid="1685" duration="150" />
    <frame tileid="1865" duration="150" />
    <frame tileid="2045" duration="150" />
    <frame tileid="2225" duration="150" />
    <frame tileid="65" duration="150" />
    <frame tileid="65" duration="150" />
    <frame tileid="65" duration="150" />
    <frame tileid="65" duration="150" />
    <frame tileid="65" duration="150" />
   </animation>
  </tile>
  <tile id="72">
   <animation>
    <frame tileid="72" duration="150" />
    <frame tileid="72" duration="150" />
    <frame tileid="72" duration="150" />
    <frame tileid="72" duration="150" />
    <frame tileid="72" duration="150" />
    <frame tileid="72" duration="150" />
    <frame tileid="72" duration="150" />
    <frame tileid="72" duration="150" />
    <frame tileid="72" duration="150" />
    <frame tileid="72" duration="150" />
    <frame tileid="72" duration="150" />
    <frame tileid="72" duration="150" />
    <frame tileid="252" duration="150" />
    <frame tileid="432" duration="150" />
    <frame tileid="612" duration="150" />
    <frame tileid="792" duration="150" />
    <frame tileid="972" duration="150" />
    <frame tileid="1152" duration="150" />
    <frame tileid="1332" duration="150" />
    <frame tileid="1512" duration="150" />
    <frame tileid="1692" duration="150" />
    <frame tileid="1872" duration="150" />
    <frame tileid="2052" duration="150" />
    <frame tileid="2232" duration="150" />
   </animation>
  </tile>
  <tile id="73">
   <animation>
    <frame tileid="73" duration="150" />
    <frame tileid="73" duration="150" />
    <frame tileid="73" duration="150" />
    <frame tileid="73" duration="150" />
    <frame tileid="73" duration="150" />
    <frame tileid="73" duration="150" />
    <frame tileid="73" duration="150" />
    <frame tileid="73" duration="150" />
    <frame tileid="73" duration="150" />
    <frame tileid="73" duration="150" />
    <frame tileid="73" duration="150" />
    <frame tileid="73" duration="150" />
    <frame tileid="253" duration="150" />
    <frame tileid="433" duration="150" />
    <frame tileid="613" duration="150" />
    <frame tileid="793" duration="150" />
    <frame tileid="973" duration="150" />
    <frame tileid="1153" duration="150" />
    <frame tileid="1333" duration="150" />
    <frame tileid="1513" duration="150" />
    <frame tileid="1693" duration="150" />
    <frame tileid="1873" duration="150" />
    <frame tileid="2053" duration="150" />
    <frame tileid="2233" duration="150" />
   </animation>
  </tile>
  <tile id="74">
   <animation>
    <frame tileid="74" duration="150" />
    <frame tileid="74" duration="150" />
    <frame tileid="74" duration="150" />
    <frame tileid="74" duration="150" />
    <frame tileid="74" duration="150" />
    <frame tileid="74" duration="150" />
    <frame tileid="74" duration="150" />
    <frame tileid="74" duration="150" />
    <frame tileid="74" duration="150" />
    <frame tileid="74" duration="150" />
    <frame tileid="74" duration="150" />
    <frame tileid="74" duration="150" />
    <frame tileid="254" duration="150" />
    <frame tileid="434" duration="150" />
    <frame tileid="614" duration="150" />
    <frame tileid="794" duration="150" />
    <frame tileid="974" duration="150" />
    <frame tileid="1154" duration="150" />
    <frame tileid="1334" duration="150" />
    <frame tileid="1514" duration="150" />
    <frame tileid="1694" duration="150" />
    <frame tileid="1874" duration="150" />
    <frame tileid="2054" duration="150" />
    <frame tileid="2234" duration="150" />
   </animation>
  </tile>
  <tile id="75">
   <animation>
    <frame tileid="75" duration="150" />
    <frame tileid="75" duration="150" />
    <frame tileid="75" duration="150" />
    <frame tileid="75" duration="150" />
    <frame tileid="75" duration="150" />
    <frame tileid="75" duration="150" />
    <frame tileid="75" duration="150" />
    <frame tileid="75" duration="150" />
    <frame tileid="75" duration="150" />
    <frame tileid="75" duration="150" />
    <frame tileid="75" duration="150" />
    <frame tileid="75" duration="150" />
    <frame tileid="255" duration="150" />
    <frame tileid="435" duration="150" />
    <frame tileid="615" duration="150" />
    <frame tileid="795" duration="150" />
    <frame tileid="975" duration="150" />
    <frame tileid="1155" duration="150" />
    <frame tileid="1335" duration="150" />
    <frame tileid="1515" duration="150" />
    <frame tileid="1695" duration="150" />
    <frame tileid="1875" duration="150" />
    <frame tileid="2055" duration="150" />
    <frame tileid="2235" duration="150" />
   </animation>
  </tile>
  <tile id="76">
   <animation>
    <frame tileid="256" duration="150" />
    <frame tileid="436" duration="150" />
    <frame tileid="616" duration="150" />
    <frame tileid="796" duration="150" />
    <frame tileid="976" duration="150" />
    <frame tileid="1156" duration="150" />
    <frame tileid="1336" duration="150" />
    <frame tileid="1516" duration="150" />
    <frame tileid="1696" duration="150" />
    <frame tileid="1876" duration="150" />
    <frame tileid="2056" duration="150" />
    <frame tileid="2236" duration="150" />
    <frame tileid="76" duration="150" />
    <frame tileid="76" duration="150" />
    <frame tileid="76" duration="150" />
    <frame tileid="76" duration="150" />
    <frame tileid="76" duration="150" />
    <frame tileid="76" duration="150" />
    <frame tileid="76" duration="150" />
    <frame tileid="76" duration="150" />
    <frame tileid="76" duration="150" />
    <frame tileid="76" duration="150" />
    <frame tileid="76" duration="150" />
    <frame tileid="76" duration="150" />
   </animation>
  </tile>
  <tile id="77">
   <animation>
    <frame tileid="257" duration="150" />
    <frame tileid="437" duration="150" />
    <frame tileid="617" duration="150" />
    <frame tileid="797" duration="150" />
    <frame tileid="977" duration="150" />
    <frame tileid="1157" duration="150" />
    <frame tileid="1337" duration="150" />
    <frame tileid="1517" duration="150" />
    <frame tileid="1697" duration="150" />
    <frame tileid="1877" duration="150" />
    <frame tileid="2057" duration="150" />
    <frame tileid="2237" duration="150" />
    <frame tileid="77" duration="150" />
    <frame tileid="77" duration="150" />
    <frame tileid="77" duration="150" />
    <frame tileid="77" duration="150" />
    <frame tileid="77" duration="150" />
    <frame tileid="77" duration="150" />
    <frame tileid="77" duration="150" />
    <frame tileid="77" duration="150" />
    <frame tileid="77" duration="150" />
    <frame tileid="77" duration="150" />
    <frame tileid="77" duration="150" />
    <frame tileid="77" duration="150" />
   </animation>
  </tile>
  <tile id="78">
   <animation>
    <frame tileid="258" duration="150" />
    <frame tileid="438" duration="150" />
    <frame tileid="618" duration="150" />
    <frame tileid="798" duration="150" />
    <frame tileid="978" duration="150" />
    <frame tileid="1158" duration="150" />
    <frame tileid="1338" duration="150" />
    <frame tileid="1518" duration="150" />
    <frame tileid="1698" duration="150" />
    <frame tileid="1878" duration="150" />
    <frame tileid="2058" duration="150" />
    <frame tileid="2238" duration="150" />
    <frame tileid="78" duration="150" />
    <frame tileid="78" duration="150" />
    <frame tileid="78" duration="150" />
    <frame tileid="78" duration="150" />
    <frame tileid="78" duration="150" />
    <frame tileid="78" duration="150" />
    <frame tileid="78" duration="150" />
    <frame tileid="78" duration="150" />
    <frame tileid="78" duration="150" />
    <frame tileid="78" duration="150" />
    <frame tileid="78" duration="150" />
    <frame tileid="78" duration="150" />
   </animation>
  </tile>
  <tile id="79">
   <animation>
    <frame tileid="259" duration="150" />
    <frame tileid="439" duration="150" />
    <frame tileid="619" duration="150" />
    <frame tileid="799" duration="150" />
    <frame tileid="979" duration="150" />
    <frame tileid="1159" duration="150" />
    <frame tileid="1339" duration="150" />
    <frame tileid="1519" duration="150" />
    <frame tileid="1699" duration="150" />
    <frame tileid="1879" duration="150" />
    <frame tileid="2059" duration="150" />
    <frame tileid="2239" duration="150" />
    <frame tileid="79" duration="150" />
    <frame tileid="79" duration="150" />
    <frame tileid="79" duration="150" />
    <frame tileid="79" duration="150" />
    <frame tileid="79" duration="150" />
    <frame tileid="79" duration="150" />
    <frame tileid="79" duration="150" />
    <frame tileid="79" duration="150" />
    <frame tileid="79" duration="150" />
    <frame tileid="79" duration="150" />
    <frame tileid="79" duration="150" />
    <frame tileid="79" duration="150" />
   </animation>
  </tile>
  <tile id="80">
   <animation>
    <frame tileid="80" duration="150" />
    <frame tileid="80" duration="150" />
    <frame tileid="80" duration="150" />
    <frame tileid="80" duration="150" />
    <frame tileid="80" duration="150" />
    <frame tileid="80" duration="150" />
    <frame tileid="80" duration="150" />
    <frame tileid="80" duration="150" />
    <frame tileid="80" duration="150" />
    <frame tileid="260" duration="150" />
    <frame tileid="440" duration="150" />
    <frame tileid="620" duration="150" />
    <frame tileid="800" duration="150" />
    <frame tileid="980" duration="150" />
    <frame tileid="1160" duration="150" />
    <frame tileid="1340" duration="150" />
    <frame tileid="1520" duration="150" />
    <frame tileid="1700" duration="150" />
    <frame tileid="1880" duration="150" />
    <frame tileid="2060" duration="150" />
    <frame tileid="2240" duration="150" />
    <frame tileid="80" duration="150" />
    <frame tileid="80" duration="150" />
    <frame tileid="80" duration="150" />
   </animation>
  </tile>
  <tile id="81">
   <animation>
    <frame tileid="81" duration="150" />
    <frame tileid="81" duration="150" />
    <frame tileid="81" duration="150" />
    <frame tileid="81" duration="150" />
    <frame tileid="81" duration="150" />
    <frame tileid="81" duration="150" />
    <frame tileid="81" duration="150" />
    <frame tileid="81" duration="150" />
    <frame tileid="81" duration="150" />
    <frame tileid="261" duration="150" />
    <frame tileid="441" duration="150" />
    <frame tileid="621" duration="150" />
    <frame tileid="801" duration="150" />
    <frame tileid="981" duration="150" />
    <frame tileid="1161" duration="150" />
    <frame tileid="1341" duration="150" />
    <frame tileid="1521" duration="150" />
    <frame tileid="1701" duration="150" />
    <frame tileid="1881" duration="150" />
    <frame tileid="2061" duration="150" />
    <frame tileid="2241" duration="150" />
    <frame tileid="81" duration="150" />
    <frame tileid="81" duration="150" />
    <frame tileid="81" duration="150" />
   </animation>
  </tile>
  <tile id="82">
   <animation>
    <frame tileid="82" duration="150" />
    <frame tileid="82" duration="150" />
    <frame tileid="82" duration="150" />
    <frame tileid="82" duration="150" />
    <frame tileid="82" duration="150" />
    <frame tileid="82" duration="150" />
    <frame tileid="82" duration="150" />
    <frame tileid="82" duration="150" />
    <frame tileid="82" duration="150" />
    <frame tileid="262" duration="150" />
    <frame tileid="442" duration="150" />
    <frame tileid="622" duration="150" />
    <frame tileid="802" duration="150" />
    <frame tileid="982" duration="150" />
    <frame tileid="1162" duration="150" />
    <frame tileid="1342" duration="150" />
    <frame tileid="1522" duration="150" />
    <frame tileid="1702" duration="150" />
    <frame tileid="1882" duration="150" />
    <frame tileid="2062" duration="150" />
    <frame tileid="2242" duration="150" />
    <frame tileid="82" duration="150" />
    <frame tileid="82" duration="150" />
    <frame tileid="82" duration="150" />
   </animation>
  </tile>
  <tile id="84">
   <animation>
    <frame tileid="84" duration="150" />
    <frame tileid="84" duration="150" />
    <frame tileid="84" duration="150" />
    <frame tileid="84" duration="150" />
    <frame tileid="264" duration="150" />
    <frame tileid="444" duration="150" />
    <frame tileid="624" duration="150" />
    <frame tileid="804" duration="150" />
    <frame tileid="984" duration="150" />
    <frame tileid="1164" duration="150" />
    <frame tileid="1344" duration="150" />
    <frame tileid="1524" duration="150" />
    <frame tileid="1704" duration="150" />
    <frame tileid="1884" duration="150" />
    <frame tileid="2064" duration="150" />
    <frame tileid="2244" duration="150" />
    <frame tileid="84" duration="150" />
    <frame tileid="84" duration="150" />
    <frame tileid="84" duration="150" />
    <frame tileid="84" duration="150" />
    <frame tileid="84" duration="150" />
    <frame tileid="84" duration="150" />
    <frame tileid="84" duration="150" />
    <frame tileid="84" duration="150" />
   </animation>
  </tile>
  <tile id="85">
   <animation>
    <frame tileid="85" duration="150" />
    <frame tileid="85" duration="150" />
    <frame tileid="85" duration="150" />
    <frame tileid="85" duration="150" />
    <frame tileid="265" duration="150" />
    <frame tileid="445" duration="150" />
    <frame tileid="625" duration="150" />
    <frame tileid="805" duration="150" />
    <frame tileid="985" duration="150" />
    <frame tileid="1165" duration="150" />
    <frame tileid="1345" duration="150" />
    <frame tileid="1525" duration="150" />
    <frame tileid="1705" duration="150" />
    <frame tileid="1885" duration="150" />
    <frame tileid="2065" duration="150" />
    <frame tileid="2245" duration="150" />
    <frame tileid="85" duration="150" />
    <frame tileid="85" duration="150" />
    <frame tileid="85" duration="150" />
    <frame tileid="85" duration="150" />
    <frame tileid="85" duration="150" />
    <frame tileid="85" duration="150" />
    <frame tileid="85" duration="150" />
    <frame tileid="85" duration="150" />
   </animation>
  </tile>
  <tile id="86">
   <animation>
    <frame tileid="86" duration="150" />
    <frame tileid="86" duration="150" />
    <frame tileid="86" duration="150" />
    <frame tileid="86" duration="150" />
    <frame tileid="266" duration="150" />
    <frame tileid="446" duration="150" />
    <frame tileid="626" duration="150" />
    <frame tileid="806" duration="150" />
    <frame tileid="986" duration="150" />
    <frame tileid="1166" duration="150" />
    <frame tileid="1346" duration="150" />
    <frame tileid="1526" duration="150" />
    <frame tileid="1706" duration="150" />
    <frame tileid="1886" duration="150" />
    <frame tileid="2066" duration="150" />
    <frame tileid="2246" duration="150" />
    <frame tileid="86" duration="150" />
    <frame tileid="86" duration="150" />
    <frame tileid="86" duration="150" />
    <frame tileid="86" duration="150" />
    <frame tileid="86" duration="150" />
    <frame tileid="86" duration="150" />
    <frame tileid="86" duration="150" />
    <frame tileid="86" duration="150" />
   </animation>
  </tile>
  <tile id="87">
   <animation>
    <frame tileid="87" duration="150" />
    <frame tileid="87" duration="150" />
    <frame tileid="87" duration="150" />
    <frame tileid="87" duration="150" />
    <frame tileid="267" duration="150" />
    <frame tileid="447" duration="150" />
    <frame tileid="627" duration="150" />
    <frame tileid="807" duration="150" />
    <frame tileid="987" duration="150" />
    <frame tileid="1167" duration="150" />
    <frame tileid="1347" duration="150" />
    <frame tileid="1527" duration="150" />
    <frame tileid="1707" duration="150" />
    <frame tileid="1887" duration="150" />
    <frame tileid="2067" duration="150" />
    <frame tileid="2247" duration="150" />
    <frame tileid="87" duration="150" />
    <frame tileid="87" duration="150" />
    <frame tileid="87" duration="150" />
    <frame tileid="87" duration="150" />
    <frame tileid="87" duration="150" />
    <frame tileid="87" duration="150" />
    <frame tileid="87" duration="150" />
    <frame tileid="87" duration="150" />
   </animation>
  </tile>
  <tile id="88">
   <animation>
    <frame tileid="88" duration="150" />
    <frame tileid="88" duration="150" />
    <frame tileid="88" duration="150" />
    <frame tileid="88" duration="150" />
    <frame tileid="88" duration="150" />
    <frame tileid="88" duration="150" />
    <frame tileid="88" duration="150" />
    <frame tileid="88" duration="150" />
    <frame tileid="88" duration="150" />
    <frame tileid="88" duration="150" />
    <frame tileid="268" duration="150" />
    <frame tileid="448" duration="150" />
    <frame tileid="628" duration="150" />
    <frame tileid="808" duration="150" />
    <frame tileid="988" duration="150" />
    <frame tileid="1168" duration="150" />
    <frame tileid="1348" duration="150" />
    <frame tileid="1528" duration="150" />
    <frame tileid="1708" duration="150" />
    <frame tileid="1888" duration="150" />
    <frame tileid="2068" duration="150" />
    <frame tileid="2248" duration="150" />
    <frame tileid="88" duration="150" />
    <frame tileid="88" duration="150" />
   </animation>
  </tile>
  <tile id="89">
   <animation>
    <frame tileid="89" duration="150" />
    <frame tileid="89" duration="150" />
    <frame tileid="89" duration="150" />
    <frame tileid="89" duration="150" />
    <frame tileid="89" duration="150" />
    <frame tileid="89" duration="150" />
    <frame tileid="89" duration="150" />
    <frame tileid="89" duration="150" />
    <frame tileid="89" duration="150" />
    <frame tileid="89" duration="150" />
    <frame tileid="269" duration="150" />
    <frame tileid="449" duration="150" />
    <frame tileid="629" duration="150" />
    <frame tileid="809" duration="150" />
    <frame tileid="989" duration="150" />
    <frame tileid="1169" duration="150" />
    <frame tileid="1349" duration="150" />
    <frame tileid="1529" duration="150" />
    <frame tileid="1709" duration="150" />
    <frame tileid="1889" duration="150" />
    <frame tileid="2069" duration="150" />
    <frame tileid="2249" duration="150" />
    <frame tileid="89" duration="150" />
    <frame tileid="89" duration="150" />
   </animation>
  </tile>
  <tile id="90">
   <animation>
    <frame tileid="90" duration="150" />
    <frame tileid="90" duration="150" />
    <frame tileid="90" duration="150" />
    <frame tileid="90" duration="150" />
    <frame tileid="90" duration="150" />
    <frame tileid="90" duration="150" />
    <frame tileid="90" duration="150" />
    <frame tileid="90" duration="150" />
    <frame tileid="90" duration="150" />
    <frame tileid="90" duration="150" />
    <frame tileid="270" duration="150" />
    <frame tileid="450" duration="150" />
    <frame tileid="630" duration="150" />
    <frame tileid="810" duration="150" />
    <frame tileid="990" duration="150" />
    <frame tileid="1170" duration="150" />
    <frame tileid="1350" duration="150" />
    <frame tileid="1530" duration="150" />
    <frame tileid="1710" duration="150" />
    <frame tileid="1890" duration="150" />
    <frame tileid="2070" duration="150" />
    <frame tileid="2250" duration="150" />
    <frame tileid="90" duration="150" />
    <frame tileid="90" duration="150" />
   </animation>
  </tile>
  <tile id="91">
   <animation>
    <frame tileid="91" duration="150" />
    <frame tileid="91" duration="150" />
    <frame tileid="91" duration="150" />
    <frame tileid="91" duration="150" />
    <frame tileid="91" duration="150" />
    <frame tileid="91" duration="150" />
    <frame tileid="91" duration="150" />
    <frame tileid="91" duration="150" />
    <frame tileid="91" duration="150" />
    <frame tileid="91" duration="150" />
    <frame tileid="271" duration="150" />
    <frame tileid="451" duration="150" />
    <frame tileid="631" duration="150" />
    <frame tileid="811" duration="150" />
    <frame tileid="991" duration="150" />
    <frame tileid="1171" duration="150" />
    <frame tileid="1351" duration="150" />
    <frame tileid="1531" duration="150" />
    <frame tileid="1711" duration="150" />
    <frame tileid="1891" duration="150" />
    <frame tileid="2071" duration="150" />
    <frame tileid="2251" duration="150" />
    <frame tileid="91" duration="150" />
    <frame tileid="91" duration="150" />
   </animation>
  </tile>
  <tile id="94">
   <animation>
    <frame tileid="94" duration="150" />
    <frame tileid="94" duration="150" />
    <frame tileid="274" duration="150" />
    <frame tileid="454" duration="150" />
    <frame tileid="634" duration="150" />
    <frame tileid="814" duration="150" />
    <frame tileid="994" duration="150" />
    <frame tileid="1174" duration="150" />
    <frame tileid="1354" duration="150" />
    <frame tileid="1534" duration="150" />
    <frame tileid="1714" duration="150" />
    <frame tileid="1894" duration="150" />
    <frame tileid="2074" duration="150" />
    <frame tileid="2254" duration="150" />
    <frame tileid="94" duration="150" />
    <frame tileid="94" duration="150" />
    <frame tileid="94" duration="150" />
    <frame tileid="94" duration="150" />
    <frame tileid="94" duration="150" />
    <frame tileid="94" duration="150" />
    <frame tileid="94" duration="150" />
    <frame tileid="94" duration="150" />
    <frame tileid="94" duration="150" />
    <frame tileid="94" duration="150" />
   </animation>
  </tile>
  <tile id="95">
   <animation>
    <frame tileid="95" duration="150" />
    <frame tileid="95" duration="150" />
    <frame tileid="275" duration="150" />
    <frame tileid="455" duration="150" />
    <frame tileid="635" duration="150" />
    <frame tileid="815" duration="150" />
    <frame tileid="995" duration="150" />
    <frame tileid="1175" duration="150" />
    <frame tileid="1355" duration="150" />
    <frame tileid="1535" duration="150" />
    <frame tileid="1715" duration="150" />
    <frame tileid="1895" duration="150" />
    <frame tileid="2075" duration="150" />
    <frame tileid="2255" duration="150" />
    <frame tileid="95" duration="150" />
    <frame tileid="95" duration="150" />
    <frame tileid="95" duration="150" />
    <frame tileid="95" duration="150" />
    <frame tileid="95" duration="150" />
    <frame tileid="95" duration="150" />
    <frame tileid="95" duration="150" />
    <frame tileid="95" duration="150" />
    <frame tileid="95" duration="150" />
    <frame tileid="95" duration="150" />
   </animation>
  </tile>
  <tile id="96">
   <animation>
    <frame tileid="96" duration="150" />
    <frame tileid="96" duration="150" />
    <frame tileid="276" duration="150" />
    <frame tileid="456" duration="150" />
    <frame tileid="636" duration="150" />
    <frame tileid="816" duration="150" />
    <frame tileid="996" duration="150" />
    <frame tileid="1176" duration="150" />
    <frame tileid="1356" duration="150" />
    <frame tileid="1536" duration="150" />
    <frame tileid="1716" duration="150" />
    <frame tileid="1896" duration="150" />
    <frame tileid="2076" duration="150" />
    <frame tileid="2256" duration="150" />
    <frame tileid="96" duration="150" />
    <frame tileid="96" duration="150" />
    <frame tileid="96" duration="150" />
    <frame tileid="96" duration="150" />
    <frame tileid="96" duration="150" />
    <frame tileid="96" duration="150" />
    <frame tileid="96" duration="150" />
    <frame tileid="96" duration="150" />
    <frame tileid="96" duration="150" />
    <frame tileid="96" duration="150" />
   </animation>
  </tile>
  <tile id="97">
   <animation>
    <frame tileid="97" duration="150" />
    <frame tileid="97" duration="150" />
    <frame tileid="277" duration="150" />
    <frame tileid="457" duration="150" />
    <frame tileid="637" duration="150" />
    <frame tileid="817" duration="150" />
    <frame tileid="997" duration="150" />
    <frame tileid="1177" duration="150" />
    <frame tileid="1357" duration="150" />
    <frame tileid="1537" duration="150" />
    <frame tileid="1717" duration="150" />
    <frame tileid="1897" duration="150" />
    <frame tileid="2077" duration="150" />
    <frame tileid="2257" duration="150" />
    <frame tileid="97" duration="150" />
    <frame tileid="97" duration="150" />
    <frame tileid="97" duration="150" />
    <frame tileid="97" duration="150" />
    <frame tileid="97" duration="150" />
    <frame tileid="97" duration="150" />
    <frame tileid="97" duration="150" />
    <frame tileid="97" duration="150" />
    <frame tileid="97" duration="150" />
    <frame tileid="97" duration="150" />
   </animation>
  </tile>
  <tile id="98">
   <animation>
    <frame tileid="98" duration="150" />
    <frame tileid="98" duration="150" />
    <frame tileid="278" duration="150" />
    <frame tileid="458" duration="150" />
    <frame tileid="638" duration="150" />
    <frame tileid="818" duration="150" />
    <frame tileid="998" duration="150" />
    <frame tileid="1178" duration="150" />
    <frame tileid="1358" duration="150" />
    <frame tileid="1538" duration="150" />
    <frame tileid="1718" duration="150" />
    <frame tileid="1898" duration="150" />
    <frame tileid="2078" duration="150" />
    <frame tileid="2258" duration="150" />
    <frame tileid="98" duration="150" />
    <frame tileid="98" duration="150" />
    <frame tileid="98" duration="150" />
    <frame tileid="98" duration="150" />
    <frame tileid="98" duration="150" />
    <frame tileid="98" duration="150" />
    <frame tileid="98" duration="150" />
    <frame tileid="98" duration="150" />
    <frame tileid="98" duration="150" />
    <frame tileid="98" duration="150" />
   </animation>
  </tile>
  <tile id="99">
   <animation>
    <frame tileid="99" duration="150" />
    <frame tileid="99" duration="150" />
    <frame tileid="279" duration="150" />
    <frame tileid="459" duration="150" />
    <frame tileid="639" duration="150" />
    <frame tileid="819" duration="150" />
    <frame tileid="999" duration="150" />
    <frame tileid="1179" duration="150" />
    <frame tileid="1359" duration="150" />
    <frame tileid="1539" duration="150" />
    <frame tileid="1719" duration="150" />
    <frame tileid="1899" duration="150" />
    <frame tileid="2079" duration="150" />
    <frame tileid="2259" duration="150" />
    <frame tileid="99" duration="150" />
    <frame tileid="99" duration="150" />
    <frame tileid="99" duration="150" />
    <frame tileid="99" duration="150" />
    <frame tileid="99" duration="150" />
    <frame tileid="99" duration="150" />
    <frame tileid="99" duration="150" />
    <frame tileid="99" duration="150" />
    <frame tileid="99" duration="150" />
    <frame tileid="99" duration="150" />
   </animation>
  </tile>
  <tile id="100">
   <animation>
    <frame tileid="100" duration="150" />
    <frame tileid="100" duration="150" />
    <frame tileid="100" duration="150" />
    <frame tileid="100" duration="150" />
    <frame tileid="100" duration="150" />
    <frame tileid="100" duration="150" />
    <frame tileid="100" duration="150" />
    <frame tileid="280" duration="150" />
    <frame tileid="460" duration="150" />
    <frame tileid="640" duration="150" />
    <frame tileid="820" duration="150" />
    <frame tileid="1000" duration="150" />
    <frame tileid="1180" duration="150" />
    <frame tileid="1360" duration="150" />
    <frame tileid="1540" duration="150" />
    <frame tileid="1720" duration="150" />
    <frame tileid="1900" duration="150" />
    <frame tileid="2080" duration="150" />
    <frame tileid="2260" duration="150" />
    <frame tileid="100" duration="150" />
    <frame tileid="100" duration="150" />
    <frame tileid="100" duration="150" />
    <frame tileid="100" duration="150" />
    <frame tileid="100" duration="150" />
   </animation>
  </tile>
  <tile id="101">
   <animation>
    <frame tileid="101" duration="150" />
    <frame tileid="101" duration="150" />
    <frame tileid="101" duration="150" />
    <frame tileid="101" duration="150" />
    <frame tileid="101" duration="150" />
    <frame tileid="101" duration="150" />
    <frame tileid="101" duration="150" />
    <frame tileid="281" duration="150" />
    <frame tileid="461" duration="150" />
    <frame tileid="641" duration="150" />
    <frame tileid="821" duration="150" />
    <frame tileid="1001" duration="150" />
    <frame tileid="1181" duration="150" />
    <frame tileid="1361" duration="150" />
    <frame tileid="1541" duration="150" />
    <frame tileid="1721" duration="150" />
    <frame tileid="1901" duration="150" />
    <frame tileid="2081" duration="150" />
    <frame tileid="2261" duration="150" />
    <frame tileid="101" duration="150" />
    <frame tileid="101" duration="150" />
    <frame tileid="101" duration="150" />
    <frame tileid="101" duration="150" />
    <frame tileid="101" duration="150" />
   </animation>
  </tile>
  <tile id="102">
   <animation>
    <frame tileid="102" duration="150" />
    <frame tileid="102" duration="150" />
    <frame tileid="102" duration="150" />
    <frame tileid="102" duration="150" />
    <frame tileid="102" duration="150" />
    <frame tileid="102" duration="150" />
    <frame tileid="102" duration="150" />
    <frame tileid="282" duration="150" />
    <frame tileid="462" duration="150" />
    <frame tileid="642" duration="150" />
    <frame tileid="822" duration="150" />
    <frame tileid="1002" duration="150" />
    <frame tileid="1182" duration="150" />
    <frame tileid="1362" duration="150" />
    <frame tileid="1542" duration="150" />
    <frame tileid="1722" duration="150" />
    <frame tileid="1902" duration="150" />
    <frame tileid="2082" duration="150" />
    <frame tileid="2262" duration="150" />
    <frame tileid="102" duration="150" />
    <frame tileid="102" duration="150" />
    <frame tileid="102" duration="150" />
    <frame tileid="102" duration="150" />
    <frame tileid="102" duration="150" />
   </animation>
  </tile>
  <tile id="103">
   <animation>
    <frame tileid="103" duration="150" />
    <frame tileid="103" duration="150" />
    <frame tileid="103" duration="150" />
    <frame tileid="103" duration="150" />
    <frame tileid="103" duration="150" />
    <frame tileid="103" duration="150" />
    <frame tileid="103" duration="150" />
    <frame tileid="283" duration="150" />
    <frame tileid="463" duration="150" />
    <frame tileid="643" duration="150" />
    <frame tileid="823" duration="150" />
    <frame tileid="1003" duration="150" />
    <frame tileid="1183" duration="150" />
    <frame tileid="1363" duration="150" />
    <frame tileid="1543" duration="150" />
    <frame tileid="1723" duration="150" />
    <frame tileid="1903" duration="150" />
    <frame tileid="2083" duration="150" />
    <frame tileid="2263" duration="150" />
    <frame tileid="103" duration="150" />
    <frame tileid="103" duration="150" />
    <frame tileid="103" duration="150" />
    <frame tileid="103" duration="150" />
    <frame tileid="103" duration="150" />
   </animation>
  </tile>
  <tile id="106">
   <animation>
    <frame tileid="106" duration="150" />
    <frame tileid="106" duration="150" />
    <frame tileid="106" duration="150" />
    <frame tileid="106" duration="150" />
    <frame tileid="106" duration="150" />
    <frame tileid="106" duration="150" />
    <frame tileid="106" duration="150" />
    <frame tileid="106" duration="150" />
    <frame tileid="286" duration="150" />
    <frame tileid="466" duration="150" />
    <frame tileid="646" duration="150" />
    <frame tileid="826" duration="150" />
    <frame tileid="1006" duration="150" />
    <frame tileid="1186" duration="150" />
    <frame tileid="1366" duration="150" />
    <frame tileid="1546" duration="150" />
    <frame tileid="1726" duration="150" />
    <frame tileid="1906" duration="150" />
    <frame tileid="2086" duration="150" />
    <frame tileid="2266" duration="150" />
    <frame tileid="106" duration="150" />
    <frame tileid="106" duration="150" />
    <frame tileid="106" duration="150" />
    <frame tileid="106" duration="150" />
   </animation>
  </tile>
  <tile id="108">
   <animation>
    <frame tileid="108" duration="150" />
    <frame tileid="108" duration="150" />
    <frame tileid="108" duration="150" />
    <frame tileid="108" duration="150" />
    <frame tileid="108" duration="150" />
    <frame tileid="108" duration="150" />
    <frame tileid="108" duration="150" />
    <frame tileid="108" duration="150" />
    <frame tileid="108" duration="150" />
    <frame tileid="108" duration="150" />
    <frame tileid="108" duration="150" />
    <frame tileid="108" duration="150" />
    <frame tileid="288" duration="150" />
    <frame tileid="468" duration="150" />
    <frame tileid="648" duration="150" />
    <frame tileid="828" duration="150" />
    <frame tileid="1008" duration="150" />
    <frame tileid="1188" duration="150" />
    <frame tileid="1368" duration="150" />
    <frame tileid="1548" duration="150" />
    <frame tileid="1728" duration="150" />
    <frame tileid="1908" duration="150" />
    <frame tileid="2088" duration="150" />
    <frame tileid="2268" duration="150" />
   </animation>
  </tile>
  <tile id="109">
   <animation>
    <frame tileid="109" duration="150" />
    <frame tileid="109" duration="150" />
    <frame tileid="109" duration="150" />
    <frame tileid="109" duration="150" />
    <frame tileid="109" duration="150" />
    <frame tileid="109" duration="150" />
    <frame tileid="109" duration="150" />
    <frame tileid="109" duration="150" />
    <frame tileid="109" duration="150" />
    <frame tileid="109" duration="150" />
    <frame tileid="109" duration="150" />
    <frame tileid="109" duration="150" />
    <frame tileid="289" duration="150" />
    <frame tileid="469" duration="150" />
    <frame tileid="649" duration="150" />
    <frame tileid="829" duration="150" />
    <frame tileid="1009" duration="150" />
    <frame tileid="1189" duration="150" />
    <frame tileid="1369" duration="150" />
    <frame tileid="1549" duration="150" />
    <frame tileid="1729" duration="150" />
    <frame tileid="1909" duration="150" />
    <frame tileid="2089" duration="150" />
    <frame tileid="2269" duration="150" />
   </animation>
  </tile>
  <tile id="110">
   <animation>
    <frame tileid="110" duration="150" />
    <frame tileid="110" duration="150" />
    <frame tileid="110" duration="150" />
    <frame tileid="110" duration="150" />
    <frame tileid="110" duration="150" />
    <frame tileid="110" duration="150" />
    <frame tileid="110" duration="150" />
    <frame tileid="110" duration="150" />
    <frame tileid="110" duration="150" />
    <frame tileid="110" duration="150" />
    <frame tileid="110" duration="150" />
    <frame tileid="110" duration="150" />
    <frame tileid="290" duration="150" />
    <frame tileid="470" duration="150" />
    <frame tileid="650" duration="150" />
    <frame tileid="830" duration="150" />
    <frame tileid="1010" duration="150" />
    <frame tileid="1190" duration="150" />
    <frame tileid="1370" duration="150" />
    <frame tileid="1550" duration="150" />
    <frame tileid="1730" duration="150" />
    <frame tileid="1910" duration="150" />
    <frame tileid="2090" duration="150" />
    <frame tileid="2270" duration="150" />
   </animation>
  </tile>
  <tile id="111">
   <animation>
    <frame tileid="111" duration="150" />
    <frame tileid="111" duration="150" />
    <frame tileid="111" duration="150" />
    <frame tileid="111" duration="150" />
    <frame tileid="111" duration="150" />
    <frame tileid="111" duration="150" />
    <frame tileid="111" duration="150" />
    <frame tileid="111" duration="150" />
    <frame tileid="111" duration="150" />
    <frame tileid="111" duration="150" />
    <frame tileid="111" duration="150" />
    <frame tileid="111" duration="150" />
    <frame tileid="291" duration="150" />
    <frame tileid="471" duration="150" />
    <frame tileid="651" duration="150" />
    <frame tileid="831" duration="150" />
    <frame tileid="1011" duration="150" />
    <frame tileid="1191" duration="150" />
    <frame tileid="1371" duration="150" />
    <frame tileid="1551" duration="150" />
    <frame tileid="1731" duration="150" />
    <frame tileid="1911" duration="150" />
    <frame tileid="2091" duration="150" />
    <frame tileid="2271" duration="150" />
   </animation>
  </tile>
  <tile id="112">
   <animation>
    <frame tileid="292" duration="150" />
    <frame tileid="472" duration="150" />
    <frame tileid="652" duration="150" />
    <frame tileid="832" duration="150" />
    <frame tileid="1012" duration="150" />
    <frame tileid="1192" duration="150" />
    <frame tileid="1372" duration="150" />
    <frame tileid="1552" duration="150" />
    <frame tileid="1732" duration="150" />
    <frame tileid="1912" duration="150" />
    <frame tileid="2092" duration="150" />
    <frame tileid="2272" duration="150" />
    <frame tileid="112" duration="150" />
    <frame tileid="112" duration="150" />
    <frame tileid="112" duration="150" />
    <frame tileid="112" duration="150" />
    <frame tileid="112" duration="150" />
    <frame tileid="112" duration="150" />
    <frame tileid="112" duration="150" />
    <frame tileid="112" duration="150" />
    <frame tileid="112" duration="150" />
    <frame tileid="112" duration="150" />
    <frame tileid="112" duration="150" />
    <frame tileid="112" duration="150" />
   </animation>
  </tile>
  <tile id="113">
   <animation>
    <frame tileid="293" duration="150" />
    <frame tileid="473" duration="150" />
    <frame tileid="653" duration="150" />
    <frame tileid="833" duration="150" />
    <frame tileid="1013" duration="150" />
    <frame tileid="1193" duration="150" />
    <frame tileid="1373" duration="150" />
    <frame tileid="1553" duration="150" />
    <frame tileid="1733" duration="150" />
    <frame tileid="1913" duration="150" />
    <frame tileid="2093" duration="150" />
    <frame tileid="2273" duration="150" />
    <frame tileid="113" duration="150" />
    <frame tileid="113" duration="150" />
    <frame tileid="113" duration="150" />
    <frame tileid="113" duration="150" />
    <frame tileid="113" duration="150" />
    <frame tileid="113" duration="150" />
    <frame tileid="113" duration="150" />
    <frame tileid="113" duration="150" />
    <frame tileid="113" duration="150" />
    <frame tileid="113" duration="150" />
    <frame tileid="113" duration="150" />
    <frame tileid="113" duration="150" />
   </animation>
  </tile>
  <tile id="114">
   <animation>
    <frame tileid="294" duration="150" />
    <frame tileid="474" duration="150" />
    <frame tileid="654" duration="150" />
    <frame tileid="834" duration="150" />
    <frame tileid="1014" duration="150" />
    <frame tileid="1194" duration="150" />
    <frame tileid="1374" duration="150" />
    <frame tileid="1554" duration="150" />
    <frame tileid="1734" duration="150" />
    <frame tileid="1914" duration="150" />
    <frame tileid="2094" duration="150" />
    <frame tileid="2274" duration="150" />
    <frame tileid="114" duration="150" />
    <frame tileid="114" duration="150" />
    <frame tileid="114" duration="150" />
    <frame tileid="114" duration="150" />
    <frame tileid="114" duration="150" />
    <frame tileid="114" duration="150" />
    <frame tileid="114" duration="150" />
    <frame tileid="114" duration="150" />
    <frame tileid="114" duration="150" />
    <frame tileid="114" duration="150" />
    <frame tileid="114" duration="150" />
    <frame tileid="114" duration="150" />
   </animation>
  </tile>
  <tile id="115">
   <animation>
    <frame tileid="295" duration="150" />
    <frame tileid="475" duration="150" />
    <frame tileid="655" duration="150" />
    <frame tileid="835" duration="150" />
    <frame tileid="1015" duration="150" />
    <frame tileid="1195" duration="150" />
    <frame tileid="1375" duration="150" />
    <frame tileid="1555" duration="150" />
    <frame tileid="1735" duration="150" />
    <frame tileid="1915" duration="150" />
    <frame tileid="2095" duration="150" />
    <frame tileid="2275" duration="150" />
    <frame tileid="115" duration="150" />
    <frame tileid="115" duration="150" />
    <frame tileid="115" duration="150" />
    <frame tileid="115" duration="150" />
    <frame tileid="115" duration="150" />
    <frame tileid="115" duration="150" />
    <frame tileid="115" duration="150" />
    <frame tileid="115" duration="150" />
    <frame tileid="115" duration="150" />
    <frame tileid="115" duration="150" />
    <frame tileid="115" duration="150" />
    <frame tileid="115" duration="150" />
   </animation>
  </tile>
  <tile id="116">
   <animation>
    <frame tileid="116" duration="150" />
    <frame tileid="116" duration="150" />
    <frame tileid="116" duration="150" />
    <frame tileid="116" duration="150" />
    <frame tileid="116" duration="150" />
    <frame tileid="116" duration="150" />
    <frame tileid="116" duration="150" />
    <frame tileid="116" duration="150" />
    <frame tileid="116" duration="150" />
    <frame tileid="296" duration="150" />
    <frame tileid="476" duration="150" />
    <frame tileid="656" duration="150" />
    <frame tileid="836" duration="150" />
    <frame tileid="1016" duration="150" />
    <frame tileid="1196" duration="150" />
    <frame tileid="1376" duration="150" />
    <frame tileid="1556" duration="150" />
    <frame tileid="1736" duration="150" />
    <frame tileid="1916" duration="150" />
    <frame tileid="2096" duration="150" />
    <frame tileid="2276" duration="150" />
    <frame tileid="116" duration="150" />
    <frame tileid="116" duration="150" />
    <frame tileid="116" duration="150" />
   </animation>
  </tile>
  <tile id="117">
   <animation>
    <frame tileid="117" duration="150" />
    <frame tileid="117" duration="150" />
    <frame tileid="117" duration="150" />
    <frame tileid="117" duration="150" />
    <frame tileid="117" duration="150" />
    <frame tileid="117" duration="150" />
    <frame tileid="117" duration="150" />
    <frame tileid="117" duration="150" />
    <frame tileid="117" duration="150" />
    <frame tileid="297" duration="150" />
    <frame tileid="477" duration="150" />
    <frame tileid="657" duration="150" />
    <frame tileid="837" duration="150" />
    <frame tileid="1017" duration="150" />
    <frame tileid="1197" duration="150" />
    <frame tileid="1377" duration="150" />
    <frame tileid="1557" duration="150" />
    <frame tileid="1737" duration="150" />
    <frame tileid="1917" duration="150" />
    <frame tileid="2097" duration="150" />
    <frame tileid="2277" duration="150" />
    <frame tileid="117" duration="150" />
    <frame tileid="117" duration="150" />
    <frame tileid="117" duration="150" />
   </animation>
  </tile>
  <tile id="118">
   <animation>
    <frame tileid="118" duration="150" />
    <frame tileid="118" duration="150" />
    <frame tileid="118" duration="150" />
    <frame tileid="118" duration="150" />
    <frame tileid="118" duration="150" />
    <frame tileid="118" duration="150" />
    <frame tileid="118" duration="150" />
    <frame tileid="118" duration="150" />
    <frame tileid="118" duration="150" />
    <frame tileid="298" duration="150" />
    <frame tileid="478" duration="150" />
    <frame tileid="658" duration="150" />
    <frame tileid="838" duration="150" />
    <frame tileid="1018" duration="150" />
    <frame tileid="1198" duration="150" />
    <frame tileid="1378" duration="150" />
    <frame tileid="1558" duration="150" />
    <frame tileid="1738" duration="150" />
    <frame tileid="1918" duration="150" />
    <frame tileid="2098" duration="150" />
    <frame tileid="2278" duration="150" />
    <frame tileid="118" duration="150" />
    <frame tileid="118" duration="150" />
    <frame tileid="118" duration="150" />
   </animation>
  </tile>
  <tile id="120">
   <animation>
    <frame tileid="120" duration="150" />
    <frame tileid="120" duration="150" />
    <frame tileid="120" duration="150" />
    <frame tileid="120" duration="150" />
    <frame tileid="300" duration="150" />
    <frame tileid="480" duration="150" />
    <frame tileid="660" duration="150" />
    <frame tileid="840" duration="150" />
    <frame tileid="1020" duration="150" />
    <frame tileid="1200" duration="150" />
    <frame tileid="1380" duration="150" />
    <frame tileid="1560" duration="150" />
    <frame tileid="1740" duration="150" />
    <frame tileid="1920" duration="150" />
    <frame tileid="2100" duration="150" />
    <frame tileid="2280" duration="150" />
    <frame tileid="120" duration="150" />
    <frame tileid="120" duration="150" />
    <frame tileid="120" duration="150" />
    <frame tileid="120" duration="150" />
    <frame tileid="120" duration="150" />
    <frame tileid="120" duration="150" />
    <frame tileid="120" duration="150" />
    <frame tileid="120" duration="150" />
   </animation>
  </tile>
  <tile id="121">
   <animation>
    <frame tileid="121" duration="150" />
    <frame tileid="121" duration="150" />
    <frame tileid="121" duration="150" />
    <frame tileid="121" duration="150" />
    <frame tileid="301" duration="150" />
    <frame tileid="481" duration="150" />
    <frame tileid="661" duration="150" />
    <frame tileid="841" duration="150" />
    <frame tileid="1021" duration="150" />
    <frame tileid="1201" duration="150" />
    <frame tileid="1381" duration="150" />
    <frame tileid="1561" duration="150" />
    <frame tileid="1741" duration="150" />
    <frame tileid="1921" duration="150" />
    <frame tileid="2101" duration="150" />
    <frame tileid="2281" duration="150" />
    <frame tileid="121" duration="150" />
    <frame tileid="121" duration="150" />
    <frame tileid="121" duration="150" />
    <frame tileid="121" duration="150" />
    <frame tileid="121" duration="150" />
    <frame tileid="121" duration="150" />
    <frame tileid="121" duration="150" />
    <frame tileid="121" duration="150" />
   </animation>
  </tile>
  <tile id="122">
   <animation>
    <frame tileid="122" duration="150" />
    <frame tileid="122" duration="150" />
    <frame tileid="122" duration="150" />
    <frame tileid="122" duration="150" />
    <frame tileid="302" duration="150" />
    <frame tileid="482" duration="150" />
    <frame tileid="662" duration="150" />
    <frame tileid="842" duration="150" />
    <frame tileid="1022" duration="150" />
    <frame tileid="1202" duration="150" />
    <frame tileid="1382" duration="150" />
    <frame tileid="1562" duration="150" />
    <frame tileid="1742" duration="150" />
    <frame tileid="1922" duration="150" />
    <frame tileid="2102" duration="150" />
    <frame tileid="2282" duration="150" />
    <frame tileid="122" duration="150" />
    <frame tileid="122" duration="150" />
    <frame tileid="122" duration="150" />
    <frame tileid="122" duration="150" />
    <frame tileid="122" duration="150" />
    <frame tileid="122" duration="150" />
    <frame tileid="122" duration="150" />
    <frame tileid="122" duration="150" />
   </animation>
  </tile>
  <tile id="123">
   <animation>
    <frame tileid="123" duration="150" />
    <frame tileid="123" duration="150" />
    <frame tileid="123" duration="150" />
    <frame tileid="123" duration="150" />
    <frame tileid="303" duration="150" />
    <frame tileid="483" duration="150" />
    <frame tileid="663" duration="150" />
    <frame tileid="843" duration="150" />
    <frame tileid="1023" duration="150" />
    <frame tileid="1203" duration="150" />
    <frame tileid="1383" duration="150" />
    <frame tileid="1563" duration="150" />
    <frame tileid="1743" duration="150" />
    <frame tileid="1923" duration="150" />
    <frame tileid="2103" duration="150" />
    <frame tileid="2283" duration="150" />
    <frame tileid="123" duration="150" />
    <frame tileid="123" duration="150" />
    <frame tileid="123" duration="150" />
    <frame tileid="123" duration="150" />
    <frame tileid="123" duration="150" />
    <frame tileid="123" duration="150" />
    <frame tileid="123" duration="150" />
    <frame tileid="123" duration="150" />
   </animation>
  </tile>
  <tile id="124">
   <animation>
    <frame tileid="124" duration="150" />
    <frame tileid="124" duration="150" />
    <frame tileid="124" duration="150" />
    <frame tileid="124" duration="150" />
    <frame tileid="124" duration="150" />
    <frame tileid="124" duration="150" />
    <frame tileid="124" duration="150" />
    <frame tileid="124" duration="150" />
    <frame tileid="124" duration="150" />
    <frame tileid="124" duration="150" />
    <frame tileid="304" duration="150" />
    <frame tileid="484" duration="150" />
    <frame tileid="664" duration="150" />
    <frame tileid="844" duration="150" />
    <frame tileid="1024" duration="150" />
    <frame tileid="1204" duration="150" />
    <frame tileid="1384" duration="150" />
    <frame tileid="1564" duration="150" />
    <frame tileid="1744" duration="150" />
    <frame tileid="1924" duration="150" />
    <frame tileid="2104" duration="150" />
    <frame tileid="2284" duration="150" />
    <frame tileid="124" duration="150" />
    <frame tileid="124" duration="150" />
   </animation>
  </tile>
  <tile id="125">
   <animation>
    <frame tileid="125" duration="150" />
    <frame tileid="125" duration="150" />
    <frame tileid="125" duration="150" />
    <frame tileid="125" duration="150" />
    <frame tileid="125" duration="150" />
    <frame tileid="125" duration="150" />
    <frame tileid="125" duration="150" />
    <frame tileid="125" duration="150" />
    <frame tileid="125" duration="150" />
    <frame tileid="125" duration="150" />
    <frame tileid="305" duration="150" />
    <frame tileid="485" duration="150" />
    <frame tileid="665" duration="150" />
    <frame tileid="845" duration="150" />
    <frame tileid="1025" duration="150" />
    <frame tileid="1205" duration="150" />
    <frame tileid="1385" duration="150" />
    <frame tileid="1565" duration="150" />
    <frame tileid="1745" duration="150" />
    <frame tileid="1925" duration="150" />
    <frame tileid="2105" duration="150" />
    <frame tileid="2285" duration="150" />
    <frame tileid="125" duration="150" />
    <frame tileid="125" duration="150" />
   </animation>
  </tile>
  <tile id="126">
   <animation>
    <frame tileid="126" duration="150" />
    <frame tileid="126" duration="150" />
    <frame tileid="126" duration="150" />
    <frame tileid="126" duration="150" />
    <frame tileid="126" duration="150" />
    <frame tileid="126" duration="150" />
    <frame tileid="126" duration="150" />
    <frame tileid="126" duration="150" />
    <frame tileid="126" duration="150" />
    <frame tileid="126" duration="150" />
    <frame tileid="306" duration="150" />
    <frame tileid="486" duration="150" />
    <frame tileid="666" duration="150" />
    <frame tileid="846" duration="150" />
    <frame tileid="1026" duration="150" />
    <frame tileid="1206" duration="150" />
    <frame tileid="1386" duration="150" />
    <frame tileid="1566" duration="150" />
    <frame tileid="1746" duration="150" />
    <frame tileid="1926" duration="150" />
    <frame tileid="2106" duration="150" />
    <frame tileid="2286" duration="150" />
    <frame tileid="126" duration="150" />
    <frame tileid="126" duration="150" />
   </animation>
  </tile>
  <tile id="127">
   <animation>
    <frame tileid="127" duration="150" />
    <frame tileid="127" duration="150" />
    <frame tileid="127" duration="150" />
    <frame tileid="127" duration="150" />
    <frame tileid="127" duration="150" />
    <frame tileid="127" duration="150" />
    <frame tileid="127" duration="150" />
    <frame tileid="127" duration="150" />
    <frame tileid="127" duration="150" />
    <frame tileid="127" duration="150" />
    <frame tileid="307" duration="150" />
    <frame tileid="487" duration="150" />
    <frame tileid="667" duration="150" />
    <frame tileid="847" duration="150" />
    <frame tileid="1027" duration="150" />
    <frame tileid="1207" duration="150" />
    <frame tileid="1387" duration="150" />
    <frame tileid="1567" duration="150" />
    <frame tileid="1747" duration="150" />
    <frame tileid="1927" duration="150" />
    <frame tileid="2107" duration="150" />
    <frame tileid="2287" duration="150" />
    <frame tileid="127" duration="150" />
    <frame tileid="127" duration="150" />
   </animation>
  </tile>
  <tile id="128">
   <animation>
    <frame tileid="2288" duration="150" />
    <frame tileid="128" duration="150" />
    <frame tileid="128" duration="150" />
    <frame tileid="128" duration="150" />
    <frame tileid="128" duration="150" />
    <frame tileid="128" duration="150" />
    <frame tileid="128" duration="150" />
    <frame tileid="308" duration="150" />
    <frame tileid="488" duration="150" />
    <frame tileid="668" duration="150" />
    <frame tileid="848" duration="150" />
    <frame tileid="1028" duration="150" />
    <frame tileid="1208" duration="150" />
    <frame tileid="1388" duration="150" />
    <frame tileid="1568" duration="150" />
    <frame tileid="1748" duration="150" />
    <frame tileid="1928" duration="150" />
    <frame tileid="2108" duration="150" />
    <frame tileid="128" duration="150" />
    <frame tileid="128" duration="150" />
    <frame tileid="128" duration="150" />
    <frame tileid="128" duration="150" />
    <frame tileid="128" duration="150" />
    <frame tileid="128" duration="150" />
   </animation>
  </tile>
  <tile id="129">
   <animation>
    <frame tileid="2289" duration="150" />
    <frame tileid="129" duration="150" />
    <frame tileid="129" duration="150" />
    <frame tileid="129" duration="150" />
    <frame tileid="129" duration="150" />
    <frame tileid="129" duration="150" />
    <frame tileid="129" duration="150" />
    <frame tileid="309" duration="150" />
    <frame tileid="489" duration="150" />
    <frame tileid="669" duration="150" />
    <frame tileid="849" duration="150" />
    <frame tileid="1029" duration="150" />
    <frame tileid="1209" duration="150" />
    <frame tileid="1389" duration="150" />
    <frame tileid="1569" duration="150" />
    <frame tileid="1749" duration="150" />
    <frame tileid="1929" duration="150" />
    <frame tileid="2109" duration="150" />
    <frame tileid="129" duration="150" />
    <frame tileid="129" duration="150" />
    <frame tileid="129" duration="150" />
    <frame tileid="129" duration="150" />
    <frame tileid="129" duration="150" />
    <frame tileid="129" duration="150" />
   </animation>
  </tile>
  <tile id="130">
   <animation>
    <frame tileid="130" duration="150" />
    <frame tileid="130" duration="150" />
    <frame tileid="310" duration="150" />
    <frame tileid="490" duration="150" />
    <frame tileid="670" duration="150" />
    <frame tileid="850" duration="150" />
    <frame tileid="1030" duration="150" />
    <frame tileid="1210" duration="150" />
    <frame tileid="1390" duration="150" />
    <frame tileid="1570" duration="150" />
    <frame tileid="1750" duration="150" />
    <frame tileid="1930" duration="150" />
    <frame tileid="2110" duration="150" />
    <frame tileid="2290" duration="150" />
    <frame tileid="130" duration="150" />
    <frame tileid="130" duration="150" />
    <frame tileid="130" duration="150" />
    <frame tileid="130" duration="150" />
    <frame tileid="130" duration="150" />
    <frame tileid="130" duration="150" />
    <frame tileid="130" duration="150" />
    <frame tileid="130" duration="150" />
    <frame tileid="130" duration="150" />
    <frame tileid="130" duration="150" />
   </animation>
  </tile>
  <tile id="131">
   <animation>
    <frame tileid="131" duration="150" />
    <frame tileid="131" duration="150" />
    <frame tileid="311" duration="150" />
    <frame tileid="491" duration="150" />
    <frame tileid="671" duration="150" />
    <frame tileid="851" duration="150" />
    <frame tileid="1031" duration="150" />
    <frame tileid="1211" duration="150" />
    <frame tileid="1391" duration="150" />
    <frame tileid="1571" duration="150" />
    <frame tileid="1751" duration="150" />
    <frame tileid="1931" duration="150" />
    <frame tileid="2111" duration="150" />
    <frame tileid="2291" duration="150" />
    <frame tileid="131" duration="150" />
    <frame tileid="131" duration="150" />
    <frame tileid="131" duration="150" />
    <frame tileid="131" duration="150" />
    <frame tileid="131" duration="150" />
    <frame tileid="131" duration="150" />
    <frame tileid="131" duration="150" />
    <frame tileid="131" duration="150" />
    <frame tileid="131" duration="150" />
    <frame tileid="131" duration="150" />
   </animation>
  </tile>
  <tile id="132">
   <animation>
    <frame tileid="132" duration="150" />
    <frame tileid="132" duration="150" />
    <frame tileid="312" duration="150" />
    <frame tileid="492" duration="150" />
    <frame tileid="672" duration="150" />
    <frame tileid="852" duration="150" />
    <frame tileid="1032" duration="150" />
    <frame tileid="1212" duration="150" />
    <frame tileid="1392" duration="150" />
    <frame tileid="1572" duration="150" />
    <frame tileid="1752" duration="150" />
    <frame tileid="1932" duration="150" />
    <frame tileid="2112" duration="150" />
    <frame tileid="2292" duration="150" />
    <frame tileid="132" duration="150" />
    <frame tileid="132" duration="150" />
    <frame tileid="132" duration="150" />
    <frame tileid="132" duration="150" />
    <frame tileid="132" duration="150" />
    <frame tileid="132" duration="150" />
    <frame tileid="132" duration="150" />
    <frame tileid="132" duration="150" />
    <frame tileid="132" duration="150" />
    <frame tileid="132" duration="150" />
   </animation>
  </tile>
  <tile id="133">
   <animation>
    <frame tileid="133" duration="150" />
    <frame tileid="133" duration="150" />
    <frame tileid="313" duration="150" />
    <frame tileid="493" duration="150" />
    <frame tileid="673" duration="150" />
    <frame tileid="853" duration="150" />
    <frame tileid="1033" duration="150" />
    <frame tileid="1213" duration="150" />
    <frame tileid="1393" duration="150" />
    <frame tileid="1573" duration="150" />
    <frame tileid="1753" duration="150" />
    <frame tileid="1933" duration="150" />
    <frame tileid="2113" duration="150" />
    <frame tileid="2293" duration="150" />
    <frame tileid="133" duration="150" />
    <frame tileid="133" duration="150" />
    <frame tileid="133" duration="150" />
    <frame tileid="133" duration="150" />
    <frame tileid="133" duration="150" />
    <frame tileid="133" duration="150" />
    <frame tileid="133" duration="150" />
    <frame tileid="133" duration="150" />
    <frame tileid="133" duration="150" />
    <frame tileid="133" duration="150" />
   </animation>
  </tile>
  <tile id="134">
   <animation>
    <frame tileid="134" duration="150" />
    <frame tileid="134" duration="150" />
    <frame tileid="314" duration="150" />
    <frame tileid="494" duration="150" />
    <frame tileid="674" duration="150" />
    <frame tileid="854" duration="150" />
    <frame tileid="1034" duration="150" />
    <frame tileid="1214" duration="150" />
    <frame tileid="1394" duration="150" />
    <frame tileid="1574" duration="150" />
    <frame tileid="1754" duration="150" />
    <frame tileid="1934" duration="150" />
    <frame tileid="2114" duration="150" />
    <frame tileid="2294" duration="150" />
    <frame tileid="134" duration="150" />
    <frame tileid="134" duration="150" />
    <frame tileid="134" duration="150" />
    <frame tileid="134" duration="150" />
    <frame tileid="134" duration="150" />
    <frame tileid="134" duration="150" />
    <frame tileid="134" duration="150" />
    <frame tileid="134" duration="150" />
    <frame tileid="134" duration="150" />
    <frame tileid="134" duration="150" />
   </animation>
  </tile>
  <tile id="135">
   <animation>
    <frame tileid="135" duration="150" />
    <frame tileid="135" duration="150" />
    <frame tileid="315" duration="150" />
    <frame tileid="495" duration="150" />
    <frame tileid="675" duration="150" />
    <frame tileid="855" duration="150" />
    <frame tileid="1035" duration="150" />
    <frame tileid="1215" duration="150" />
    <frame tileid="1395" duration="150" />
    <frame tileid="1575" duration="150" />
    <frame tileid="1755" duration="150" />
    <frame tileid="1935" duration="150" />
    <frame tileid="2115" duration="150" />
    <frame tileid="2295" duration="150" />
    <frame tileid="135" duration="150" />
    <frame tileid="135" duration="150" />
    <frame tileid="135" duration="150" />
    <frame tileid="135" duration="150" />
    <frame tileid="135" duration="150" />
    <frame tileid="135" duration="150" />
    <frame tileid="135" duration="150" />
    <frame tileid="135" duration="150" />
    <frame tileid="135" duration="150" />
    <frame tileid="135" duration="150" />
   </animation>
  </tile>
  <tile id="136">
   <animation>
    <frame tileid="136" duration="150" />
    <frame tileid="136" duration="150" />
    <frame tileid="136" duration="150" />
    <frame tileid="136" duration="150" />
    <frame tileid="136" duration="150" />
    <frame tileid="136" duration="150" />
    <frame tileid="136" duration="150" />
    <frame tileid="316" duration="150" />
    <frame tileid="496" duration="150" />
    <frame tileid="676" duration="150" />
    <frame tileid="856" duration="150" />
    <frame tileid="1036" duration="150" />
    <frame tileid="1216" duration="150" />
    <frame tileid="1396" duration="150" />
    <frame tileid="1576" duration="150" />
    <frame tileid="1756" duration="150" />
    <frame tileid="1936" duration="150" />
    <frame tileid="2116" duration="150" />
    <frame tileid="2296" duration="150" />
    <frame tileid="136" duration="150" />
    <frame tileid="136" duration="150" />
    <frame tileid="136" duration="150" />
    <frame tileid="136" duration="150" />
    <frame tileid="136" duration="150" />
   </animation>
  </tile>
  <tile id="137">
   <animation>
    <frame tileid="137" duration="150" />
    <frame tileid="137" duration="150" />
    <frame tileid="137" duration="150" />
    <frame tileid="137" duration="150" />
    <frame tileid="137" duration="150" />
    <frame tileid="137" duration="150" />
    <frame tileid="137" duration="150" />
    <frame tileid="317" duration="150" />
    <frame tileid="497" duration="150" />
    <frame tileid="677" duration="150" />
    <frame tileid="857" duration="150" />
    <frame tileid="1037" duration="150" />
    <frame tileid="1217" duration="150" />
    <frame tileid="1397" duration="150" />
    <frame tileid="1577" duration="150" />
    <frame tileid="1757" duration="150" />
    <frame tileid="1937" duration="150" />
    <frame tileid="2117" duration="150" />
    <frame tileid="2297" duration="150" />
    <frame tileid="137" duration="150" />
    <frame tileid="137" duration="150" />
    <frame tileid="137" duration="150" />
    <frame tileid="137" duration="150" />
    <frame tileid="137" duration="150" />
   </animation>
  </tile>
  <tile id="138">
   <animation>
    <frame tileid="138" duration="150" />
    <frame tileid="138" duration="150" />
    <frame tileid="138" duration="150" />
    <frame tileid="138" duration="150" />
    <frame tileid="138" duration="150" />
    <frame tileid="138" duration="150" />
    <frame tileid="138" duration="150" />
    <frame tileid="318" duration="150" />
    <frame tileid="498" duration="150" />
    <frame tileid="678" duration="150" />
    <frame tileid="858" duration="150" />
    <frame tileid="1038" duration="150" />
    <frame tileid="1218" duration="150" />
    <frame tileid="1398" duration="150" />
    <frame tileid="1578" duration="150" />
    <frame tileid="1758" duration="150" />
    <frame tileid="1938" duration="150" />
    <frame tileid="2118" duration="150" />
    <frame tileid="2298" duration="150" />
    <frame tileid="138" duration="150" />
    <frame tileid="138" duration="150" />
    <frame tileid="138" duration="150" />
    <frame tileid="138" duration="150" />
    <frame tileid="138" duration="150" />
   </animation>
  </tile>
  <tile id="139">
   <animation>
    <frame tileid="139" duration="150" />
    <frame tileid="139" duration="150" />
    <frame tileid="139" duration="150" />
    <frame tileid="139" duration="150" />
    <frame tileid="139" duration="150" />
    <frame tileid="139" duration="150" />
    <frame tileid="139" duration="150" />
    <frame tileid="319" duration="150" />
    <frame tileid="499" duration="150" />
    <frame tileid="679" duration="150" />
    <frame tileid="859" duration="150" />
    <frame tileid="1039" duration="150" />
    <frame tileid="1219" duration="150" />
    <frame tileid="1399" duration="150" />
    <frame tileid="1579" duration="150" />
    <frame tileid="1759" duration="150" />
    <frame tileid="1939" duration="150" />
    <frame tileid="2119" duration="150" />
    <frame tileid="2299" duration="150" />
    <frame tileid="139" duration="150" />
    <frame tileid="139" duration="150" />
    <frame tileid="139" duration="150" />
    <frame tileid="139" duration="150" />
    <frame tileid="139" duration="150" />
   </animation>
  </tile>
  <tile id="140">
   <animation>
    <frame tileid="140" duration="150" />
    <frame tileid="140" duration="150" />
    <frame tileid="140" duration="150" />
    <frame tileid="140" duration="150" />
    <frame tileid="140" duration="150" />
    <frame tileid="140" duration="150" />
    <frame tileid="140" duration="150" />
    <frame tileid="140" duration="150" />
    <frame tileid="320" duration="150" />
    <frame tileid="500" duration="150" />
    <frame tileid="680" duration="150" />
    <frame tileid="860" duration="150" />
    <frame tileid="1040" duration="150" />
    <frame tileid="1220" duration="150" />
    <frame tileid="1400" duration="150" />
    <frame tileid="1580" duration="150" />
    <frame tileid="1760" duration="150" />
    <frame tileid="1940" duration="150" />
    <frame tileid="2120" duration="150" />
    <frame tileid="2300" duration="150" />
    <frame tileid="140" duration="150" />
    <frame tileid="140" duration="150" />
    <frame tileid="140" duration="150" />
    <frame tileid="140" duration="150" />
   </animation>
  </tile>
  <tile id="141">
   <animation>
    <frame tileid="141" duration="150" />
    <frame tileid="141" duration="150" />
    <frame tileid="141" duration="150" />
    <frame tileid="141" duration="150" />
    <frame tileid="141" duration="150" />
    <frame tileid="141" duration="150" />
    <frame tileid="141" duration="150" />
    <frame tileid="141" duration="150" />
    <frame tileid="321" duration="150" />
    <frame tileid="501" duration="150" />
    <frame tileid="681" duration="150" />
    <frame tileid="861" duration="150" />
    <frame tileid="1041" duration="150" />
    <frame tileid="1221" duration="150" />
    <frame tileid="1401" duration="150" />
    <frame tileid="1581" duration="150" />
    <frame tileid="1761" duration="150" />
    <frame tileid="1941" duration="150" />
    <frame tileid="2121" duration="150" />
    <frame tileid="2301" duration="150" />
    <frame tileid="141" duration="150" />
    <frame tileid="141" duration="150" />
    <frame tileid="141" duration="150" />
    <frame tileid="141" duration="150" />
   </animation>
  </tile>
  <tile id="142">
   <animation>
    <frame tileid="142" duration="150" />
    <frame tileid="142" duration="150" />
    <frame tileid="142" duration="150" />
    <frame tileid="142" duration="150" />
    <frame tileid="142" duration="150" />
    <frame tileid="142" duration="150" />
    <frame tileid="142" duration="150" />
    <frame tileid="142" duration="150" />
    <frame tileid="322" duration="150" />
    <frame tileid="502" duration="150" />
    <frame tileid="682" duration="150" />
    <frame tileid="862" duration="150" />
    <frame tileid="1042" duration="150" />
    <frame tileid="1222" duration="150" />
    <frame tileid="1402" duration="150" />
    <frame tileid="1582" duration="150" />
    <frame tileid="1762" duration="150" />
    <frame tileid="1942" duration="150" />
    <frame tileid="2122" duration="150" />
    <frame tileid="2302" duration="150" />
    <frame tileid="142" duration="150" />
    <frame tileid="142" duration="150" />
    <frame tileid="142" duration="150" />
    <frame tileid="142" duration="150" />
   </animation>
  </tile>
  <tile id="143">
   <animation>
    <frame tileid="143" duration="150" />
    <frame tileid="143" duration="150" />
    <frame tileid="143" duration="150" />
    <frame tileid="143" duration="150" />
    <frame tileid="143" duration="150" />
    <frame tileid="143" duration="150" />
    <frame tileid="143" duration="150" />
    <frame tileid="143" duration="150" />
    <frame tileid="323" duration="150" />
    <frame tileid="503" duration="150" />
    <frame tileid="683" duration="150" />
    <frame tileid="863" duration="150" />
    <frame tileid="1043" duration="150" />
    <frame tileid="1223" duration="150" />
    <frame tileid="1403" duration="150" />
    <frame tileid="1583" duration="150" />
    <frame tileid="1763" duration="150" />
    <frame tileid="1943" duration="150" />
    <frame tileid="2123" duration="150" />
    <frame tileid="2303" duration="150" />
    <frame tileid="143" duration="150" />
    <frame tileid="143" duration="150" />
    <frame tileid="143" duration="150" />
    <frame tileid="143" duration="150" />
   </animation>
  </tile>
  <tile id="144">
   <animation>
    <frame tileid="144" duration="150" />
    <frame tileid="144" duration="150" />
    <frame tileid="144" duration="150" />
    <frame tileid="144" duration="150" />
    <frame tileid="144" duration="150" />
    <frame tileid="144" duration="150" />
    <frame tileid="144" duration="150" />
    <frame tileid="144" duration="150" />
    <frame tileid="144" duration="150" />
    <frame tileid="144" duration="150" />
    <frame tileid="144" duration="150" />
    <frame tileid="144" duration="150" />
    <frame tileid="324" duration="150" />
    <frame tileid="504" duration="150" />
    <frame tileid="684" duration="150" />
    <frame tileid="864" duration="150" />
    <frame tileid="1044" duration="150" />
    <frame tileid="1224" duration="150" />
    <frame tileid="1404" duration="150" />
    <frame tileid="1584" duration="150" />
    <frame tileid="1764" duration="150" />
    <frame tileid="1944" duration="150" />
    <frame tileid="2124" duration="150" />
    <frame tileid="2304" duration="150" />
   </animation>
  </tile>
  <tile id="145">
   <animation>
    <frame tileid="145" duration="150" />
    <frame tileid="145" duration="150" />
    <frame tileid="145" duration="150" />
    <frame tileid="145" duration="150" />
    <frame tileid="145" duration="150" />
    <frame tileid="145" duration="150" />
    <frame tileid="145" duration="150" />
    <frame tileid="145" duration="150" />
    <frame tileid="145" duration="150" />
    <frame tileid="145" duration="150" />
    <frame tileid="145" duration="150" />
    <frame tileid="145" duration="150" />
    <frame tileid="325" duration="150" />
    <frame tileid="505" duration="150" />
    <frame tileid="685" duration="150" />
    <frame tileid="865" duration="150" />
    <frame tileid="1045" duration="150" />
    <frame tileid="1225" duration="150" />
    <frame tileid="1405" duration="150" />
    <frame tileid="1585" duration="150" />
    <frame tileid="1765" duration="150" />
    <frame tileid="1945" duration="150" />
    <frame tileid="2125" duration="150" />
    <frame tileid="2305" duration="150" />
   </animation>
  </tile>
  <tile id="146">
   <animation>
    <frame tileid="146" duration="150" />
    <frame tileid="146" duration="150" />
    <frame tileid="146" duration="150" />
    <frame tileid="146" duration="150" />
    <frame tileid="146" duration="150" />
    <frame tileid="146" duration="150" />
    <frame tileid="146" duration="150" />
    <frame tileid="146" duration="150" />
    <frame tileid="146" duration="150" />
    <frame tileid="146" duration="150" />
    <frame tileid="146" duration="150" />
    <frame tileid="146" duration="150" />
    <frame tileid="326" duration="150" />
    <frame tileid="506" duration="150" />
    <frame tileid="686" duration="150" />
    <frame tileid="866" duration="150" />
    <frame tileid="1046" duration="150" />
    <frame tileid="1226" duration="150" />
    <frame tileid="1406" duration="150" />
    <frame tileid="1586" duration="150" />
    <frame tileid="1766" duration="150" />
    <frame tileid="1946" duration="150" />
    <frame tileid="2126" duration="150" />
    <frame tileid="2306" duration="150" />
   </animation>
  </tile>
  <tile id="147">
   <animation>
    <frame tileid="147" duration="150" />
    <frame tileid="147" duration="150" />
    <frame tileid="147" duration="150" />
    <frame tileid="147" duration="150" />
    <frame tileid="147" duration="150" />
    <frame tileid="147" duration="150" />
    <frame tileid="147" duration="150" />
    <frame tileid="147" duration="150" />
    <frame tileid="147" duration="150" />
    <frame tileid="147" duration="150" />
    <frame tileid="147" duration="150" />
    <frame tileid="147" duration="150" />
    <frame tileid="327" duration="150" />
    <frame tileid="507" duration="150" />
    <frame tileid="687" duration="150" />
    <frame tileid="867" duration="150" />
    <frame tileid="1047" duration="150" />
    <frame tileid="1227" duration="150" />
    <frame tileid="1407" duration="150" />
    <frame tileid="1587" duration="150" />
    <frame tileid="1767" duration="150" />
    <frame tileid="1947" duration="150" />
    <frame tileid="2127" duration="150" />
    <frame tileid="2307" duration="150" />
   </animation>
  </tile>
  <tile id="148">
   <animation>
    <frame tileid="328" duration="150" />
    <frame tileid="508" duration="150" />
    <frame tileid="688" duration="150" />
    <frame tileid="868" duration="150" />
    <frame tileid="1048" duration="150" />
    <frame tileid="1228" duration="150" />
    <frame tileid="1408" duration="150" />
    <frame tileid="1588" duration="150" />
    <frame tileid="1768" duration="150" />
    <frame tileid="1948" duration="150" />
    <frame tileid="2128" duration="150" />
    <frame tileid="2308" duration="150" />
    <frame tileid="148" duration="150" />
    <frame tileid="148" duration="150" />
    <frame tileid="148" duration="150" />
    <frame tileid="148" duration="150" />
    <frame tileid="148" duration="150" />
    <frame tileid="148" duration="150" />
    <frame tileid="148" duration="150" />
    <frame tileid="148" duration="150" />
    <frame tileid="148" duration="150" />
    <frame tileid="148" duration="150" />
    <frame tileid="148" duration="150" />
    <frame tileid="148" duration="150" />
   </animation>
  </tile>
  <tile id="149">
   <animation>
    <frame tileid="329" duration="150" />
    <frame tileid="509" duration="150" />
    <frame tileid="689" duration="150" />
    <frame tileid="869" duration="150" />
    <frame tileid="1049" duration="150" />
    <frame tileid="1229" duration="150" />
    <frame tileid="1409" duration="150" />
    <frame tileid="1589" duration="150" />
    <frame tileid="1769" duration="150" />
    <frame tileid="1949" duration="150" />
    <frame tileid="2129" duration="150" />
    <frame tileid="2309" duration="150" />
    <frame tileid="149" duration="150" />
    <frame tileid="149" duration="150" />
    <frame tileid="149" duration="150" />
    <frame tileid="149" duration="150" />
    <frame tileid="149" duration="150" />
    <frame tileid="149" duration="150" />
    <frame tileid="149" duration="150" />
    <frame tileid="149" duration="150" />
    <frame tileid="149" duration="150" />
    <frame tileid="149" duration="150" />
    <frame tileid="149" duration="150" />
    <frame tileid="149" duration="150" />
   </animation>
  </tile>
  <tile id="150">
   <animation>
    <frame tileid="330" duration="150" />
    <frame tileid="510" duration="150" />
    <frame tileid="690" duration="150" />
    <frame tileid="870" duration="150" />
    <frame tileid="1050" duration="150" />
    <frame tileid="1230" duration="150" />
    <frame tileid="1410" duration="150" />
    <frame tileid="1590" duration="150" />
    <frame tileid="1770" duration="150" />
    <frame tileid="1950" duration="150" />
    <frame tileid="2130" duration="150" />
    <frame tileid="2310" duration="150" />
    <frame tileid="150" duration="150" />
    <frame tileid="150" duration="150" />
    <frame tileid="150" duration="150" />
    <frame tileid="150" duration="150" />
    <frame tileid="150" duration="150" />
    <frame tileid="150" duration="150" />
    <frame tileid="150" duration="150" />
    <frame tileid="150" duration="150" />
    <frame tileid="150" duration="150" />
    <frame tileid="150" duration="150" />
    <frame tileid="150" duration="150" />
    <frame tileid="150" duration="150" />
   </animation>
  </tile>
  <tile id="151">
   <animation>
    <frame tileid="331" duration="150" />
    <frame tileid="511" duration="150" />
    <frame tileid="691" duration="150" />
    <frame tileid="871" duration="150" />
    <frame tileid="1051" duration="150" />
    <frame tileid="1231" duration="150" />
    <frame tileid="1411" duration="150" />
    <frame tileid="1591" duration="150" />
    <frame tileid="1771" duration="150" />
    <frame tileid="1951" duration="150" />
    <frame tileid="2131" duration="150" />
    <frame tileid="2311" duration="150" />
    <frame tileid="151" duration="150" />
    <frame tileid="151" duration="150" />
    <frame tileid="151" duration="150" />
    <frame tileid="151" duration="150" />
    <frame tileid="151" duration="150" />
    <frame tileid="151" duration="150" />
    <frame tileid="151" duration="150" />
    <frame tileid="151" duration="150" />
    <frame tileid="151" duration="150" />
    <frame tileid="151" duration="150" />
    <frame tileid="151" duration="150" />
    <frame tileid="151" duration="150" />
   </animation>
  </tile>
  <tile id="152">
   <animation>
    <frame tileid="152" duration="150" />
    <frame tileid="152" duration="150" />
    <frame tileid="152" duration="150" />
    <frame tileid="152" duration="150" />
    <frame tileid="152" duration="150" />
    <frame tileid="152" duration="150" />
    <frame tileid="152" duration="150" />
    <frame tileid="152" duration="150" />
    <frame tileid="152" duration="150" />
    <frame tileid="332" duration="150" />
    <frame tileid="512" duration="150" />
    <frame tileid="692" duration="150" />
    <frame tileid="872" duration="150" />
    <frame tileid="1052" duration="150" />
    <frame tileid="1232" duration="150" />
    <frame tileid="1412" duration="150" />
    <frame tileid="1592" duration="150" />
    <frame tileid="1772" duration="150" />
    <frame tileid="1952" duration="150" />
    <frame tileid="2132" duration="150" />
    <frame tileid="2312" duration="150" />
    <frame tileid="152" duration="150" />
    <frame tileid="152" duration="150" />
    <frame tileid="152" duration="150" />
   </animation>
  </tile>
  <tile id="153">
   <animation>
    <frame tileid="153" duration="150" />
    <frame tileid="153" duration="150" />
    <frame tileid="153" duration="150" />
    <frame tileid="153" duration="150" />
    <frame tileid="153" duration="150" />
    <frame tileid="153" duration="150" />
    <frame tileid="153" duration="150" />
    <frame tileid="153" duration="150" />
    <frame tileid="153" duration="150" />
    <frame tileid="333" duration="150" />
    <frame tileid="513" duration="150" />
    <frame tileid="693" duration="150" />
    <frame tileid="873" duration="150" />
    <frame tileid="1053" duration="150" />
    <frame tileid="1233" duration="150" />
    <frame tileid="1413" duration="150" />
    <frame tileid="1593" duration="150" />
    <frame tileid="1773" duration="150" />
    <frame tileid="1953" duration="150" />
    <frame tileid="2133" duration="150" />
    <frame tileid="2313" duration="150" />
    <frame tileid="153" duration="150" />
    <frame tileid="153" duration="150" />
    <frame tileid="153" duration="150" />
   </animation>
  </tile>
  <tile id="154">
   <animation>
    <frame tileid="154" duration="150" />
    <frame tileid="154" duration="150" />
    <frame tileid="154" duration="150" />
    <frame tileid="154" duration="150" />
    <frame tileid="154" duration="150" />
    <frame tileid="154" duration="150" />
    <frame tileid="154" duration="150" />
    <frame tileid="154" duration="150" />
    <frame tileid="154" duration="150" />
    <frame tileid="334" duration="150" />
    <frame tileid="514" duration="150" />
    <frame tileid="694" duration="150" />
    <frame tileid="874" duration="150" />
    <frame tileid="1054" duration="150" />
    <frame tileid="1234" duration="150" />
    <frame tileid="1414" duration="150" />
    <frame tileid="1594" duration="150" />
    <frame tileid="1774" duration="150" />
    <frame tileid="1954" duration="150" />
    <frame tileid="2134" duration="150" />
    <frame tileid="2314" duration="150" />
    <frame tileid="154" duration="150" />
    <frame tileid="154" duration="150" />
    <frame tileid="154" duration="150" />
   </animation>
  </tile>
  <tile id="156">
   <animation>
    <frame tileid="156" duration="150" />
    <frame tileid="156" duration="150" />
    <frame tileid="156" duration="150" />
    <frame tileid="156" duration="150" />
    <frame tileid="336" duration="150" />
    <frame tileid="516" duration="150" />
    <frame tileid="696" duration="150" />
    <frame tileid="876" duration="150" />
    <frame tileid="1056" duration="150" />
    <frame tileid="1236" duration="150" />
    <frame tileid="1416" duration="150" />
    <frame tileid="1596" duration="150" />
    <frame tileid="1776" duration="150" />
    <frame tileid="1956" duration="150" />
    <frame tileid="2136" duration="150" />
    <frame tileid="2316" duration="150" />
    <frame tileid="156" duration="150" />
    <frame tileid="156" duration="150" />
    <frame tileid="156" duration="150" />
    <frame tileid="156" duration="150" />
    <frame tileid="156" duration="150" />
    <frame tileid="156" duration="150" />
    <frame tileid="156" duration="150" />
    <frame tileid="156" duration="150" />
   </animation>
  </tile>
  <tile id="157">
   <animation>
    <frame tileid="157" duration="150" />
    <frame tileid="157" duration="150" />
    <frame tileid="157" duration="150" />
    <frame tileid="157" duration="150" />
    <frame tileid="337" duration="150" />
    <frame tileid="517" duration="150" />
    <frame tileid="697" duration="150" />
    <frame tileid="877" duration="150" />
    <frame tileid="1057" duration="150" />
    <frame tileid="1237" duration="150" />
    <frame tileid="1417" duration="150" />
    <frame tileid="1597" duration="150" />
    <frame tileid="1777" duration="150" />
    <frame tileid="1957" duration="150" />
    <frame tileid="2137" duration="150" />
    <frame tileid="2317" duration="150" />
    <frame tileid="157" duration="150" />
    <frame tileid="157" duration="150" />
    <frame tileid="157" duration="150" />
    <frame tileid="157" duration="150" />
    <frame tileid="157" duration="150" />
    <frame tileid="157" duration="150" />
    <frame tileid="157" duration="150" />
    <frame tileid="157" duration="150" />
   </animation>
  </tile>
  <tile id="158">
   <animation>
    <frame tileid="158" duration="150" />
    <frame tileid="158" duration="150" />
    <frame tileid="158" duration="150" />
    <frame tileid="158" duration="150" />
    <frame tileid="338" duration="150" />
    <frame tileid="518" duration="150" />
    <frame tileid="698" duration="150" />
    <frame tileid="878" duration="150" />
    <frame tileid="1058" duration="150" />
    <frame tileid="1238" duration="150" />
    <frame tileid="1418" duration="150" />
    <frame tileid="1598" duration="150" />
    <frame tileid="1778" duration="150" />
    <frame tileid="1958" duration="150" />
    <frame tileid="2138" duration="150" />
    <frame tileid="2318" duration="150" />
    <frame tileid="158" duration="150" />
    <frame tileid="158" duration="150" />
    <frame tileid="158" duration="150" />
    <frame tileid="158" duration="150" />
    <frame tileid="158" duration="150" />
    <frame tileid="158" duration="150" />
    <frame tileid="158" duration="150" />
    <frame tileid="158" duration="150" />
   </animation>
  </tile>
  <tile id="159">
   <animation>
    <frame tileid="159" duration="150" />
    <frame tileid="159" duration="150" />
    <frame tileid="159" duration="150" />
    <frame tileid="159" duration="150" />
    <frame tileid="339" duration="150" />
    <frame tileid="519" duration="150" />
    <frame tileid="699" duration="150" />
    <frame tileid="879" duration="150" />
    <frame tileid="1059" duration="150" />
    <frame tileid="1239" duration="150" />
    <frame tileid="1419" duration="150" />
    <frame tileid="1599" duration="150" />
    <frame tileid="1779" duration="150" />
    <frame tileid="1959" duration="150" />
    <frame tileid="2139" duration="150" />
    <frame tileid="2319" duration="150" />
    <frame tileid="159" duration="150" />
    <frame tileid="159" duration="150" />
    <frame tileid="159" duration="150" />
    <frame tileid="159" duration="150" />
    <frame tileid="159" duration="150" />
    <frame tileid="159" duration="150" />
    <frame tileid="159" duration="150" />
    <frame tileid="159" duration="150" />
   </animation>
  </tile>
  <tile id="160">
   <animation>
    <frame tileid="160" duration="150" />
    <frame tileid="160" duration="150" />
    <frame tileid="160" duration="150" />
    <frame tileid="160" duration="150" />
    <frame tileid="160" duration="150" />
    <frame tileid="160" duration="150" />
    <frame tileid="160" duration="150" />
    <frame tileid="160" duration="150" />
    <frame tileid="160" duration="150" />
    <frame tileid="160" duration="150" />
    <frame tileid="340" duration="150" />
    <frame tileid="520" duration="150" />
    <frame tileid="700" duration="150" />
    <frame tileid="880" duration="150" />
    <frame tileid="1060" duration="150" />
    <frame tileid="1240" duration="150" />
    <frame tileid="1420" duration="150" />
    <frame tileid="1600" duration="150" />
    <frame tileid="1780" duration="150" />
    <frame tileid="1960" duration="150" />
    <frame tileid="2140" duration="150" />
    <frame tileid="2320" duration="150" />
    <frame tileid="160" duration="150" />
    <frame tileid="160" duration="150" />
   </animation>
  </tile>
  <tile id="161">
   <animation>
    <frame tileid="161" duration="150" />
    <frame tileid="161" duration="150" />
    <frame tileid="161" duration="150" />
    <frame tileid="161" duration="150" />
    <frame tileid="161" duration="150" />
    <frame tileid="161" duration="150" />
    <frame tileid="161" duration="150" />
    <frame tileid="161" duration="150" />
    <frame tileid="161" duration="150" />
    <frame tileid="161" duration="150" />
    <frame tileid="341" duration="150" />
    <frame tileid="521" duration="150" />
    <frame tileid="701" duration="150" />
    <frame tileid="881" duration="150" />
    <frame tileid="1061" duration="150" />
    <frame tileid="1241" duration="150" />
    <frame tileid="1421" duration="150" />
    <frame tileid="1601" duration="150" />
    <frame tileid="1781" duration="150" />
    <frame tileid="1961" duration="150" />
    <frame tileid="2141" duration="150" />
    <frame tileid="2321" duration="150" />
    <frame tileid="161" duration="150" />
    <frame tileid="161" duration="150" />
   </animation>
  </tile>
  <tile id="162">
   <animation>
    <frame tileid="162" duration="150" />
    <frame tileid="162" duration="150" />
    <frame tileid="162" duration="150" />
    <frame tileid="162" duration="150" />
    <frame tileid="162" duration="150" />
    <frame tileid="162" duration="150" />
    <frame tileid="162" duration="150" />
    <frame tileid="162" duration="150" />
    <frame tileid="162" duration="150" />
    <frame tileid="162" duration="150" />
    <frame tileid="342" duration="150" />
    <frame tileid="522" duration="150" />
    <frame tileid="702" duration="150" />
    <frame tileid="882" duration="150" />
    <frame tileid="1062" duration="150" />
    <frame tileid="1242" duration="150" />
    <frame tileid="1422" duration="150" />
    <frame tileid="1602" duration="150" />
    <frame tileid="1782" duration="150" />
    <frame tileid="1962" duration="150" />
    <frame tileid="2142" duration="150" />
    <frame tileid="2322" duration="150" />
    <frame tileid="162" duration="150" />
    <frame tileid="162" duration="150" />
   </animation>
  </tile>
  <tile id="163">
   <animation>
    <frame tileid="163" duration="150" />
    <frame tileid="163" duration="150" />
    <frame tileid="163" duration="150" />
    <frame tileid="163" duration="150" />
    <frame tileid="163" duration="150" />
    <frame tileid="163" duration="150" />
    <frame tileid="163" duration="150" />
    <frame tileid="163" duration="150" />
    <frame tileid="163" duration="150" />
    <frame tileid="163" duration="150" />
    <frame tileid="343" duration="150" />
    <frame tileid="523" duration="150" />
    <frame tileid="703" duration="150" />
    <frame tileid="883" duration="150" />
    <frame tileid="1063" duration="150" />
    <frame tileid="1243" duration="150" />
    <frame tileid="1423" duration="150" />
    <frame tileid="1603" duration="150" />
    <frame tileid="1783" duration="150" />
    <frame tileid="1963" duration="150" />
    <frame tileid="2143" duration="150" />
    <frame tileid="2323" duration="150" />
    <frame tileid="163" duration="150" />
    <frame tileid="163" duration="150" />
   </animation>
  </tile>
  <tile id="164">
   <animation>
    <frame tileid="2324" duration="150" />
    <frame tileid="164" duration="150" />
    <frame tileid="164" duration="150" />
    <frame tileid="164" duration="150" />
    <frame tileid="164" duration="150" />
    <frame tileid="164" duration="150" />
    <frame tileid="164" duration="150" />
    <frame tileid="344" duration="150" />
    <frame tileid="524" duration="150" />
    <frame tileid="704" duration="150" />
    <frame tileid="884" duration="150" />
    <frame tileid="1064" duration="150" />
    <frame tileid="1244" duration="150" />
    <frame tileid="1424" duration="150" />
    <frame tileid="1604" duration="150" />
    <frame tileid="1784" duration="150" />
    <frame tileid="1964" duration="150" />
    <frame tileid="2144" duration="150" />
    <frame tileid="164" duration="150" />
    <frame tileid="164" duration="150" />
    <frame tileid="164" duration="150" />
    <frame tileid="164" duration="150" />
    <frame tileid="164" duration="150" />
    <frame tileid="164" duration="150" />
   </animation>
  </tile>
  <tile id="165">
   <animation>
    <frame tileid="2325" duration="150" />
    <frame tileid="165" duration="150" />
    <frame tileid="165" duration="150" />
    <frame tileid="165" duration="150" />
    <frame tileid="165" duration="150" />
    <frame tileid="165" duration="150" />
    <frame tileid="165" duration="150" />
    <frame tileid="345" duration="150" />
    <frame tileid="525" duration="150" />
    <frame tileid="705" duration="150" />
    <frame tileid="885" duration="150" />
    <frame tileid="1065" duration="150" />
    <frame tileid="1245" duration="150" />
    <frame tileid="1425" duration="150" />
    <frame tileid="1605" duration="150" />
    <frame tileid="1785" duration="150" />
    <frame tileid="1965" duration="150" />
    <frame tileid="2145" duration="150" />
    <frame tileid="165" duration="150" />
    <frame tileid="165" duration="150" />
    <frame tileid="165" duration="150" />
    <frame tileid="165" duration="150" />
    <frame tileid="165" duration="150" />
    <frame tileid="165" duration="150" />
   </animation>
  </tile>
  <tile id="166">
   <animation>
    <frame tileid="166" duration="150" />
    <frame tileid="166" duration="150" />
    <frame tileid="346" duration="150" />
    <frame tileid="526" duration="150" />
    <frame tileid="706" duration="150" />
    <frame tileid="886" duration="150" />
    <frame tileid="1066" duration="150" />
    <frame tileid="1246" duration="150" />
    <frame tileid="1426" duration="150" />
    <frame tileid="1606" duration="150" />
    <frame tileid="1786" duration="150" />
    <frame tileid="1966" duration="150" />
    <frame tileid="2146" duration="150" />
    <frame tileid="2326" duration="150" />
    <frame tileid="166" duration="150" />
    <frame tileid="166" duration="150" />
    <frame tileid="166" duration="150" />
    <frame tileid="166" duration="150" />
    <frame tileid="166" duration="150" />
    <frame tileid="166" duration="150" />
    <frame tileid="166" duration="150" />
    <frame tileid="166" duration="150" />
    <frame tileid="166" duration="150" />
    <frame tileid="166" duration="150" />
   </animation>
  </tile>
  <tile id="167">
   <animation>
    <frame tileid="167" duration="150" />
    <frame tileid="167" duration="150" />
    <frame tileid="347" duration="150" />
    <frame tileid="527" duration="150" />
    <frame tileid="707" duration="150" />
    <frame tileid="887" duration="150" />
    <frame tileid="1067" duration="150" />
    <frame tileid="1247" duration="150" />
    <frame tileid="1427" duration="150" />
    <frame tileid="1607" duration="150" />
    <frame tileid="1787" duration="150" />
    <frame tileid="1967" duration="150" />
    <frame tileid="2147" duration="150" />
    <frame tileid="2327" duration="150" />
    <frame tileid="167" duration="150" />
    <frame tileid="167" duration="150" />
    <frame tileid="167" duration="150" />
    <frame tileid="167" duration="150" />
    <frame tileid="167" duration="150" />
    <frame tileid="167" duration="150" />
    <frame tileid="167" duration="150" />
    <frame tileid="167" duration="150" />
    <frame tileid="167" duration="150" />
    <frame tileid="167" duration="150" />
   </animation>
  </tile>
  <tile id="168">
   <animation>
    <frame tileid="168" duration="150" />
    <frame tileid="168" duration="150" />
    <frame tileid="348" duration="150" />
    <frame tileid="528" duration="150" />
    <frame tileid="708" duration="150" />
    <frame tileid="888" duration="150" />
    <frame tileid="1068" duration="150" />
    <frame tileid="1248" duration="150" />
    <frame tileid="1428" duration="150" />
    <frame tileid="1608" duration="150" />
    <frame tileid="1788" duration="150" />
    <frame tileid="1968" duration="150" />
    <frame tileid="2148" duration="150" />
    <frame tileid="2328" duration="150" />
    <frame tileid="168" duration="150" />
    <frame tileid="168" duration="150" />
    <frame tileid="168" duration="150" />
    <frame tileid="168" duration="150" />
    <frame tileid="168" duration="150" />
    <frame tileid="168" duration="150" />
    <frame tileid="168" duration="150" />
    <frame tileid="168" duration="150" />
    <frame tileid="168" duration="150" />
    <frame tileid="168" duration="150" />
   </animation>
  </tile>
  <tile id="169">
   <animation>
    <frame tileid="169" duration="150" />
    <frame tileid="169" duration="150" />
    <frame tileid="349" duration="150" />
    <frame tileid="529" duration="150" />
    <frame tileid="709" duration="150" />
    <frame tileid="889" duration="150" />
    <frame tileid="1069" duration="150" />
    <frame tileid="1249" duration="150" />
    <frame tileid="1429" duration="150" />
    <frame tileid="1609" duration="150" />
    <frame tileid="1789" duration="150" />
    <frame tileid="1969" duration="150" />
    <frame tileid="2149" duration="150" />
    <frame tileid="2329" duration="150" />
    <frame tileid="169" duration="150" />
    <frame tileid="169" duration="150" />
    <frame tileid="169" duration="150" />
    <frame tileid="169" duration="150" />
    <frame tileid="169" duration="150" />
    <frame tileid="169" duration="150" />
    <frame tileid="169" duration="150" />
    <frame tileid="169" duration="150" />
    <frame tileid="169" duration="150" />
    <frame tileid="169" duration="150" />
   </animation>
  </tile>
  <tile id="170">
   <animation>
    <frame tileid="170" duration="150" />
    <frame tileid="170" duration="150" />
    <frame tileid="350" duration="150" />
    <frame tileid="530" duration="150" />
    <frame tileid="710" duration="150" />
    <frame tileid="890" duration="150" />
    <frame tileid="1070" duration="150" />
    <frame tileid="1250" duration="150" />
    <frame tileid="1430" duration="150" />
    <frame tileid="1610" duration="150" />
    <frame tileid="1790" duration="150" />
    <frame tileid="1970" duration="150" />
    <frame tileid="2150" duration="150" />
    <frame tileid="2330" duration="150" />
    <frame tileid="170" duration="150" />
    <frame tileid="170" duration="150" />
    <frame tileid="170" duration="150" />
    <frame tileid="170" duration="150" />
    <frame tileid="170" duration="150" />
    <frame tileid="170" duration="150" />
    <frame tileid="170" duration="150" />
    <frame tileid="170" duration="150" />
    <frame tileid="170" duration="150" />
    <frame tileid="170" duration="150" />
   </animation>
  </tile>
  <tile id="171">
   <animation>
    <frame tileid="171" duration="150" />
    <frame tileid="171" duration="150" />
    <frame tileid="351" duration="150" />
    <frame tileid="531" duration="150" />
    <frame tileid="711" duration="150" />
    <frame tileid="891" duration="150" />
    <frame tileid="1071" duration="150" />
    <frame tileid="1251" duration="150" />
    <frame tileid="1431" duration="150" />
    <frame tileid="1611" duration="150" />
    <frame tileid="1791" duration="150" />
    <frame tileid="1971" duration="150" />
    <frame tileid="2151" duration="150" />
    <frame tileid="2331" duration="150" />
    <frame tileid="171" duration="150" />
    <frame tileid="171" duration="150" />
    <frame tileid="171" duration="150" />
    <frame tileid="171" duration="150" />
    <frame tileid="171" duration="150" />
    <frame tileid="171" duration="150" />
    <frame tileid="171" duration="150" />
    <frame tileid="171" duration="150" />
    <frame tileid="171" duration="150" />
    <frame tileid="171" duration="150" />
   </animation>
  </tile>
  <tile id="172">
   <animation>
    <frame tileid="172" duration="150" />
    <frame tileid="172" duration="150" />
    <frame tileid="172" duration="150" />
    <frame tileid="172" duration="150" />
    <frame tileid="172" duration="150" />
    <frame tileid="172" duration="150" />
    <frame tileid="172" duration="150" />
    <frame tileid="352" duration="150" />
    <frame tileid="532" duration="150" />
    <frame tileid="712" duration="150" />
    <frame tileid="892" duration="150" />
    <frame tileid="1072" duration="150" />
    <frame tileid="1252" duration="150" />
    <frame tileid="1432" duration="150" />
    <frame tileid="1612" duration="150" />
    <frame tileid="1792" duration="150" />
    <frame tileid="1972" duration="150" />
    <frame tileid="2152" duration="150" />
    <frame tileid="2332" duration="150" />
    <frame tileid="172" duration="150" />
    <frame tileid="172" duration="150" />
    <frame tileid="172" duration="150" />
    <frame tileid="172" duration="150" />
    <frame tileid="172" duration="150" />
   </animation>
  </tile>
  <tile id="173">
   <animation>
    <frame tileid="173" duration="150" />
    <frame tileid="173" duration="150" />
    <frame tileid="173" duration="150" />
    <frame tileid="173" duration="150" />
    <frame tileid="173" duration="150" />
    <frame tileid="173" duration="150" />
    <frame tileid="173" duration="150" />
    <frame tileid="353" duration="150" />
    <frame tileid="533" duration="150" />
    <frame tileid="713" duration="150" />
    <frame tileid="893" duration="150" />
    <frame tileid="1073" duration="150" />
    <frame tileid="1253" duration="150" />
    <frame tileid="1433" duration="150" />
    <frame tileid="1613" duration="150" />
    <frame tileid="1793" duration="150" />
    <frame tileid="1973" duration="150" />
    <frame tileid="2153" duration="150" />
    <frame tileid="2333" duration="150" />
    <frame tileid="173" duration="150" />
    <frame tileid="173" duration="150" />
    <frame tileid="173" duration="150" />
    <frame tileid="173" duration="150" />
    <frame tileid="173" duration="150" />
   </animation>
  </tile>
  <tile id="174">
   <animation>
    <frame tileid="174" duration="150" />
    <frame tileid="174" duration="150" />
    <frame tileid="174" duration="150" />
    <frame tileid="174" duration="150" />
    <frame tileid="174" duration="150" />
    <frame tileid="174" duration="150" />
    <frame tileid="174" duration="150" />
    <frame tileid="354" duration="150" />
    <frame tileid="534" duration="150" />
    <frame tileid="714" duration="150" />
    <frame tileid="894" duration="150" />
    <frame tileid="1074" duration="150" />
    <frame tileid="1254" duration="150" />
    <frame tileid="1434" duration="150" />
    <frame tileid="1614" duration="150" />
    <frame tileid="1794" duration="150" />
    <frame tileid="1974" duration="150" />
    <frame tileid="2154" duration="150" />
    <frame tileid="2334" duration="150" />
    <frame tileid="174" duration="150" />
    <frame tileid="174" duration="150" />
    <frame tileid="174" duration="150" />
    <frame tileid="174" duration="150" />
    <frame tileid="174" duration="150" />
   </animation>
  </tile>
  <tile id="175">
   <animation>
    <frame tileid="175" duration="150" />
    <frame tileid="175" duration="150" />
    <frame tileid="175" duration="150" />
    <frame tileid="175" duration="150" />
    <frame tileid="175" duration="150" />
    <frame tileid="175" duration="150" />
    <frame tileid="175" duration="150" />
    <frame tileid="355" duration="150" />
    <frame tileid="535" duration="150" />
    <frame tileid="715" duration="150" />
    <frame tileid="895" duration="150" />
    <frame tileid="1075" duration="150" />
    <frame tileid="1255" duration="150" />
    <frame tileid="1435" duration="150" />
    <frame tileid="1615" duration="150" />
    <frame tileid="1795" duration="150" />
    <frame tileid="1975" duration="150" />
    <frame tileid="2155" duration="150" />
    <frame tileid="2335" duration="150" />
    <frame tileid="175" duration="150" />
    <frame tileid="175" duration="150" />
    <frame tileid="175" duration="150" />
    <frame tileid="175" duration="150" />
    <frame tileid="175" duration="150" />
   </animation>
  </tile>
  <tile id="176">
   <animation>
    <frame tileid="176" duration="150" />
    <frame tileid="176" duration="150" />
    <frame tileid="176" duration="150" />
    <frame tileid="176" duration="150" />
    <frame tileid="176" duration="150" />
    <frame tileid="176" duration="150" />
    <frame tileid="176" duration="150" />
    <frame tileid="176" duration="150" />
    <frame tileid="356" duration="150" />
    <frame tileid="536" duration="150" />
    <frame tileid="716" duration="150" />
    <frame tileid="896" duration="150" />
    <frame tileid="1076" duration="150" />
    <frame tileid="1256" duration="150" />
    <frame tileid="1436" duration="150" />
    <frame tileid="1616" duration="150" />
    <frame tileid="1796" duration="150" />
    <frame tileid="1976" duration="150" />
    <frame tileid="2156" duration="150" />
    <frame tileid="2336" duration="150" />
    <frame tileid="176" duration="150" />
    <frame tileid="176" duration="150" />
    <frame tileid="176" duration="150" />
    <frame tileid="176" duration="150" />
   </animation>
  </tile>
  <tile id="177">
   <animation>
    <frame tileid="177" duration="150" />
    <frame tileid="177" duration="150" />
    <frame tileid="177" duration="150" />
    <frame tileid="177" duration="150" />
    <frame tileid="177" duration="150" />
    <frame tileid="177" duration="150" />
    <frame tileid="177" duration="150" />
    <frame tileid="177" duration="150" />
    <frame tileid="357" duration="150" />
    <frame tileid="537" duration="150" />
    <frame tileid="717" duration="150" />
    <frame tileid="897" duration="150" />
    <frame tileid="1077" duration="150" />
    <frame tileid="1257" duration="150" />
    <frame tileid="1437" duration="150" />
    <frame tileid="1617" duration="150" />
    <frame tileid="1797" duration="150" />
    <frame tileid="1977" duration="150" />
    <frame tileid="2157" duration="150" />
    <frame tileid="2337" duration="150" />
    <frame tileid="177" duration="150" />
    <frame tileid="177" duration="150" />
    <frame tileid="177" duration="150" />
    <frame tileid="177" duration="150" />
   </animation>
  </tile>
  <tile id="178">
   <animation>
    <frame tileid="178" duration="150" />
    <frame tileid="178" duration="150" />
    <frame tileid="178" duration="150" />
    <frame tileid="178" duration="150" />
    <frame tileid="178" duration="150" />
    <frame tileid="178" duration="150" />
    <frame tileid="178" duration="150" />
    <frame tileid="178" duration="150" />
    <frame tileid="358" duration="150" />
    <frame tileid="538" duration="150" />
    <frame tileid="718" duration="150" />
    <frame tileid="898" duration="150" />
    <frame tileid="1078" duration="150" />
    <frame tileid="1258" duration="150" />
    <frame tileid="1438" duration="150" />
    <frame tileid="1618" duration="150" />
    <frame tileid="1798" duration="150" />
    <frame tileid="1978" duration="150" />
    <frame tileid="2158" duration="150" />
    <frame tileid="2338" duration="150" />
    <frame tileid="178" duration="150" />
    <frame tileid="178" duration="150" />
    <frame tileid="178" duration="150" />
    <frame tileid="178" duration="150" />
   </animation>
  </tile>
  <tile id="179">
   <animation>
    <frame tileid="179" duration="150" />
    <frame tileid="179" duration="150" />
    <frame tileid="179" duration="150" />
    <frame tileid="179" duration="150" />
    <frame tileid="179" duration="150" />
    <frame tileid="179" duration="150" />
    <frame tileid="179" duration="150" />
    <frame tileid="179" duration="150" />
    <frame tileid="359" duration="150" />
    <frame tileid="539" duration="150" />
    <frame tileid="719" duration="150" />
    <frame tileid="899" duration="150" />
    <frame tileid="1079" duration="150" />
    <frame tileid="1259" duration="150" />
    <frame tileid="1439" duration="150" />
    <frame tileid="1619" duration="150" />
    <frame tileid="1799" duration="150" />
    <frame tileid="1979" duration="150" />
    <frame tileid="2159" duration="150" />
    <frame tileid="2339" duration="150" />
    <frame tileid="179" duration="150" />
    <frame tileid="179" duration="150" />
    <frame tileid="179" duration="150" />
    <frame tileid="179" duration="150" />
   </animation>
  </tile>
 </tileset>
 <tileset firstgid="7919" name="cat_animation" tilewidth="16" tileheight="16" tilecount="216" columns="6">
  <image source="../gfx/tiles/home/cat_animation.png" width="96" height="576" />
  <tile id="0">
   <animation>
    <frame tileid="0" duration="150" />
    <frame tileid="12" duration="150" />
    <frame tileid="24" duration="150" />
    <frame tileid="36" duration="150" />
    <frame tileid="48" duration="150" />
    <frame tileid="60" duration="150" />
    <frame tileid="72" duration="150" />
    <frame tileid="84" duration="150" />
    <frame tileid="96" duration="150" />
    <frame tileid="108" duration="150" />
    <frame tileid="120" duration="150" />
    <frame tileid="132" duration="150" />
    <frame tileid="144" duration="150" />
    <frame tileid="156" duration="150" />
    <frame tileid="168" duration="150" />
    <frame tileid="180" duration="150" />
    <frame tileid="192" duration="150" />
    <frame tileid="204" duration="150" />
    <frame tileid="210" duration="150" />
    <frame tileid="210" duration="150" />
    <frame tileid="210" duration="150" />
    <frame tileid="210" duration="150" />
    <frame tileid="210" duration="150" />
    <frame tileid="210" duration="150" />
   </animation>
  </tile>
  <tile id="1">
   <animation>
    <frame tileid="1" duration="150" />
    <frame tileid="13" duration="150" />
    <frame tileid="25" duration="150" />
    <frame tileid="37" duration="150" />
    <frame tileid="49" duration="150" />
    <frame tileid="61" duration="150" />
    <frame tileid="73" duration="150" />
    <frame tileid="85" duration="150" />
    <frame tileid="97" duration="150" />
    <frame tileid="109" duration="150" />
    <frame tileid="121" duration="150" />
    <frame tileid="133" duration="150" />
    <frame tileid="145" duration="150" />
    <frame tileid="157" duration="150" />
    <frame tileid="169" duration="150" />
    <frame tileid="181" duration="150" />
    <frame tileid="193" duration="150" />
    <frame tileid="205" duration="150" />
    <frame tileid="211" duration="150" />
    <frame tileid="211" duration="150" />
    <frame tileid="211" duration="150" />
    <frame tileid="211" duration="150" />
    <frame tileid="211" duration="150" />
    <frame tileid="211" duration="150" />
   </animation>
  </tile>
  <tile id="2">
   <animation>
    <frame tileid="2" duration="150" />
    <frame tileid="14" duration="150" />
    <frame tileid="26" duration="150" />
    <frame tileid="38" duration="150" />
    <frame tileid="50" duration="150" />
    <frame tileid="62" duration="150" />
    <frame tileid="74" duration="150" />
    <frame tileid="86" duration="150" />
    <frame tileid="98" duration="150" />
    <frame tileid="110" duration="150" />
    <frame tileid="122" duration="150" />
    <frame tileid="134" duration="150" />
    <frame tileid="146" duration="150" />
    <frame tileid="158" duration="150" />
    <frame tileid="170" duration="150" />
    <frame tileid="182" duration="150" />
    <frame tileid="194" duration="150" />
    <frame tileid="206" duration="150" />
    <frame tileid="206" duration="150" />
    <frame tileid="206" duration="150" />
    <frame tileid="206" duration="150" />
    <frame tileid="206" duration="150" />
    <frame tileid="206" duration="150" />
    <frame tileid="206" duration="150" />
   </animation>
  </tile>
  <tile id="3">
   <animation>
    <frame tileid="3" duration="150" />
    <frame tileid="15" duration="150" />
    <frame tileid="27" duration="150" />
    <frame tileid="39" duration="150" />
    <frame tileid="51" duration="150" />
    <frame tileid="63" duration="150" />
    <frame tileid="75" duration="150" />
    <frame tileid="87" duration="150" />
    <frame tileid="99" duration="150" />
    <frame tileid="111" duration="150" />
    <frame tileid="123" duration="150" />
    <frame tileid="135" duration="150" />
    <frame tileid="147" duration="150" />
    <frame tileid="159" duration="150" />
    <frame tileid="171" duration="150" />
    <frame tileid="183" duration="150" />
    <frame tileid="195" duration="150" />
    <frame tileid="207" duration="150" />
    <frame tileid="207" duration="150" />
    <frame tileid="207" duration="150" />
    <frame tileid="207" duration="150" />
    <frame tileid="207" duration="150" />
    <frame tileid="207" duration="150" />
    <frame tileid="207" duration="150" />
   </animation>
  </tile>
  <tile id="4">
   <animation>
    <frame tileid="4" duration="150" />
    <frame tileid="16" duration="150" />
    <frame tileid="28" duration="150" />
    <frame tileid="40" duration="150" />
    <frame tileid="52" duration="150" />
    <frame tileid="64" duration="150" />
    <frame tileid="76" duration="150" />
    <frame tileid="88" duration="150" />
    <frame tileid="100" duration="150" />
    <frame tileid="112" duration="150" />
    <frame tileid="124" duration="150" />
    <frame tileid="136" duration="150" />
    <frame tileid="148" duration="150" />
    <frame tileid="160" duration="150" />
    <frame tileid="172" duration="150" />
    <frame tileid="184" duration="150" />
    <frame tileid="196" duration="150" />
    <frame tileid="208" duration="150" />
    <frame tileid="208" duration="150" />
    <frame tileid="208" duration="150" />
    <frame tileid="208" duration="150" />
    <frame tileid="208" duration="150" />
    <frame tileid="208" duration="150" />
    <frame tileid="208" duration="150" />
   </animation>
  </tile>
  <tile id="5">
   <animation>
    <frame tileid="5" duration="150" />
    <frame tileid="17" duration="150" />
    <frame tileid="29" duration="150" />
    <frame tileid="41" duration="150" />
    <frame tileid="53" duration="150" />
    <frame tileid="65" duration="150" />
    <frame tileid="77" duration="150" />
    <frame tileid="89" duration="150" />
    <frame tileid="101" duration="150" />
    <frame tileid="113" duration="150" />
    <frame tileid="125" duration="150" />
    <frame tileid="137" duration="150" />
    <frame tileid="149" duration="150" />
    <frame tileid="161" duration="150" />
    <frame tileid="173" duration="150" />
    <frame tileid="185" duration="150" />
    <frame tileid="197" duration="150" />
    <frame tileid="209" duration="150" />
    <frame tileid="209" duration="150" />
    <frame tileid="209" duration="150" />
    <frame tileid="209" duration="150" />
    <frame tileid="209" duration="150" />
    <frame tileid="209" duration="150" />
    <frame tileid="209" duration="150" />
   </animation>
  </tile>
  <tile id="6">
   <animation>
    <frame tileid="6" duration="150" />
    <frame tileid="18" duration="150" />
    <frame tileid="30" duration="150" />
    <frame tileid="42" duration="150" />
    <frame tileid="54" duration="150" />
    <frame tileid="66" duration="150" />
    <frame tileid="78" duration="150" />
    <frame tileid="90" duration="150" />
    <frame tileid="102" duration="150" />
    <frame tileid="114" duration="150" />
    <frame tileid="126" duration="150" />
    <frame tileid="138" duration="150" />
    <frame tileid="150" duration="150" />
    <frame tileid="162" duration="150" />
    <frame tileid="174" duration="150" />
    <frame tileid="186" duration="150" />
    <frame tileid="198" duration="150" />
    <frame tileid="210" duration="150" />
    <frame tileid="210" duration="150" />
    <frame tileid="210" duration="150" />
    <frame tileid="210" duration="150" />
    <frame tileid="210" duration="150" />
    <frame tileid="210" duration="150" />
    <frame tileid="210" duration="150" />
   </animation>
  </tile>
  <tile id="7">
   <animation>
    <frame tileid="7" duration="150" />
    <frame tileid="19" duration="150" />
    <frame tileid="31" duration="150" />
    <frame tileid="43" duration="150" />
    <frame tileid="55" duration="150" />
    <frame tileid="67" duration="150" />
    <frame tileid="79" duration="150" />
    <frame tileid="91" duration="150" />
    <frame tileid="103" duration="150" />
    <frame tileid="115" duration="150" />
    <frame tileid="127" duration="150" />
    <frame tileid="139" duration="150" />
    <frame tileid="151" duration="150" />
    <frame tileid="163" duration="150" />
    <frame tileid="175" duration="150" />
    <frame tileid="187" duration="150" />
    <frame tileid="199" duration="150" />
    <frame tileid="211" duration="150" />
    <frame tileid="211" duration="150" />
    <frame tileid="211" duration="150" />
    <frame tileid="211" duration="150" />
    <frame tileid="211" duration="150" />
    <frame tileid="211" duration="150" />
    <frame tileid="211" duration="150" />
   </animation>
  </tile>
  <tile id="8">
   <animation>
    <frame tileid="8" duration="150" />
    <frame tileid="20" duration="150" />
    <frame tileid="32" duration="150" />
    <frame tileid="44" duration="150" />
    <frame tileid="56" duration="150" />
    <frame tileid="68" duration="150" />
    <frame tileid="80" duration="150" />
    <frame tileid="92" duration="150" />
    <frame tileid="104" duration="150" />
    <frame tileid="116" duration="150" />
    <frame tileid="128" duration="150" />
    <frame tileid="140" duration="150" />
    <frame tileid="152" duration="150" />
    <frame tileid="164" duration="150" />
    <frame tileid="176" duration="150" />
    <frame tileid="188" duration="150" />
    <frame tileid="200" duration="150" />
    <frame tileid="212" duration="150" />
    <frame tileid="212" duration="150" />
    <frame tileid="212" duration="150" />
    <frame tileid="212" duration="150" />
    <frame tileid="212" duration="150" />
    <frame tileid="212" duration="150" />
    <frame tileid="212" duration="150" />
   </animation>
  </tile>
  <tile id="9">
   <animation>
    <frame tileid="9" duration="150" />
    <frame tileid="21" duration="150" />
    <frame tileid="33" duration="150" />
    <frame tileid="45" duration="150" />
    <frame tileid="57" duration="150" />
    <frame tileid="69" duration="150" />
    <frame tileid="81" duration="150" />
    <frame tileid="93" duration="150" />
    <frame tileid="105" duration="150" />
    <frame tileid="117" duration="150" />
    <frame tileid="129" duration="150" />
    <frame tileid="141" duration="150" />
    <frame tileid="153" duration="150" />
    <frame tileid="165" duration="150" />
    <frame tileid="177" duration="150" />
    <frame tileid="189" duration="150" />
    <frame tileid="201" duration="150" />
    <frame tileid="213" duration="150" />
    <frame tileid="213" duration="150" />
    <frame tileid="213" duration="150" />
    <frame tileid="213" duration="150" />
    <frame tileid="213" duration="150" />
    <frame tileid="213" duration="150" />
    <frame tileid="213" duration="150" />
   </animation>
  </tile>
  <tile id="10">
   <animation>
    <frame tileid="10" duration="150" />
    <frame tileid="22" duration="150" />
    <frame tileid="34" duration="150" />
    <frame tileid="46" duration="150" />
    <frame tileid="58" duration="150" />
    <frame tileid="70" duration="150" />
    <frame tileid="82" duration="150" />
    <frame tileid="94" duration="150" />
    <frame tileid="106" duration="150" />
    <frame tileid="118" duration="150" />
    <frame tileid="130" duration="150" />
    <frame tileid="142" duration="150" />
    <frame tileid="154" duration="150" />
    <frame tileid="166" duration="150" />
    <frame tileid="178" duration="150" />
    <frame tileid="190" duration="150" />
    <frame tileid="202" duration="150" />
    <frame tileid="214" duration="150" />
    <frame tileid="214" duration="150" />
    <frame tileid="214" duration="150" />
    <frame tileid="214" duration="150" />
    <frame tileid="214" duration="150" />
    <frame tileid="214" duration="150" />
    <frame tileid="214" duration="150" />
   </animation>
  </tile>
  <tile id="11">
   <animation>
    <frame tileid="11" duration="150" />
    <frame tileid="23" duration="150" />
    <frame tileid="35" duration="150" />
    <frame tileid="47" duration="150" />
    <frame tileid="59" duration="150" />
    <frame tileid="71" duration="150" />
    <frame tileid="83" duration="150" />
    <frame tileid="95" duration="150" />
    <frame tileid="107" duration="150" />
    <frame tileid="119" duration="150" />
    <frame tileid="131" duration="150" />
    <frame tileid="143" duration="150" />
    <frame tileid="155" duration="150" />
    <frame tileid="167" duration="150" />
    <frame tileid="179" duration="150" />
    <frame tileid="191" duration="150" />
    <frame tileid="203" duration="150" />
    <frame tileid="215" duration="150" />
    <frame tileid="215" duration="150" />
    <frame tileid="215" duration="150" />
    <frame tileid="215" duration="150" />
    <frame tileid="215" duration="150" />
    <frame tileid="215" duration="150" />
    <frame tileid="215" duration="150" />
   </animation>
  </tile>
 </tileset>
 <layer id="1" name="ground" width="37" height="22">
  <data encoding="csv">
2573,2573,2573,2573,2573,2573,2573,2573,2573,2573,2573,2573,2573,2573,2573,2573,2573,2573,2573,2573,2573,2573,2573,2573,2573,2573,2573,2573,2573,2573,2573,2573,2573,2573,2573,2573,2573,
2573,2573,2573,2573,2573,2573,2573,2573,2573,2573,2573,2573,2573,2573,2573,2573,2573,2573,2573,2573,2573,2573,2573,2573,2573,2573,2573,2573,2573,2573,2573,2573,2573,2573,2573,2573,2573,
2573,2573,2573,2573,2573,2573,2573,2573,2573,2573,0,0,0,0,0,0,0,0,0,0,0,0,0,0,0,0,0,0,0,0,0,0,0,0,0,0,0,
2573,2573,2573,2573,2573,2573,2573,2573,2573,2573,0,0,0,0,0,0,0,0,0,0,0,0,0,0,0,0,0,0,0,0,0,0,0,0,0,0,0,
2573,2573,2573,2573,2573,2573,2573,2573,2573,2573,0,0,0,0,0,0,0,0,0,0,0,0,0,0,0,0,0,0,0,0,0,0,0,0,0,0,0,
2573,2573,2573,2573,2573,2573,2573,2573,2573,2573,0,0,0,0,0,0,0,0,0,0,0,0,0,0,0,0,0,0,0,0,0,0,0,0,0,0,0,
2573,2573,2573,2573,2573,2573,2573,2573,2573,2573,0,0,0,0,0,0,0,0,0,0,0,0,0,0,0,0,0,0,0,0,0,0,0,0,0,0,0,
2573,2573,2573,2573,2573,2573,2573,2573,2573,2573,0,0,0,0,0,0,0,0,0,0,0,0,0,0,0,0,0,0,0,0,0,0,0,0,0,0,0,
2573,2573,2573,2573,2573,2573,2573,2573,2573,2573,0,0,0,0,0,0,0,0,2573,2573,2573,2573,2573,2573,2573,2573,2573,2573,0,0,0,0,0,0,0,0,0,
2573,2573,2573,2573,2573,2573,2573,2573,2573,2573,0,0,0,0,0,0,0,0,2573,2573,2573,2573,2573,2573,2573,2573,2573,2573,0,0,0,2573,2573,2573,2573,2573,0,
2573,2573,2573,2573,2573,2573,2573,2573,2573,2573,0,0,0,0,0,0,0,0,2573,2573,2573,2573,2573,2573,2573,2573,2573,2573,0,0,0,2573,2573,2573,2573,2573,2573,
2573,2573,2573,2573,2573,2573,2573,2573,2573,2573,0,0,0,0,0,0,0,0,2573,2573,2573,2573,2573,2573,2573,2573,2573,2573,0,0,0,2573,2573,2573,2573,2573,2573,
2573,2573,2573,2573,2573,2573,2573,2573,2573,2573,2573,0,0,0,0,0,0,0,0,0,0,0,0,0,0,0,0,0,0,0,0,2573,2573,2573,2573,2573,2573,
2573,2573,2573,2573,2573,2573,2573,2573,2573,2573,2573,0,0,0,0,0,0,0,0,0,0,0,0,0,0,0,0,0,0,0,0,2573,2573,2573,2573,2573,2573,
2573,2573,2573,2573,2573,2573,2573,2573,2573,2573,2573,2573,2573,2573,2573,2573,2573,2573,2573,2573,2573,2573,2573,2573,2573,2573,2573,2573,2573,2573,2573,2573,2573,2573,2573,2573,2573,
2573,2573,2573,2573,2573,2573,2573,2573,2573,2573,2573,2573,2573,2573,2573,2573,2573,2573,2573,2573,2573,2573,2573,2573,2573,2573,2573,2573,2573,2573,2573,2573,2573,2573,2573,2573,2573,
2573,2573,2573,2573,2573,2573,2573,2573,2573,2573,2573,2573,2573,2573,2573,2573,2573,2573,2573,2573,2573,2573,2573,2573,2573,2573,2573,2573,2573,2573,2573,2573,2573,2573,2573,2573,2573,
2573,2573,2573,2573,2573,2573,2573,2573,2573,2573,2573,2573,2573,2573,2573,2573,2573,2573,2573,2573,2573,2573,2573,2573,2573,2573,2573,2573,2573,2573,2573,2573,2573,2573,2573,2573,2573,
2573,2573,2573,2573,2573,2573,2573,2573,2573,2573,2573,2573,2573,2573,2573,2573,2573,2573,2573,2573,2573,2573,2573,2573,2573,2573,2573,2573,2573,2573,2573,2573,2573,2573,2573,2573,2573,
2573,2573,2573,2573,2573,2573,2573,2573,2573,2573,2573,2573,2573,2573,2573,2573,2573,2573,2573,2573,2573,2573,2573,2573,2573,2573,2573,2573,2573,2573,2573,2573,2573,2573,2573,2573,2573,
2573,2573,2573,2573,2573,2573,2573,2573,2573,2573,2573,2573,2573,2573,2573,2573,2573,2573,2573,2573,2573,2573,2573,2573,2573,2573,2573,2573,2573,2573,2573,2573,2573,2573,2573,2573,2573,
2573,2573,2573,2573,2573,2573,2573,2573,2573,2573,2573,2573,2573,2573,2573,2573,2573,2573,2573,2573,2573,2573,2573,2573,2573,2573,2573,2573,2573,2573,2573,2573,2573,2573,2573,2573,2573
</data>
 </layer>
 <layer id="2" name="ground_spots" width="37" height="22">
  <data encoding="csv">
0,0,0,0,0,0,0,0,0,0,0,0,0,0,0,0,0,0,0,0,0,0,0,0,0,0,0,0,0,0,0,0,0,0,0,0,0,
0,0,0,0,0,0,0,0,0,0,0,0,0,0,0,0,0,0,0,0,0,0,0,0,0,0,0,0,0,0,0,0,0,0,0,0,0,
0,0,0,0,0,0,0,0,0,0,0,0,0,0,0,0,0,0,0,0,0,0,0,0,0,0,0,0,0,0,0,0,0,0,0,0,0,
0,0,0,0,0,0,0,0,0,0,0,0,0,0,0,0,0,0,0,0,0,0,0,0,0,0,0,0,0,0,0,0,0,0,0,0,0,
0,0,0,0,0,0,0,0,0,0,0,0,0,0,0,0,0,0,0,0,0,0,0,0,0,0,0,0,0,0,0,0,0,0,0,0,0,
0,0,0,0,0,0,0,0,0,0,0,0,0,0,0,0,0,0,0,0,0,0,0,0,0,0,0,0,0,0,0,0,0,0,0,0,0,
0,0,0,0,0,0,0,0,0,0,0,0,0,0,0,0,0,0,0,0,0,0,0,0,0,0,0,0,0,0,0,0,0,0,0,0,0,
0,0,0,0,0,0,0,0,0,0,0,0,0,0,0,0,0,0,0,0,0,0,0,0,0,0,0,0,0,0,0,0,0,0,0,0,0,
0,0,0,0,0,0,0,0,0,0,0,0,0,0,0,0,0,0,0,0,0,0,0,0,0,0,0,0,0,0,0,0,0,0,0,0,0,
0,0,0,0,0,0,0,0,0,0,0,0,0,0,0,0,0,0,0,0,0,0,0,0,0,0,0,0,0,0,0,0,0,0,0,0,0,
0,0,0,0,0,0,0,0,0,0,0,0,0,0,0,0,0,0,0,0,0,0,0,0,0,0,0,0,0,0,0,0,0,0,0,0,0,
0,0,0,0,0,0,0,0,0,0,0,0,0,0,0,0,0,0,0,0,0,0,0,0,0,0,0,0,0,0,0,0,0,0,0,1950,0,
0,0,0,0,0,0,0,0,0,0,0,0,0,0,0,0,0,0,0,0,0,0,0,0,0,0,0,0,0,0,0,0,0,0,0,0,0,
0,0,0,0,0,0,0,0,0,0,0,0,0,0,0,0,0,0,0,0,0,0,0,0,0,0,0,0,1970,1971,0,0,0,1924,1921,0,1920,
0,0,0,0,0,0,0,0,0,0,1941,1942,0,0,0,0,0,0,0,0,0,0,0,0,0,0,0,0,1991,1992,0,0,0,0,0,0,0,
0,0,0,0,0,0,0,0,0,0,1962,1963,0,1871,1872,0,0,0,0,0,0,0,0,0,0,0,0,0,0,0,0,0,1926,1884,1885,1970,1971,
0,0,0,0,0,0,0,0,0,0,0,1977,0,0,0,0,0,0,0,0,0,0,0,0,0,0,0,0,0,1922,0,0,0,1905,1906,1991,1992,
0,0,0,0,0,0,0,0,0,0,0,1998,0,0,0,0,0,0,0,0,0,0,0,0,0,0,0,0,0,0,0,0,0,0,0,0,0,
0,0,0,0,0,0,0,0,0,0,1873,1874,1928,0,0,0,1972,1973,0,1878,1879,0,0,0,0,1953,0,1882,1883,2001,2002,0,1974,1975,1886,1887,0,
0,0,0,0,0,0,0,0,0,0,0,0,0,0,1950,0,1993,1994,0,1899,1900,0,0,1985,1986,0,0,1903,1904,0,0,0,1995,1996,1907,1908,1926,
0,0,0,0,0,0,0,0,0,0,0,0,0,0,0,0,0,0,0,0,0,0,0,0,0,0,0,0,0,0,0,0,0,0,0,0,0,
0,0,0,0,0,0,0,0,0,0,0,0,0,0,0,0,0,0,0,0,0,0,0,0,0,0,0,0,0,0,0,0,0,0,0,0,0
</data>
 </layer>
 <layer id="3" name="ground_road" width="37" height="22">
  <data encoding="csv">
0,0,0,0,0,0,0,0,0,0,0,0,0,0,0,0,0,0,0,0,0,0,0,0,0,0,0,0,0,0,0,0,0,0,0,0,0,
0,0,0,0,0,0,0,0,0,0,0,0,0,0,0,0,0,0,0,0,0,0,0,0,0,0,0,0,0,0,0,0,0,0,0,0,0,
0,0,0,0,0,0,0,0,0,0,0,0,0,0,0,0,0,0,0,0,0,0,0,0,0,0,0,0,0,0,0,0,0,0,0,0,0,
0,0,0,0,0,0,0,0,0,0,0,0,0,0,0,0,0,0,0,0,0,0,0,0,0,0,0,0,0,0,0,0,0,0,0,0,0,
0,0,0,0,0,0,0,0,0,0,0,0,0,0,0,0,0,0,0,0,0,0,0,0,0,0,0,0,0,0,0,0,0,0,0,0,0,
0,0,0,0,0,0,0,0,0,0,0,0,0,0,0,0,0,0,0,0,0,0,0,0,0,0,0,0,0,0,0,0,0,0,0,0,0,
0,0,0,0,0,0,0,0,0,0,0,0,0,0,0,0,0,0,0,0,0,0,0,0,0,0,0,0,0,0,0,0,0,0,0,0,0,
0,0,0,0,0,0,0,0,0,0,0,0,0,0,0,0,2427,2428,2429,2427,2428,2429,2427,2428,2429,2430,2427,2428,2429,2430,0,0,0,0,0,0,0,
0,0,0,0,0,0,0,0,0,0,0,0,0,0,0,0,2427,2428,2429,2430,2429,2430,2427,2428,2429,2430,2427,2428,2429,2430,0,0,0,0,0,0,0,
0,0,0,0,0,0,0,0,0,0,0,0,0,0,0,0,2427,2428,2429,2430,2427,2428,2429,2427,2428,2429,2427,2428,2429,2430,0,0,0,0,0,0,0,
0,0,0,0,0,0,0,0,0,0,0,0,0,0,0,0,2427,2428,2429,2427,2428,2429,2430,2428,2429,2430,2428,2429,2430,0,0,0,0,0,0,0,0,
0,0,0,0,0,0,0,0,0,0,0,0,0,0,0,0,0,2427,2428,2429,2430,2427,2428,2429,2430,2427,2428,2429,2430,0,0,0,0,0,0,0,0,
0,0,0,0,0,0,0,0,0,0,0,0,0,0,0,0,0,2427,2428,2429,2430,2427,2428,2429,2430,2427,2428,2429,2430,0,0,0,0,0,0,0,0,
0,0,0,0,0,0,0,0,0,0,0,0,0,0,0,0,0,0,0,0,0,0,0,0,2402,2404,0,0,0,0,0,0,0,0,0,0,0,
0,0,0,0,0,0,0,0,0,0,0,0,0,0,0,0,0,0,0,0,0,0,0,0,2402,2404,0,0,0,0,0,0,0,2385,2386,2394,2396,
0,0,0,0,0,0,0,0,0,0,0,0,0,0,0,0,0,0,0,0,0,0,0,0,2402,2404,0,0,0,0,0,0,0,2402,2405,2411,2413,
0,0,0,0,0,0,0,0,0,0,2395,2393,2394,2395,2396,2393,2394,2395,2396,2393,2394,2395,2396,2393,2423,2422,2393,2394,2395,2396,2393,2394,2395,2423,2408,0,0,
0,0,0,0,0,0,0,0,0,0,2412,2410,2411,2412,2413,2410,2411,2412,2413,2410,2411,2412,2413,2410,2411,2412,2410,2411,2412,2413,2410,2411,2412,2420,2421,0,0,
0,0,0,0,0,0,0,0,0,0,0,0,0,0,0,0,0,0,0,0,0,0,0,0,0,0,0,0,0,0,0,0,0,0,0,0,0,
0,0,0,0,0,0,0,0,0,0,0,0,0,0,0,0,0,0,0,0,0,0,0,0,0,0,0,0,0,0,0,0,0,0,0,0,0,
0,0,0,0,0,0,0,0,0,0,0,0,0,0,0,0,0,0,0,0,0,0,0,0,0,0,0,0,0,0,0,0,0,0,0,0,0,
0,0,0,0,0,0,0,0,0,0,0,0,0,0,0,0,0,0,0,0,0,0,0,0,0,0,0,0,0,0,0,0,0,0,0,0,0
</data>
 </layer>
 <layer id="4" name="ground_plates" width="37" height="22">
  <data encoding="csv">
0,0,0,0,0,0,0,0,0,0,0,0,0,0,0,0,0,0,0,0,0,0,0,0,0,0,0,0,0,0,0,0,0,0,0,0,0,
0,0,0,0,0,0,0,0,0,0,0,0,0,0,0,0,0,0,0,0,0,0,0,0,0,0,0,0,0,0,0,0,0,0,0,0,0,
0,0,0,0,0,0,0,0,0,0,0,0,0,0,0,0,0,0,0,0,0,0,0,0,0,0,0,0,0,0,0,0,0,0,0,0,0,
0,0,0,0,0,0,0,0,0,0,0,0,0,0,0,0,0,0,0,0,0,0,0,0,0,0,0,0,0,0,0,0,0,0,0,0,0,
0,0,0,0,0,0,0,0,0,0,0,0,0,0,0,0,0,0,0,0,0,0,0,0,0,0,0,0,0,0,0,0,0,0,0,0,0,
0,0,0,0,0,0,0,0,0,0,0,0,0,0,0,0,0,0,0,0,0,0,0,0,0,0,0,0,0,0,0,0,0,0,0,0,0,
0,0,0,0,0,0,0,0,0,0,0,0,0,0,0,0,0,0,0,0,0,0,0,0,0,0,0,0,0,0,0,0,0,0,0,0,0,
0,0,0,0,0,0,0,0,0,0,0,0,0,0,0,0,0,0,2329,2330,2330,2330,2330,2330,2330,2330,2330,2331,0,0,0,0,0,0,0,0,0,
0,0,0,0,0,0,0,0,0,0,0,0,0,0,0,0,0,0,2346,2347,2347,2347,2347,2347,2347,2347,2347,2348,0,0,0,0,0,0,0,0,0,
0,0,0,0,0,0,0,0,0,0,0,0,0,0,0,0,0,0,2346,2347,2347,2347,2347,2347,2347,2347,2347,2348,0,0,0,0,0,0,0,0,0,
0,0,0,0,0,0,0,0,0,0,0,0,0,0,0,0,0,0,2346,2347,2347,2347,2347,2347,2347,2347,2347,2348,0,0,0,0,0,0,0,0,0,
0,0,0,0,0,0,0,0,0,0,0,0,0,0,0,0,0,0,2346,2347,2347,2347,2347,2347,2347,2347,2347,2348,0,0,0,0,0,0,0,0,0,
0,0,0,0,0,0,0,0,0,0,0,0,0,0,0,0,0,0,2363,2364,2364,2364,2364,2364,2364,2364,2364,0,0,0,0,0,0,0,0,0,0,
0,0,0,0,0,0,0,0,0,0,0,0,0,0,0,0,0,0,0,0,0,0,0,0,0,0,0,0,0,0,0,0,0,0,0,0,0,
0,0,0,0,0,0,0,0,0,0,0,0,0,0,0,0,0,0,0,0,0,0,0,0,0,0,0,0,0,0,0,0,0,0,0,0,0,
0,0,0,0,0,0,0,0,0,0,0,0,0,0,0,0,0,0,0,0,0,0,0,0,0,0,0,0,0,0,0,0,0,0,0,0,0,
0,0,0,0,0,0,0,0,0,0,0,0,0,0,0,0,0,0,0,0,0,0,0,0,0,0,0,0,0,0,0,0,0,0,0,0,0,
0,0,0,0,0,0,0,0,0,0,0,0,0,0,0,0,0,0,0,0,0,0,0,0,0,0,0,0,0,0,0,0,0,0,0,0,0,
0,0,0,0,0,0,0,0,0,0,0,0,0,0,0,0,0,0,0,0,0,0,0,0,0,0,0,0,0,0,0,0,0,0,0,0,0,
0,0,0,0,0,0,0,0,0,0,0,0,0,0,0,0,0,0,0,0,0,0,0,0,0,0,0,0,0,0,0,0,0,0,0,0,0,
0,0,0,0,0,0,0,0,0,0,0,0,0,0,0,0,0,0,0,0,0,0,0,0,0,0,0,0,0,0,0,0,0,0,0,0,0,
0,0,0,0,0,0,0,0,0,0,0,0,0,0,0,0,0,0,0,0,0,0,0,0,0,0,0,0,0,0,0,0,0,0,0,0,0
</data>
 </layer>
 <layer id="5" name="ground_turf" width="37" height="22">
  <data encoding="csv">
2522,2522,2522,2522,2522,2522,2522,2522,2522,2522,2522,2522,2522,2522,2522,2522,2522,2522,2522,2522,2522,2522,2522,2522,2522,2522,2522,2522,2522,2522,2522,2522,2522,2522,2522,2522,2522,
2522,2522,2522,2522,2522,2522,2522,2522,2522,2522,2522,2522,2522,2522,2522,2522,2522,2522,2522,2522,2522,2522,2522,2522,2522,2522,2522,2522,2522,2522,2522,2522,2522,2522,2522,2522,2522,
2522,2522,2522,2522,2522,2522,2522,2522,2522,2522,0,0,0,0,0,0,0,0,0,0,0,0,0,0,0,0,0,0,0,0,0,0,0,0,0,0,0,
2522,2522,2522,2522,2522,2522,2522,2522,2522,2522,0,0,0,0,0,0,0,0,0,0,0,0,0,0,0,0,0,0,0,0,0,0,0,0,0,0,0,
2522,2522,2522,2522,2522,2522,2522,2522,2522,2522,0,0,0,0,0,0,0,0,0,0,0,0,0,0,0,0,0,0,0,0,0,0,0,0,0,0,0,
2522,2522,2522,2522,2522,2522,2522,2522,2522,2522,0,0,0,0,0,0,0,0,0,0,0,0,0,0,0,0,0,0,0,0,0,0,0,0,0,0,0,
2522,2522,2522,2522,2522,2522,2522,2522,2522,2522,0,0,0,0,0,0,0,0,0,0,0,0,0,0,0,0,0,0,0,0,0,0,0,0,0,0,0,
2522,2522,2522,2522,2522,2522,2522,2522,2522,2522,0,0,0,0,0,0,0,0,0,0,0,0,0,0,0,0,0,0,0,0,0,0,0,0,0,0,0,
2522,2522,2522,2522,2522,2522,2522,2522,2522,2522,0,0,0,0,0,0,0,0,2522,2522,2522,2522,2522,2522,2522,2522,2522,2522,0,0,0,0,0,0,0,0,0,
2522,2522,2522,2522,2522,2522,2522,2522,2522,2522,0,0,0,0,0,0,0,0,2522,2522,2522,2522,2522,2522,2522,2522,2522,2522,0,0,0,0,0,0,0,0,0,
2522,2522,2522,2522,2522,2522,2522,2522,2522,2522,0,0,0,0,0,0,0,0,2522,2522,2522,2522,2522,2522,2522,2522,2522,2522,0,0,0,0,0,0,0,0,0,
2522,2522,2522,2522,2522,2522,2522,2522,2522,2522,0,0,0,0,0,0,0,0,2522,2522,2522,2522,2522,2522,2522,2522,2522,2522,0,0,0,0,0,0,0,0,0,
2522,2522,2522,2522,2522,2522,2522,2522,2522,2522,0,0,0,0,0,0,0,0,0,0,0,0,0,0,0,0,0,0,0,0,0,0,0,0,0,0,0,
2522,2522,2522,2522,2522,2522,2522,2522,2522,2522,0,0,0,0,0,0,0,0,0,0,0,0,0,0,0,0,0,0,0,0,0,0,0,0,0,0,0,
2522,2522,2522,2522,2522,2522,2522,2522,2522,2522,0,0,0,0,0,0,0,0,0,0,0,0,0,0,0,0,0,0,0,0,0,0,0,0,0,0,0,
2522,2522,2522,2522,2522,2522,2522,2522,2522,2522,0,0,0,0,0,0,0,0,0,0,0,0,0,0,0,0,0,0,0,0,0,0,0,0,0,0,0,
2522,2522,2522,2522,2522,2522,2522,2522,2522,2522,0,0,0,0,0,0,0,0,0,0,0,0,0,0,0,0,0,0,0,0,0,0,0,0,0,0,0,
2522,2522,2522,2522,2522,2522,2522,2522,2522,2522,0,0,0,0,0,0,0,0,0,0,0,0,0,0,0,0,0,0,0,0,0,0,0,0,0,0,0,
2522,2522,2522,2522,2522,2522,2522,2522,2522,2522,0,0,0,0,0,0,0,0,0,0,0,0,0,0,0,0,0,0,0,0,0,0,0,0,0,0,0,
2522,2522,2522,2522,2522,2522,2522,2522,2522,2522,0,0,0,0,0,0,0,0,0,0,0,0,0,0,0,0,0,0,0,0,0,0,0,0,0,0,0,
2522,2522,2522,2522,2522,2522,2522,2522,2522,2522,2522,2522,2522,2522,2522,2522,2522,2522,2522,2522,2522,2522,2522,2522,2522,2522,2522,2522,2522,2522,2522,2522,2522,2522,2522,2522,2522,
2522,2522,2522,2522,2522,2522,2522,2522,2522,2522,2522,2522,2522,2522,2522,2522,2522,2522,2522,2522,2522,2522,2522,2522,2522,2522,2522,2522,2522,2522,2522,2522,2522,2522,2522,2522,2522
</data>
 </layer>
 <layer id="6" name="dressing" width="37" height="22">
  <data encoding="csv">
0,0,0,0,0,0,0,0,0,0,0,0,0,0,0,0,0,0,0,0,0,0,0,0,0,0,0,0,0,0,0,0,0,0,0,0,0,
0,0,0,0,0,0,0,0,0,0,0,0,0,0,0,0,0,0,0,0,0,0,0,0,0,0,0,0,0,0,0,0,0,0,0,0,0,
0,0,0,0,0,0,0,0,0,0,2522,2471,2471,2471,2471,2471,2471,2471,2471,2471,2471,2471,2471,2471,2471,2471,2471,2471,2471,2471,2471,2471,2471,2471,2471,2522,2522,
0,0,0,0,0,0,0,0,0,0,2522,2471,2522,2522,2522,2522,2522,2522,2522,2522,2522,2522,2522,2522,2522,2522,2522,2522,2522,2522,2522,2522,2522,2522,2522,2522,2522,
0,0,0,0,0,0,0,0,0,0,2522,2471,2522,2522,2522,2522,2522,2522,2522,2522,2522,2522,2522,2522,2522,2522,2522,2522,2522,2522,2522,2522,2522,2522,2522,2522,2522,
0,0,0,0,0,0,0,0,0,0,2522,2471,2522,2522,2522,2522,2522,2522,2522,2522,2522,2522,2522,2522,2522,2522,2522,2522,2522,2522,2522,2522,2522,2522,2522,2522,2522,
0,0,0,0,0,0,0,0,0,0,2522,2471,2522,2522,2522,2522,2522,2522,2522,2522,2522,2522,2522,2522,2522,2522,2522,2522,2522,2522,2522,2522,2522,2522,2522,2522,2522,
0,0,0,0,0,0,0,0,0,0,2522,2471,2522,2522,2522,2522,2522,2507,2531,2531,2539,2530,2539,2531,2539,2530,2531,2531,2508,2522,2522,2522,2522,2522,2522,2522,2522,
0,0,0,0,0,0,0,0,0,0,2522,2471,2522,2522,2522,2522,2522,2147486169,0,0,0,0,0,0,0,0,0,0,2509,2522,2522,2522,2522,2522,2522,2522,2522,
0,0,0,0,0,0,0,0,0,0,2522,2471,2522,2522,2522,2522,2522,2523,0,0,0,0,0,0,0,0,0,0,2147486171,2522,2522,2522,2522,2522,2522,2522,2522,
0,0,0,0,0,0,0,0,0,0,2522,2471,2522,2522,2522,2522,2522,2147486169,0,0,0,0,0,0,0,0,0,0,2521,2522,2522,2522,2522,2522,2522,2522,2522,
0,0,0,0,0,0,0,0,0,0,2522,2471,2522,2522,2522,2522,2522,2147486157,0,0,0,0,0,0,0,0,0,0,2509,2522,2522,2522,2522,2522,2522,2522,2522,
0,0,0,0,0,0,0,0,0,0,2522,2471,2522,2522,2522,2522,2522,2524,2514,2513,2514,2505,2513,2505,2506,2504,2505,2514,2525,2522,2522,2522,2522,2522,2507,2508,2522,
0,0,0,0,0,0,0,0,0,0,2522,2471,2522,2522,2522,2522,2522,2522,2522,2522,2522,2522,2522,2522,2147486157,2521,2522,2522,2522,2522,2522,2522,2507,2539,2540,2538,2530,
0,0,0,0,0,0,0,0,0,0,2539,2508,2522,2522,2522,2522,2522,2522,2522,2522,2522,2522,2522,2522,2147486169,2509,2522,2522,2522,2522,2507,2539,2540,0,0,0,0,
0,0,0,0,0,0,0,0,0,0,0,2538,2539,2539,2531,2539,2530,2508,2522,2522,2522,2522,2522,2522,2147486157,2147486171,2522,2522,2522,2522,2523,0,0,0,0,0,0,
0,0,0,0,0,0,0,0,0,0,0,0,0,0,0,0,0,2538,2539,2531,2530,2531,2539,2531,2540,2538,2531,2539,2531,2539,2540,0,0,0,0,0,0,
0,0,0,0,0,0,0,0,0,0,0,0,0,0,0,0,2504,2505,2513,2506,0,0,0,0,0,0,0,0,0,0,0,0,0,0,0,0,0,
0,0,0,0,0,0,0,0,0,0,0,0,0,0,0,2504,2525,2522,2522,2524,2506,0,0,0,0,0,0,0,0,2504,2505,2513,2506,0,0,0,0,
0,0,0,0,0,0,0,0,0,0,0,0,0,0,0,2521,2522,2522,2522,2522,2523,0,0,0,0,0,0,2504,2505,2525,2522,2522,2524,2506,0,0,0,
0,0,0,0,0,0,0,0,0,0,0,0,0,0,0,0,0,0,0,0,0,0,0,0,0,0,0,0,0,0,0,0,0,0,0,0,0,
0,0,0,0,0,0,0,0,0,0,0,0,0,0,0,0,0,0,0,0,0,0,0,0,0,0,0,0,0,0,0,0,0,0,0,0,0
</data>
 </layer>
 <layer id="7" name="dressing_detail6" width="37" height="22">
  <data encoding="csv">
0,0,0,0,0,0,0,0,0,0,0,0,0,0,0,0,0,0,0,0,0,0,0,0,0,0,0,0,0,0,0,0,0,0,0,0,0,
0,0,0,0,0,0,0,0,0,0,0,0,0,0,0,0,0,0,0,0,0,0,0,0,0,0,0,0,0,0,0,0,0,0,0,0,0,
0,0,0,0,0,0,0,0,0,0,0,0,0,0,0,3155,0,0,0,2033,2034,0,0,0,0,0,0,0,0,0,0,0,0,0,3157,0,0,
0,0,0,0,0,0,0,0,0,0,0,0,0,0,0,3155,0,0,0,2054,2055,0,0,0,0,0,0,0,0,0,0,3129,3130,3145,0,0,0,
0,0,0,0,0,0,0,0,0,0,0,0,0,0,0,0,0,0,0,0,0,0,0,0,0,0,0,0,0,0,0,3146,3147,0,0,0,0,
0,0,0,0,0,0,0,0,0,0,0,0,0,3158,0,0,0,0,0,0,0,0,0,0,0,0,0,0,0,0,0,0,0,0,0,0,0,
0,0,0,0,0,0,0,0,0,0,0,0,0,0,3155,0,0,0,0,0,0,0,0,0,0,0,0,0,0,0,0,0,0,0,0,3158,0,
0,0,0,0,0,0,0,0,0,0,0,0,0,0,0,0,0,0,0,0,0,0,0,0,0,0,0,0,0,0,0,0,0,0,0,3153,0,
0,0,0,0,0,0,0,0,0,0,0,3145,0,0,0,0,0,0,0,0,0,0,0,0,0,0,0,0,0,0,3158,0,0,0,0,0,0,
0,0,0,0,0,0,0,0,0,0,0,0,0,0,0,0,0,0,0,0,0,0,0,0,0,0,0,0,0,0,0,0,3146,3147,0,0,0,
0,0,0,0,0,0,0,0,0,0,0,0,0,0,0,0,3158,0,0,0,0,0,0,0,0,0,0,0,0,0,0,0,0,0,0,0,0,
0,0,0,0,0,0,0,0,0,0,0,0,0,0,0,0,0,0,0,0,0,0,0,0,0,0,0,0,0,3153,0,0,0,0,0,0,0,
0,0,0,0,0,0,0,0,0,0,0,0,0,0,0,0,0,0,0,0,0,0,0,0,0,0,0,0,0,0,3157,0,0,0,0,0,0,
0,0,0,0,0,0,0,0,0,0,0,0,0,0,0,3157,0,0,0,0,0,0,0,0,0,0,0,0,3146,3147,0,0,0,0,0,0,0,
0,0,0,0,0,0,0,0,0,0,0,0,0,0,3146,3147,0,0,0,0,0,0,0,0,0,0,0,0,0,0,0,0,0,0,0,0,0,
0,0,0,0,0,0,0,0,0,0,0,0,0,0,0,0,0,0,0,0,0,0,0,0,0,0,0,0,0,0,0,0,0,0,0,0,0,
0,0,0,0,0,0,0,0,0,0,0,0,0,0,0,0,0,0,0,0,0,0,0,0,0,0,0,0,0,0,0,0,0,0,0,0,0,
0,0,0,0,0,0,0,0,0,0,0,0,0,0,0,0,0,0,0,0,0,0,0,0,0,0,0,0,0,0,0,0,0,0,0,0,0,
0,0,0,0,0,0,0,0,0,0,0,0,0,0,0,0,0,0,0,0,0,0,0,0,0,0,0,0,0,0,0,0,0,0,0,0,0,
0,0,0,0,0,0,0,0,0,0,0,0,0,0,0,0,0,0,0,0,0,0,0,0,0,0,0,0,0,0,0,0,0,0,0,0,0,
0,0,0,0,0,0,0,0,0,0,0,0,0,0,0,0,0,0,0,0,0,0,0,0,0,0,0,0,0,0,0,0,0,0,0,0,0,
0,0,0,0,0,0,0,0,0,0,0,0,0,0,0,0,0,0,0,0,0,0,0,0,0,0,0,0,0,0,0,0,0,0,0,0,0
</data>
 </layer>
 <layer id="8" name="dressing_details3a" width="37" height="22">
  <data encoding="csv">
0,0,0,0,0,0,0,0,0,0,0,0,0,0,0,0,0,0,0,0,0,0,0,0,0,0,0,0,0,0,0,0,0,0,0,0,0,
0,0,0,0,0,0,0,0,0,0,0,0,0,0,0,0,0,0,0,0,0,0,0,0,0,0,0,0,0,0,0,0,0,0,0,0,0,
0,0,0,0,0,0,0,0,0,0,0,0,0,0,0,0,0,0,0,0,0,0,0,0,0,0,0,0,0,0,0,0,0,0,0,0,0,
0,0,0,0,0,0,0,0,0,0,0,0,0,0,0,0,0,0,0,0,0,0,0,2147485667,2147485666,2147485665,0,0,0,0,0,0,0,0,0,0,0,
0,0,0,0,0,0,0,0,0,0,0,0,0,0,0,0,2050,2042,2172,2173,0,0,0,2147485688,2147485687,2147485686,2148,0,2004,2005,2006,0,0,0,0,0,0,
0,0,0,0,0,0,0,0,0,0,0,0,0,0,0,0,2071,2063,2193,2194,0,0,0,2147485709,2147485708,2147485707,2086,2087,2025,2026,2027,0,0,0,0,0,0,
0,0,0,0,0,0,0,0,0,0,0,0,0,0,0,0,0,0,0,0,0,0,0,0,0,0,2107,2108,2046,2047,2048,2013,0,0,0,0,0,
0,0,0,0,0,0,0,0,0,0,0,0,0,0,0,0,2166,0,0,0,0,0,0,0,0,0,0,0,0,0,2033,2034,0,0,0,0,0,
0,0,0,0,0,0,0,0,0,0,0,0,0,0,0,0,0,0,0,0,0,0,0,0,0,0,0,0,0,2122,2054,2055,0,0,0,0,0,
0,0,0,0,0,0,0,0,0,0,0,0,0,0,0,2135,2136,0,0,0,0,0,0,0,0,0,0,0,0,2143,2144,0,0,0,0,0,0,
0,0,0,0,0,0,0,0,0,0,0,0,0,0,0,2156,2157,0,0,0,0,0,0,0,0,0,0,0,0,0,0,0,0,0,0,0,0,
0,0,0,0,0,0,0,0,0,0,0,0,0,0,0,2147485823,2147485822,2005,2006,0,0,0,0,0,0,0,0,0,0,0,0,0,0,0,0,0,0,
0,0,0,0,0,0,0,0,0,0,0,0,0,0,0,2147485844,2147485843,2026,2027,0,2076,2077,2073,2074,0,2017,2018,2019,0,0,0,0,0,0,0,0,0,
0,0,0,0,0,0,0,0,0,0,0,0,0,0,0,0,2046,2047,2048,0,2097,2098,2094,2095,0,2038,2039,2040,0,2179,2180,2181,0,0,0,0,0,
0,0,0,0,0,0,0,0,0,0,0,0,0,0,0,0,2147485829,2147485828,2147485827,0,2118,2119,2115,2116,0,2059,2060,2061,0,2200,2201,2202,0,0,0,0,0,
0,0,0,0,0,0,0,0,0,0,0,0,0,0,0,0,2147485850,2147485849,2147485848,0,0,0,0,0,0,0,0,2176,2177,2178,0,0,0,0,0,0,0,
0,0,0,0,0,0,0,0,0,0,0,0,0,0,0,0,0,0,0,0,0,0,0,0,0,0,0,2197,2198,2199,0,0,0,0,0,0,0,
0,0,0,0,0,0,0,0,0,0,0,0,0,0,0,0,0,0,0,0,0,0,0,0,0,0,0,0,0,0,0,0,0,0,0,0,0,
0,0,0,0,0,0,0,0,0,0,0,0,0,0,0,0,2092,2093,2147485661,2147485660,0,0,0,0,0,0,0,0,0,0,0,2073,2074,0,0,0,0,
0,0,0,0,0,0,0,0,0,0,0,0,0,0,0,2112,2113,2114,2147485682,2147485681,0,0,0,0,0,0,0,0,2017,2018,2019,2094,2095,0,0,0,0,
0,0,0,0,0,0,0,0,0,0,0,0,0,0,0,0,0,0,0,0,0,0,0,0,0,0,0,0,0,0,0,0,0,0,0,0,0,
0,0,0,0,0,0,0,0,0,0,0,0,0,0,0,0,0,0,0,0,0,0,0,0,0,0,0,0,0,0,0,0,0,0,0,0,0
</data>
 </layer>
 <layer id="9" name="dressing_details3b" width="37" height="22">
  <data encoding="csv">
0,0,0,0,0,0,0,0,0,0,0,0,0,0,0,0,0,0,0,0,0,0,0,0,0,0,0,0,0,0,0,0,0,0,0,0,0,
0,0,0,0,0,0,0,0,0,0,0,0,0,0,0,0,0,0,0,0,0,0,0,0,0,0,0,0,0,0,0,0,0,0,0,0,0,
0,0,0,0,0,0,0,0,0,0,0,0,0,0,0,0,0,0,0,0,0,0,0,0,0,0,0,0,0,0,0,0,0,0,0,0,0,
0,0,0,0,0,0,0,0,0,0,0,0,0,0,0,0,0,0,0,0,0,0,0,0,0,0,0,0,0,0,0,0,0,0,0,0,0,
0,0,0,0,0,0,0,0,0,0,0,0,0,0,0,0,0,0,0,0,0,0,0,0,0,0,0,0,0,0,0,0,0,0,0,0,0,
0,0,0,0,0,0,0,0,0,0,0,0,0,0,0,2017,2018,2019,2016,0,0,0,0,0,0,0,0,0,0,0,0,0,0,0,0,0,0,
0,0,0,0,0,0,0,0,0,0,0,0,0,0,0,2038,2039,2040,2037,0,0,0,0,0,0,0,0,0,2059,2060,0,0,0,0,0,0,0,
0,0,0,0,0,0,0,0,0,0,0,0,0,0,0,2059,2060,2061,2058,0,0,0,0,0,0,0,0,0,2080,2081,0,0,0,0,0,0,0,
0,0,0,0,0,0,0,0,0,0,0,0,0,0,0,2147485788,2147485787,0,0,0,0,0,0,0,0,0,0,0,2101,2102,0,0,0,0,0,0,0,
0,0,0,0,0,0,0,0,0,0,0,0,0,0,0,2147485809,2147485808,0,0,0,0,0,0,0,0,0,0,0,0,0,0,0,0,0,0,0,0,
0,0,0,0,0,0,0,0,0,0,0,0,0,0,0,0,0,0,0,0,0,0,0,0,0,0,0,0,0,0,0,0,0,0,0,0,0,
0,0,0,0,0,0,0,0,0,0,0,0,0,0,0,0,0,0,0,0,0,0,0,0,0,0,0,0,0,0,0,0,0,0,0,0,0,
0,0,0,0,0,0,0,0,0,0,0,0,0,0,0,0,0,0,0,0,0,0,0,0,0,0,0,0,0,0,0,0,0,0,0,0,0,
0,0,0,0,0,0,0,0,0,0,0,0,0,0,0,0,0,0,0,0,0,0,0,0,0,0,0,0,0,0,0,0,0,0,0,0,0,
0,0,0,0,0,0,0,0,0,0,0,0,0,0,0,0,0,0,0,0,0,0,0,0,0,0,0,0,0,0,0,0,0,0,0,0,0,
0,0,0,0,0,0,0,0,0,0,0,0,0,0,0,0,0,0,2080,2081,0,0,2176,2177,2178,0,0,0,0,0,0,0,0,0,0,0,0,
0,0,0,0,0,0,0,0,0,0,0,0,0,0,0,0,0,0,2101,2102,0,0,2197,2198,2199,0,0,0,0,0,0,0,0,0,0,0,0,
0,0,0,0,0,0,0,0,0,0,0,0,0,0,0,0,0,0,0,0,0,0,0,0,0,0,0,0,0,0,0,0,0,0,0,0,0,
0,0,0,0,0,0,0,0,0,0,0,0,0,0,0,0,0,0,0,0,0,0,0,0,0,0,0,0,0,0,0,0,0,0,0,0,0,
0,0,0,0,0,0,0,0,0,0,0,0,0,0,0,0,0,0,0,0,0,0,0,0,0,0,0,0,0,0,0,0,0,0,0,0,0,
0,0,0,0,0,0,0,0,0,0,0,0,0,0,0,0,0,0,0,0,0,0,0,0,0,0,0,0,0,0,0,0,0,0,0,0,0,
0,0,0,0,0,0,0,0,0,0,0,0,0,0,0,0,0,0,0,0,0,0,0,0,0,0,0,0,0,0,0,0,0,0,0,0,0
</data>
 </layer>
 <layer id="10" name="dressing_details4" width="37" height="22">
  <data encoding="csv">
0,0,0,0,0,0,0,0,0,0,0,0,0,0,0,0,0,0,0,0,0,0,0,0,0,0,0,0,0,0,0,0,0,0,0,0,0,
0,0,0,0,0,0,0,0,0,0,0,0,0,0,0,0,0,0,0,0,0,0,0,0,0,0,0,0,0,0,0,0,0,0,0,0,0,
0,0,0,0,0,0,0,0,0,0,0,0,0,0,0,0,0,0,0,0,0,0,0,0,0,0,0,0,0,0,0,0,0,0,0,0,0,
0,0,0,0,0,0,0,0,0,0,0,0,0,0,0,0,0,0,0,0,0,0,0,0,0,0,0,0,0,0,0,0,0,0,0,0,0,
0,0,0,0,0,0,0,0,0,0,0,0,0,0,0,0,0,0,0,0,0,0,0,0,0,0,0,0,0,0,0,0,0,0,0,0,0,
0,0,0,0,0,0,0,0,0,0,0,0,0,0,0,0,0,0,0,0,0,0,0,0,0,0,0,0,0,0,0,0,0,0,0,0,0,
0,0,0,0,0,0,0,0,0,0,0,0,0,0,0,0,0,0,0,0,0,0,0,0,0,0,0,0,0,0,0,0,0,0,0,0,0,
0,0,0,0,0,0,0,0,0,0,0,0,0,0,0,0,0,0,0,0,0,0,0,0,0,0,0,0,0,0,0,0,0,0,0,0,0,
0,0,0,0,0,0,0,0,0,0,0,0,0,0,0,0,0,0,0,0,0,0,0,0,0,0,0,0,0,0,0,0,0,0,0,0,0,
0,0,0,0,0,0,0,0,0,0,0,0,0,0,0,0,0,0,0,0,0,0,0,0,0,0,0,0,0,0,0,0,0,0,0,0,0,
0,0,0,0,0,0,0,0,0,0,0,0,0,0,0,0,0,0,0,0,0,0,0,0,0,0,0,0,0,0,0,0,0,0,0,0,0,
0,0,0,0,0,0,0,0,0,0,0,0,0,0,0,0,0,0,0,0,0,0,0,0,0,0,0,0,0,0,0,0,0,0,0,0,0,
0,0,0,0,0,0,0,0,0,0,0,0,0,0,0,0,0,0,0,0,0,0,0,0,0,0,0,0,0,0,0,0,0,0,0,0,0,
0,0,0,0,0,0,0,0,0,0,0,0,0,0,0,2139,2140,0,0,0,0,0,0,0,0,0,0,0,0,0,0,0,0,0,0,0,0,
0,0,0,0,0,0,0,0,0,0,0,0,0,0,0,2160,2161,0,0,0,0,0,0,0,0,0,0,0,0,0,0,0,0,0,0,0,0,
0,0,0,0,0,0,0,0,0,0,0,0,0,0,0,0,0,0,0,0,0,0,0,0,0,0,0,0,0,0,0,0,0,0,0,0,0,
0,0,0,0,0,0,0,0,0,0,0,0,0,0,0,0,0,0,0,0,0,0,0,0,0,0,0,0,0,0,0,0,0,0,0,0,0,
0,0,0,0,0,0,0,0,0,0,0,0,0,0,0,0,0,0,0,0,0,0,0,0,0,0,0,0,0,0,0,0,0,0,0,0,0,
0,0,0,0,0,0,0,0,0,0,0,0,0,0,0,0,0,0,0,0,0,0,0,0,0,0,0,0,0,0,0,0,0,0,0,0,0,
0,0,0,0,0,0,0,0,0,0,0,0,0,0,0,0,0,0,0,0,0,0,0,0,0,0,0,0,0,0,0,0,0,0,0,0,0,
0,0,0,0,0,0,0,0,0,0,0,0,0,0,0,0,0,0,0,0,0,0,0,0,0,0,0,0,0,0,0,0,0,0,0,0,0,
0,0,0,0,0,0,0,0,0,0,0,0,0,0,0,0,0,0,0,0,0,0,0,0,0,0,0,0,0,0,0,0,0,0,0,0,0
</data>
 </layer>
 <layer id="11" name="dressing_details5" width="37" height="22">
  <data encoding="csv">
0,0,0,0,0,0,0,0,0,0,0,0,0,0,0,0,0,0,0,0,0,0,0,0,0,0,0,0,0,0,0,0,0,0,0,0,0,
0,0,0,0,0,0,0,0,0,0,0,0,0,2017,2018,2019,0,0,0,0,0,0,0,0,0,0,0,0,2017,2018,2019,0,0,0,0,0,0,
0,0,0,0,0,0,0,0,0,0,0,0,0,2038,2039,2040,2017,2018,2019,0,0,0,2017,2018,2019,0,0,0,2038,2039,2040,2008,2009,0,0,0,0,
0,0,0,0,0,0,0,0,0,0,0,0,0,2059,2060,2061,2038,2039,2040,0,0,0,2038,2039,2040,0,2007,2008,2059,2060,2061,2029,2030,0,0,0,0,
0,0,0,0,0,0,0,0,0,0,0,0,2014,2015,2016,0,2059,2060,2061,0,0,0,2059,2060,2061,0,2028,2029,2030,0,2049,2050,2051,2017,2018,2019,0,
0,0,0,0,0,0,0,0,0,0,0,0,2035,2036,2037,0,0,0,0,0,0,0,0,0,0,0,0,0,0,0,0,2017,2018,2019,2039,2040,0,
0,0,0,0,0,0,0,0,0,0,2124,2125,0,2057,2058,0,0,0,0,0,0,0,0,0,0,0,0,0,0,0,0,2038,2039,2040,2060,2061,0,
0,0,0,0,0,0,0,0,0,0,2145,2146,0,0,0,0,0,0,0,0,0,0,0,0,0,0,0,0,0,0,0,2059,2060,2061,2148,0,0,
0,0,0,0,0,0,0,0,0,0,0,2017,2018,2019,0,0,0,0,0,0,0,0,0,0,0,0,0,0,0,0,0,0,0,2148,0,0,0,
0,0,0,0,0,0,0,0,0,0,0,2038,2039,2040,0,0,0,0,0,0,0,0,0,0,0,0,0,0,0,0,0,0,0,0,0,0,0,
0,0,0,0,0,0,0,0,0,0,0,2059,2179,2180,2181,0,0,0,0,0,0,0,0,0,0,0,0,0,0,0,0,0,2174,2175,2179,2180,2181,
0,0,0,0,0,0,0,0,0,0,0,0,2200,2201,2202,0,0,0,0,0,0,0,0,0,0,0,0,0,0,0,0,2169,2195,2196,2200,2201,2202,
0,0,0,0,0,0,0,0,0,0,0,0,0,0,0,0,0,0,0,0,0,0,0,0,0,0,0,0,0,0,0,2190,2176,2177,2178,0,0,
0,0,0,0,0,0,0,0,0,0,0,2137,2138,0,0,0,0,0,0,0,0,0,0,0,0,0,0,0,0,0,0,0,2197,2198,2199,0,0,
0,0,0,0,0,0,0,0,0,0,0,2158,2159,0,0,2182,2183,2184,0,0,2084,2085,0,0,0,0,0,0,0,0,0,0,0,0,0,0,0,
0,0,0,0,0,0,0,0,0,0,0,0,0,0,0,2203,2204,2205,0,0,2105,2106,0,0,0,0,0,0,0,0,0,0,0,0,0,0,0,
0,0,0,0,0,0,0,0,0,0,0,0,0,0,0,0,0,0,0,0,2126,2127,0,0,0,0,0,0,0,0,0,0,0,0,0,0,0,
0,0,0,0,0,0,0,0,0,0,0,0,0,0,0,0,0,0,0,0,0,0,0,0,0,0,0,0,0,0,0,0,0,0,0,0,0,
0,0,0,0,0,0,0,0,0,0,0,0,0,0,0,0,2017,2018,2019,0,0,0,0,0,0,0,0,0,0,0,0,0,0,0,0,0,0,
0,0,0,0,0,0,0,0,0,0,0,0,0,0,0,0,2038,2039,2040,0,0,0,0,0,0,0,0,0,0,0,0,0,0,0,0,0,0,
0,0,0,0,0,0,0,0,0,0,0,0,0,0,0,0,2059,2060,2061,0,0,0,0,0,0,0,0,0,0,0,0,0,0,0,0,0,0,
0,0,0,0,0,0,0,0,0,0,0,0,0,0,0,0,0,0,0,0,0,0,0,0,0,0,0,0,0,0,0,0,0,0,0,0,0
</data>
 </layer>
 <layer id="12" name="dressing_objects4" width="37" height="22">
  <data encoding="csv">
0,0,0,0,0,0,0,0,0,0,0,0,0,0,0,0,0,0,0,0,0,0,0,0,0,0,0,0,0,0,0,0,0,0,0,0,0,
0,0,0,0,0,0,0,0,0,0,0,0,0,0,0,0,0,0,0,0,0,0,0,0,0,0,0,0,0,0,0,0,0,0,0,0,0,
0,0,0,0,0,0,0,0,0,0,0,0,0,0,0,0,0,0,0,0,0,0,0,0,0,0,0,3103,3104,0,0,2970,2971,2972,0,0,0,
0,0,0,0,0,0,0,0,0,0,0,0,0,0,0,0,0,0,0,0,0,0,0,0,0,0,0,3120,3121,0,0,2987,2988,2989,0,0,0,
0,0,0,0,0,0,0,0,0,0,0,0,0,0,0,0,0,0,0,0,0,0,0,0,0,0,0,0,0,0,0,3004,3005,3006,0,0,0,
0,0,0,0,0,0,0,0,0,0,0,0,0,0,0,0,0,0,0,0,0,0,0,0,0,0,0,0,0,0,0,0,0,0,0,0,0,
0,0,0,0,0,0,0,0,0,0,0,0,0,0,0,0,0,0,0,0,0,0,0,0,0,0,0,0,0,0,0,0,0,0,0,0,0,
0,0,0,0,0,0,0,0,0,0,0,0,0,0,0,0,0,0,0,0,0,0,0,0,0,0,0,0,0,0,0,0,0,0,0,0,0,
0,0,0,0,0,0,0,0,0,0,0,0,0,0,0,0,0,0,0,0,0,0,0,0,0,0,0,0,0,0,0,0,0,0,0,0,0,
0,0,0,0,0,0,0,0,0,0,0,0,3109,3110,0,0,0,0,0,0,0,0,0,0,0,0,0,0,0,0,0,0,0,0,0,0,0,
0,0,0,0,0,0,0,0,0,0,0,0,3126,3127,0,0,0,0,0,0,0,0,0,0,0,0,0,0,0,0,0,0,0,0,0,0,0,
0,0,0,0,0,0,0,0,0,0,0,0,0,0,0,0,0,0,0,0,0,0,0,0,0,0,0,0,0,0,0,0,0,0,0,0,0,
0,0,0,0,0,0,0,0,0,0,0,0,0,0,0,0,0,0,0,0,0,0,0,0,0,0,0,0,0,0,0,0,0,0,0,0,0,
0,0,0,0,0,0,0,0,0,0,0,0,0,0,0,0,0,0,0,0,0,0,0,0,0,0,0,0,0,0,0,0,0,0,0,0,0,
0,0,0,0,0,0,0,0,0,0,0,0,0,0,0,0,0,0,0,0,0,0,0,0,0,0,0,0,0,0,0,0,0,0,0,0,0,
0,0,0,0,0,0,0,0,0,0,0,0,0,0,0,0,0,0,0,0,0,0,0,0,0,0,0,0,0,0,0,0,0,0,0,0,0,
0,0,0,0,0,0,0,0,0,0,0,0,0,0,0,0,0,0,0,0,0,0,0,0,0,0,0,0,0,0,0,0,0,0,0,0,0,
0,0,0,0,0,0,0,0,0,0,0,0,0,0,0,0,0,0,0,0,0,0,0,0,0,0,0,0,0,0,0,0,0,0,0,0,0,
0,0,0,0,0,0,0,0,0,0,0,0,0,0,0,0,0,0,0,0,0,0,0,0,0,0,0,0,0,0,0,0,0,0,0,0,0,
0,0,0,0,0,0,0,0,0,0,0,0,0,0,0,0,0,0,0,0,0,0,0,0,0,0,0,0,0,0,0,0,0,0,0,0,0,
0,0,0,0,0,0,0,0,0,0,0,0,0,0,0,0,0,0,0,0,0,0,0,0,0,0,0,0,0,0,0,0,0,0,0,0,0,
0,0,0,0,0,0,0,0,0,0,0,0,0,0,0,0,0,0,0,0,0,0,0,0,0,0,0,0,0,0,0,0,0,0,0,0,0
</data>
 </layer>
 <layer id="13" name="dressing_objects1" width="37" height="22">
  <data encoding="csv">
0,0,0,0,0,0,0,0,0,0,0,0,0,0,0,0,0,0,0,0,0,0,0,0,0,0,0,0,0,0,0,0,0,0,0,0,0,
0,0,0,0,0,0,0,0,0,0,0,0,0,0,0,0,0,0,0,0,0,0,0,0,0,0,0,0,0,0,0,0,0,0,0,0,0,
0,0,0,0,0,0,0,0,0,0,0,0,0,0,0,0,0,2754,2755,0,0,0,0,0,0,0,0,0,0,0,0,0,0,0,0,0,0,
0,0,0,0,0,0,0,0,0,0,0,0,0,0,2967,2968,2969,2698,2699,0,0,3042,3043,0,0,0,0,0,0,0,0,0,0,0,0,0,0,
0,0,0,0,0,0,0,0,0,0,0,0,0,0,2984,2985,2986,2715,2716,0,0,0,0,3008,3009,3010,3011,0,0,0,0,0,2844,2845,2846,2847,0,
0,0,0,0,0,0,0,0,0,0,0,0,0,0,3001,3002,3003,0,0,0,0,0,0,0,0,0,0,0,0,0,0,0,2861,2862,2863,2864,0,
0,0,0,0,0,0,0,0,0,0,0,0,0,0,0,0,0,0,0,0,0,0,0,0,0,0,0,0,0,0,0,0,2878,2879,2880,2881,0,
0,0,0,0,0,0,0,0,0,0,0,0,0,0,0,0,0,0,0,0,0,0,0,0,0,0,0,0,2678,2679,2680,2681,2895,2896,0,0,0,
0,0,0,0,0,0,0,0,0,0,0,0,0,0,0,0,0,0,0,0,0,0,0,0,0,0,0,0,0,0,0,0,0,0,0,0,0,
0,0,0,0,0,0,0,0,0,0,0,0,0,0,0,0,0,0,0,0,0,0,0,0,0,0,0,0,0,0,2796,2797,2798,0,2619,2620,0,
0,0,0,0,0,0,0,0,0,0,0,0,0,2682,2683,2684,2685,0,0,0,0,0,0,0,0,0,0,0,0,0,2813,2814,2815,2923,0,0,0,
0,0,0,0,0,0,0,0,0,0,0,0,0,0,2848,2849,0,0,0,0,0,0,0,0,0,0,0,0,0,0,2830,2831,3075,3076,0,0,0,
0,0,0,0,0,0,0,0,0,0,0,0,0,0,2865,2866,0,0,2686,2687,2688,0,2898,2899,0,0,0,0,0,0,2694,2695,3092,3093,0,0,0,
0,0,0,0,0,0,0,0,0,0,5731,5732,5733,0,2882,2883,0,0,2703,2704,2705,0,2915,2916,0,0,0,2692,0,0,2711,2712,0,0,0,0,0,
0,0,0,0,0,0,0,0,0,0,0,0,0,0,0,0,0,0,2720,2721,2722,0,0,0,0,0,0,0,0,0,0,0,0,0,0,0,0,
0,0,0,0,0,0,0,0,0,0,0,0,0,0,0,0,0,0,0,0,0,0,0,0,0,0,0,0,0,0,0,0,0,0,0,0,0,
0,0,0,0,0,0,0,0,0,0,0,0,0,0,0,0,0,0,0,0,0,0,0,0,0,0,0,0,0,0,0,0,0,0,0,0,0,
0,0,0,0,0,0,0,0,0,0,0,0,0,0,0,0,0,0,0,0,0,0,3031,3032,3033,3034,0,0,0,0,0,0,0,0,0,0,0,
0,0,0,0,0,0,0,0,0,0,0,0,0,0,0,0,2515,2516,2517,2518,0,0,3048,3049,3050,3051,0,0,0,0,0,0,0,0,0,0,0,
0,0,0,0,0,0,0,0,0,0,0,0,0,0,0,0,0,0,0,0,0,0,3065,3066,3067,3068,0,0,0,2674,2675,2676,2677,0,0,0,0,
0,0,0,0,0,0,0,0,0,0,0,0,0,0,0,0,0,0,0,0,0,0,0,0,0,0,0,0,0,0,0,0,0,0,0,0,0,
0,0,0,0,0,0,0,0,0,0,0,0,0,0,0,0,0,0,0,0,0,0,0,0,0,0,0,0,0,0,0,0,0,0,0,0,0
</data>
 </layer>
 <layer id="14" name="dressing_objects2" width="37" height="22">
  <data encoding="csv">
0,0,0,0,0,0,0,0,0,0,0,0,0,0,0,0,0,0,0,0,0,0,0,0,0,0,0,0,0,0,0,0,0,0,0,0,0,
0,0,0,0,0,0,0,0,0,0,0,0,0,0,0,0,0,0,0,0,0,0,0,0,0,0,0,0,0,0,0,0,0,0,0,0,0,
0,0,0,0,0,0,0,0,0,0,0,0,0,0,0,0,0,0,0,0,0,0,0,0,0,0,0,0,0,0,0,0,0,0,2912,2913,2914,
0,0,0,0,0,0,0,0,0,0,0,0,0,0,0,0,0,0,0,0,0,0,0,0,0,0,0,0,0,0,0,0,0,0,2929,2930,2931,
0,0,0,0,0,0,0,0,0,0,0,0,0,0,0,0,0,0,0,0,0,0,0,0,0,2921,2922,0,0,0,0,0,0,0,2946,2947,2948,
0,0,0,0,0,0,0,0,0,0,5746,5747,5748,5749,5750,0,0,0,0,0,0,0,0,0,0,2938,2939,0,0,0,0,0,0,0,0,0,0,
0,0,0,0,0,0,0,0,0,0,0,3060,3061,3062,0,0,0,0,0,0,0,0,0,0,0,0,0,0,0,0,0,0,0,0,0,0,0,
0,0,0,0,0,0,0,0,0,0,0,3077,3078,3079,0,0,0,0,0,0,0,0,0,0,0,0,0,0,0,0,0,0,0,0,0,0,0,
0,0,0,0,0,0,0,0,0,0,0,3094,3095,3096,0,0,0,0,0,0,0,0,0,0,0,0,0,0,0,0,0,3044,3045,0,0,0,0,
0,0,0,0,0,0,0,0,0,0,0,0,0,0,0,0,0,0,0,0,0,0,0,0,0,0,0,0,0,0,0,0,0,0,0,0,0,
0,0,0,0,0,0,0,0,0,0,0,0,0,0,0,0,0,0,0,0,0,0,0,0,0,0,0,0,0,0,0,0,0,0,0,0,0,
0,0,0,0,0,0,0,0,0,0,0,0,0,0,0,0,0,0,0,0,0,0,0,0,0,0,0,0,0,0,0,0,0,0,0,0,0,
0,0,0,0,0,0,0,0,0,0,0,0,0,0,0,0,0,0,0,0,0,0,0,0,0,0,0,0,0,0,0,0,0,0,0,0,0,
0,0,0,0,0,0,0,0,0,0,0,0,2696,2697,0,0,0,0,0,0,0,0,0,0,0,0,0,0,0,0,0,0,0,0,0,0,0,
0,0,0,0,0,0,0,0,0,0,0,0,2713,2714,0,0,0,0,0,0,0,0,0,0,0,0,0,0,0,0,0,0,0,0,0,0,0,
0,0,0,0,0,0,0,0,0,0,0,0,0,0,0,0,0,0,0,0,0,0,0,0,0,0,0,0,0,0,0,0,0,0,0,0,0,
0,0,0,0,0,0,0,0,0,0,0,0,0,0,0,0,0,0,0,0,0,0,0,0,0,0,0,0,0,0,0,0,0,0,0,0,0,
0,0,0,0,0,0,0,0,0,0,0,0,0,0,0,0,0,0,0,0,0,0,0,0,0,0,0,0,0,0,0,0,0,0,0,0,0,
0,0,0,0,0,0,0,0,0,0,0,0,0,0,2889,2890,2891,2892,0,0,0,0,0,0,0,0,0,0,0,0,0,0,0,0,0,0,0,
0,0,0,0,0,0,0,0,0,0,0,0,0,0,2906,2907,2908,2909,0,0,0,0,0,0,0,0,0,0,0,0,0,0,0,0,0,0,0,
0,0,0,0,0,0,0,0,0,0,0,0,0,0,0,0,0,0,0,0,0,0,0,0,0,0,0,0,0,0,0,0,0,0,0,0,0,
0,0,0,0,0,0,0,0,0,0,0,0,0,0,0,0,0,0,0,0,0,0,0,0,0,0,0,0,0,0,0,0,0,0,0,0,0
</data>
 </layer>
 <layer id="15" name="dressing_fence" width="37" height="22">
  <data encoding="csv">
0,0,0,0,0,0,0,0,0,0,0,0,0,0,0,0,0,0,0,0,0,0,0,0,0,0,0,0,0,0,0,0,0,0,0,0,0,
0,0,0,0,0,0,0,0,0,0,0,0,0,0,0,0,0,0,0,0,0,0,0,0,0,0,0,0,0,0,0,0,0,0,0,0,0,
0,0,0,0,0,0,0,0,0,0,0,0,0,0,0,0,0,0,0,0,0,0,0,0,0,0,0,0,0,0,0,0,0,0,0,0,0,
0,0,0,0,0,0,0,0,0,0,0,0,0,0,0,0,0,0,0,0,0,0,0,0,0,0,0,0,0,0,0,0,0,0,0,0,0,
0,0,0,0,0,0,0,0,0,0,0,0,0,0,0,0,0,0,0,0,0,0,0,0,0,0,0,0,0,0,0,0,0,0,0,0,0,
0,0,0,0,0,0,0,0,0,0,0,0,0,0,0,0,0,0,0,0,0,0,0,0,0,0,0,0,0,0,0,0,0,0,0,0,0,
0,0,0,0,0,0,0,0,0,0,0,0,0,0,0,0,2259,2260,2260,2260,2260,2260,2260,2260,2260,2260,2260,2260,2260,2261,0,0,0,0,0,0,0,
0,0,0,0,0,0,0,0,0,0,0,0,0,0,0,0,2276,0,0,0,0,0,0,0,0,0,0,0,0,2278,0,0,0,0,0,0,0,
0,0,0,0,0,0,0,0,0,0,0,0,0,0,0,0,2276,0,0,0,0,0,0,0,0,0,0,0,0,2278,0,0,0,0,0,0,0,
0,0,0,0,0,0,0,0,0,0,0,0,0,0,0,0,2276,0,0,0,0,0,0,0,0,0,0,0,0,2278,0,0,0,0,0,0,0,
0,0,0,0,0,0,0,0,0,0,0,0,0,0,0,0,2276,0,0,0,0,0,0,0,0,0,0,0,0,2278,0,0,0,0,0,0,0,
0,0,0,0,0,0,0,0,0,0,0,0,0,0,0,0,2276,0,0,0,0,0,0,0,0,0,0,0,0,2278,0,0,0,0,0,0,0,
0,0,0,0,0,0,0,0,0,0,0,0,0,0,0,0,2276,0,0,0,0,0,0,0,0,0,0,0,0,2278,0,0,0,0,0,0,0,
0,0,0,0,0,0,0,0,0,0,0,0,0,0,0,0,2276,0,0,0,0,0,0,0,0,0,0,0,0,2278,0,0,0,0,0,0,0,
0,0,0,0,0,0,0,0,0,0,0,0,0,0,0,0,2293,2294,2294,2294,2294,2294,2294,2294,2245,2246,2294,2294,2294,2295,0,0,0,0,0,0,0,
0,0,0,0,0,0,0,0,0,0,0,0,0,0,0,0,0,0,0,0,0,0,0,0,0,0,0,0,0,0,0,0,0,0,0,0,0,
0,0,0,0,0,0,0,0,0,0,0,0,0,0,0,0,0,0,0,0,0,0,0,0,0,0,0,0,0,0,0,0,0,0,0,0,0,
0,0,0,0,0,0,0,0,0,0,0,0,0,0,0,0,0,0,0,0,0,0,0,0,0,0,0,0,0,0,0,0,0,0,0,0,0,
0,0,0,0,0,0,0,0,0,0,0,0,0,0,0,0,0,0,0,0,0,0,0,0,0,0,0,0,0,0,0,0,0,0,0,0,0,
0,0,0,0,0,0,0,0,0,0,0,0,0,0,0,0,0,0,0,0,0,0,0,0,0,0,0,0,0,0,0,0,0,0,0,0,0,
0,0,0,0,0,0,0,0,0,0,0,0,0,0,0,0,0,0,0,0,0,0,0,0,0,0,0,0,0,0,0,0,0,0,0,0,0,
0,0,0,0,0,0,0,0,0,0,0,0,0,0,0,0,0,0,0,0,0,0,0,0,0,0,0,0,0,0,0,0,0,0,0,0,0
</data>
 </layer>
 <layer id="16" name="dressing_house" width="37" height="22">
  <data encoding="csv">
0,0,0,0,0,0,0,0,0,0,0,0,0,0,0,0,0,0,0,0,0,0,0,0,0,0,0,0,0,0,0,0,0,0,0,0,0,
0,0,0,0,0,0,0,0,0,0,0,0,0,0,0,0,0,0,0,0,0,0,0,0,0,0,0,0,0,0,0,0,0,0,0,0,0,
0,0,0,0,0,0,0,0,0,0,0,0,0,0,0,0,0,0,0,0,0,0,0,0,0,0,0,0,0,0,0,0,0,0,0,0,0,
0,0,0,0,0,0,0,0,0,0,0,0,0,0,0,0,0,0,0,0,0,0,0,0,0,0,0,0,0,0,0,0,0,0,0,0,0,
0,0,0,0,0,0,0,0,0,0,0,0,0,0,0,0,0,0,0,0,0,0,0,0,0,0,0,0,0,0,0,0,0,0,0,0,0,
0,0,0,0,0,0,0,0,0,0,0,0,0,0,0,0,0,0,0,3184,3185,3186,3187,3188,3189,3190,3191,0,0,0,0,0,0,0,0,0,0,
0,0,0,0,0,0,0,0,0,0,0,0,0,0,0,0,0,0,0,3194,3195,3196,3197,3198,3199,3200,3201,0,0,0,0,0,0,0,0,0,0,
0,0,0,0,0,0,0,0,0,0,0,0,0,0,0,0,0,0,0,3204,3205,3206,3207,3208,3209,3210,3211,0,0,0,0,0,0,0,0,0,0,
0,0,0,0,0,0,0,0,0,0,0,0,0,0,0,0,0,0,0,3214,3215,3216,3217,3218,3219,3220,3221,0,0,0,0,0,0,0,0,0,0,
0,0,0,0,0,0,0,0,0,0,0,0,0,0,0,0,0,0,0,3224,3225,3226,3227,3228,3407,3408,3231,0,0,0,0,0,0,0,0,0,0,
0,0,0,0,0,0,0,0,0,0,0,0,0,0,0,0,0,0,0,3234,3235,3236,3237,3238,3424,3425,3241,0,0,0,0,0,0,0,0,0,0,
0,0,0,0,0,0,0,0,0,0,0,0,0,0,0,0,0,0,0,0,0,0,0,0,0,0,0,0,0,0,0,0,0,0,0,0,0,
0,0,0,0,0,0,0,0,0,0,0,0,0,0,0,0,0,0,0,0,0,0,0,0,0,0,0,0,0,0,0,0,0,0,0,0,0,
0,0,0,0,0,0,0,0,0,0,0,0,0,0,0,0,0,0,0,0,0,0,0,0,0,0,0,0,0,0,0,0,0,0,0,0,0,
0,0,0,0,0,0,0,0,0,0,0,0,0,0,0,0,0,0,0,0,0,0,0,0,0,0,0,0,0,0,0,0,0,0,0,0,0,
0,0,0,0,0,0,0,0,0,0,0,0,0,0,0,0,0,0,0,0,0,0,0,0,0,0,0,0,0,0,0,0,0,0,0,0,0,
0,0,0,0,0,0,0,0,0,0,0,0,0,0,0,0,0,0,0,0,0,0,0,0,0,0,0,0,0,0,0,0,0,0,0,0,0,
0,0,0,0,0,0,0,0,0,0,0,0,0,0,0,0,0,0,0,0,0,0,0,0,0,0,0,0,0,0,0,0,0,0,0,0,0,
0,0,0,0,0,0,0,0,0,0,0,0,0,0,0,0,0,0,0,0,0,0,0,0,0,0,0,0,0,0,0,0,0,0,0,0,0,
0,0,0,0,0,0,0,0,0,0,0,0,0,0,0,0,0,0,0,0,0,0,0,0,0,0,0,0,0,0,0,0,0,0,0,0,0,
0,0,0,0,0,0,0,0,0,0,0,0,0,0,0,0,0,0,0,0,0,0,0,0,0,0,0,0,0,0,0,0,0,0,0,0,0,
0,0,0,0,0,0,0,0,0,0,0,0,0,0,0,0,0,0,0,0,0,0,0,0,0,0,0,0,0,0,0,0,0,0,0,0,0
</data>
 </layer>
 <layer id="17" name="dressing_windows1" width="37" height="22">
  <data encoding="csv">
0,0,0,0,0,0,0,0,0,0,0,0,0,0,0,0,0,0,0,0,0,0,0,0,0,0,0,0,0,0,0,0,0,0,0,0,0,
0,0,0,0,0,0,0,0,0,0,0,0,0,0,0,0,0,0,0,0,0,0,0,0,0,0,0,0,0,0,0,0,0,0,0,0,0,
0,0,0,0,0,0,0,0,0,0,0,0,0,0,0,0,0,0,0,0,0,0,0,0,0,0,0,0,0,0,0,0,0,0,0,0,0,
0,0,0,0,0,0,0,0,0,0,0,0,0,0,0,0,0,0,0,0,0,0,0,0,0,0,0,0,0,0,0,0,0,0,0,0,0,
0,0,0,0,0,0,0,0,0,0,0,0,0,0,0,0,0,0,0,0,0,0,0,0,0,0,0,0,0,0,0,0,0,0,0,0,0,
0,0,0,0,0,0,0,0,0,0,0,0,0,0,0,0,0,0,0,0,0,0,0,0,0,0,0,0,0,0,0,0,0,0,0,0,0,
0,0,0,0,0,0,0,0,0,0,0,0,0,0,0,0,0,0,0,0,0,0,0,0,0,0,0,0,0,0,0,0,0,0,0,0,0,
0,0,0,0,0,0,0,0,0,0,0,0,0,0,0,0,0,0,0,0,0,3419,3420,3421,0,0,0,0,0,0,0,0,0,0,0,0,0,
0,0,0,0,0,0,0,0,0,0,0,0,0,0,0,0,0,0,0,0,0,3436,3437,3438,0,0,0,0,0,0,0,0,0,0,0,0,0,
0,0,0,0,0,0,0,0,0,0,0,0,0,0,0,0,0,0,0,3413,3414,3415,3416,0,0,0,0,0,0,0,0,0,0,0,0,0,0,
0,0,0,0,0,0,0,0,0,0,0,0,0,0,0,0,0,0,0,3430,3431,3432,3433,0,0,0,0,0,0,0,0,0,0,0,0,0,0,
0,0,0,0,0,0,0,0,0,0,0,0,0,0,0,0,0,0,0,0,0,3338,3339,0,0,0,0,0,0,0,0,0,0,0,0,0,0,
0,0,0,0,0,0,0,0,0,0,0,0,0,0,0,0,0,0,0,0,0,0,0,0,0,0,0,0,0,0,0,0,0,0,0,0,0,
0,0,0,0,0,0,0,0,0,0,0,0,0,0,0,0,0,0,0,0,0,0,0,0,0,0,0,0,0,0,0,0,0,0,0,0,0,
0,0,0,0,0,0,0,0,0,0,0,0,0,0,0,0,0,0,0,0,0,0,0,0,0,0,0,0,0,0,0,0,0,0,0,0,0,
0,0,0,0,0,0,0,0,0,0,0,0,0,0,0,0,0,0,0,0,0,0,0,0,0,0,0,0,0,0,0,0,0,0,0,0,0,
0,0,0,0,0,0,0,0,0,0,0,0,0,0,0,0,0,0,0,0,0,0,0,0,0,0,0,0,0,0,0,0,0,0,0,0,0,
0,0,0,0,0,0,0,0,0,0,0,0,0,0,0,0,0,0,0,0,0,0,0,0,0,0,0,0,0,0,0,0,0,0,0,0,0,
0,0,0,0,0,0,0,0,0,0,0,0,0,0,0,0,0,0,0,0,0,0,0,0,0,0,0,0,0,0,0,0,0,0,0,0,0,
0,0,0,0,0,0,0,0,0,0,0,0,0,0,0,0,0,0,0,0,0,0,0,0,0,0,0,0,0,0,0,0,0,0,0,0,0,
0,0,0,0,0,0,0,0,0,0,0,0,0,0,0,0,0,0,0,0,0,0,0,0,0,0,0,0,0,0,0,0,0,0,0,0,0,
0,0,0,0,0,0,0,0,0,0,0,0,0,0,0,0,0,0,0,0,0,0,0,0,0,0,0,0,0,0,0,0,0,0,0,0,0
</data>
 </layer>
 <layer id="18" name="dressing_windows2" width="37" height="22">
  <data encoding="csv">
0,0,0,0,0,0,0,0,0,0,0,0,0,0,0,0,0,0,0,0,0,0,0,0,0,0,0,0,0,0,0,0,0,0,0,0,0,
0,0,0,0,0,0,0,0,0,0,0,0,0,0,0,0,0,0,0,0,0,0,0,0,0,0,0,0,0,0,0,0,0,0,0,0,0,
0,0,0,0,0,0,0,0,0,0,0,0,0,0,0,0,0,0,0,0,0,0,0,0,0,0,0,0,0,0,0,0,0,0,0,0,0,
0,0,0,0,0,0,0,0,0,0,0,0,0,0,0,0,0,0,0,0,0,0,0,0,0,0,0,0,0,0,0,0,0,0,0,0,0,
0,0,0,0,0,0,0,0,0,0,0,0,0,0,0,0,0,0,0,0,0,0,0,0,0,0,0,0,0,0,0,0,0,0,0,0,0,
0,0,0,0,0,0,0,0,0,0,0,0,0,0,0,0,0,0,0,0,0,0,0,0,0,0,0,0,0,0,0,0,0,0,0,0,0,
0,0,0,0,0,0,0,0,0,0,0,0,0,0,0,0,0,0,0,0,0,0,0,0,0,0,0,0,0,0,0,0,0,0,0,0,0,
0,0,0,0,0,0,0,0,0,0,0,0,0,0,0,0,0,0,0,0,0,0,0,0,0,0,0,0,0,0,0,0,0,0,0,0,0,
0,0,0,0,0,0,0,0,0,0,0,0,0,0,0,0,0,0,0,0,0,0,0,0,0,0,0,0,0,0,0,0,0,0,0,0,0,
0,0,0,0,0,0,0,0,0,0,0,0,0,0,0,0,0,0,0,0,0,0,3417,3418,0,0,0,0,0,0,0,0,0,0,0,0,0,
0,0,0,0,0,0,0,0,0,0,0,0,0,0,0,0,0,0,0,0,0,0,3434,3435,0,0,0,0,0,0,0,0,0,0,0,0,0,
0,0,0,0,0,0,0,0,0,0,0,0,0,0,0,0,0,0,0,0,0,0,0,0,0,0,0,0,0,0,0,0,0,0,0,0,0,
0,0,0,0,0,0,0,0,0,0,0,0,0,0,0,0,0,0,0,0,0,0,0,0,0,0,0,0,0,0,0,0,0,0,0,0,0,
0,0,0,0,0,0,0,0,0,0,0,0,0,0,0,0,0,0,0,0,0,0,0,0,0,0,0,0,0,0,0,0,0,0,0,0,0,
0,0,0,0,0,0,0,0,0,0,0,0,0,0,0,0,0,0,0,0,0,0,0,0,0,0,0,0,0,0,0,0,0,0,0,0,0,
0,0,0,0,0,0,0,0,0,0,0,0,0,0,0,0,0,0,0,0,0,0,0,0,0,0,0,0,0,0,0,0,0,0,0,0,0,
0,0,0,0,0,0,0,0,0,0,0,0,0,0,0,0,0,0,0,0,0,0,0,0,0,0,0,0,0,0,0,0,0,0,0,0,0,
0,0,0,0,0,0,0,0,0,0,0,0,0,0,0,0,0,0,0,0,0,0,0,0,0,0,0,0,0,0,0,0,0,0,0,0,0,
0,0,0,0,0,0,0,0,0,0,0,0,0,0,0,0,0,0,0,0,0,0,0,0,0,0,0,0,0,0,0,0,0,0,0,0,0,
0,0,0,0,0,0,0,0,0,0,0,0,0,0,0,0,0,0,0,0,0,0,0,0,0,0,0,0,0,0,0,0,0,0,0,0,0,
0,0,0,0,0,0,0,0,0,0,0,0,0,0,0,0,0,0,0,0,0,0,0,0,0,0,0,0,0,0,0,0,0,0,0,0,0,
0,0,0,0,0,0,0,0,0,0,0,0,0,0,0,0,0,0,0,0,0,0,0,0,0,0,0,0,0,0,0,0,0,0,0,0,0
</data>
 </layer>
 <layer id="19" name="dressing_objects3" width="37" height="22">
  <data encoding="csv">
0,0,0,0,0,0,0,0,0,0,0,0,0,0,0,0,0,0,0,0,0,0,0,0,0,0,0,0,0,0,0,0,0,0,0,0,0,
0,0,0,0,0,0,0,0,0,0,0,0,0,0,0,0,0,0,0,0,0,0,0,0,0,0,0,0,0,0,0,0,0,0,0,0,0,
0,0,0,0,0,0,0,0,0,0,0,0,0,0,0,0,0,0,0,0,0,0,0,0,0,0,0,0,0,0,0,0,0,0,0,0,0,
0,0,0,0,0,0,0,0,0,0,0,0,0,0,0,0,0,0,0,0,0,0,0,0,0,0,0,0,0,0,0,0,0,0,0,0,0,
0,0,0,0,0,0,0,0,0,0,0,0,0,0,0,0,0,0,0,0,0,0,0,0,0,0,0,2693,0,0,0,0,0,0,0,0,0,
0,0,0,0,0,0,0,0,0,0,0,0,0,0,0,2885,2886,0,0,0,0,0,0,0,0,0,0,0,0,0,0,0,0,0,0,0,2692,
0,0,0,0,0,0,0,0,0,0,0,0,0,0,0,2902,2903,0,0,0,0,0,0,0,0,0,0,0,0,0,0,0,0,0,0,0,0,
0,0,0,0,0,0,0,0,0,0,0,0,0,0,0,0,0,0,0,0,0,0,0,0,0,0,0,0,0,0,0,0,0,0,0,0,0,
0,0,0,0,0,0,0,0,0,0,2932,2933,0,0,0,0,0,0,0,0,0,0,0,0,0,0,0,0,0,0,0,0,0,0,0,2940,2941,
0,0,0,0,0,0,0,0,0,0,2949,2950,0,0,0,0,0,0,0,0,0,0,0,0,0,0,0,2850,2851,0,0,0,0,0,0,0,0,
0,0,0,0,0,0,0,0,0,0,0,0,0,0,0,0,0,0,2799,2800,0,0,0,0,0,0,0,2867,2868,0,0,0,0,0,0,0,0,
0,0,0,0,0,0,0,0,0,0,0,0,0,0,0,0,0,0,2816,2817,0,0,0,0,0,0,2887,2888,0,0,0,0,0,0,0,0,0,
0,0,0,0,0,0,0,0,0,0,0,0,0,0,0,0,0,0,2833,2834,0,0,0,0,0,0,2904,2905,0,0,0,0,0,0,0,5751,5752,
0,0,0,0,0,0,0,0,0,0,0,0,0,0,0,0,0,0,0,0,0,0,0,0,0,0,0,0,0,0,0,0,0,0,0,0,0,
0,0,0,0,0,0,0,0,0,0,0,0,0,0,0,0,0,0,0,0,0,0,2932,2933,0,0,2147486549,2147486548,0,0,0,0,2752,0,0,0,0,
0,0,0,0,0,0,0,0,0,0,0,0,0,0,2771,2772,0,0,0,0,0,2691,2949,2950,0,0,2147486566,2147486565,0,0,0,0,0,0,0,0,0,
0,0,0,0,0,0,0,0,0,0,0,0,0,0,2788,2789,0,0,0,0,0,0,0,0,0,0,0,0,0,0,0,0,0,0,0,0,0,
0,0,0,0,0,0,0,0,0,0,0,2751,0,0,0,0,0,0,0,0,0,0,0,0,0,0,3088,3089,0,0,0,0,0,0,2732,2733,0,
0,0,0,0,0,0,0,0,0,0,0,0,2728,2729,0,0,0,0,0,0,0,2739,0,0,0,0,3105,3106,0,0,0,0,0,0,2749,2750,0,
0,0,0,0,0,0,0,0,0,0,0,0,2745,2746,0,0,0,0,0,0,0,0,0,0,0,0,3122,3123,0,0,0,0,0,0,0,0,0,
0,0,0,0,0,0,0,0,0,0,0,0,0,0,0,0,0,0,0,0,0,0,0,0,0,0,0,0,0,0,0,0,0,0,0,0,0,
0,0,0,0,0,0,0,0,0,0,0,0,0,0,0,0,0,0,0,0,0,0,0,0,0,0,0,0,0,0,0,0,0,0,0,0,0
</data>
 </layer>
 <layer id="20" name="dressing_top" width="37" height="22">
  <data encoding="csv">
0,0,0,0,0,0,0,0,0,0,0,0,0,0,0,0,0,0,0,0,0,0,0,0,0,0,0,0,0,0,0,0,0,0,0,0,0,
0,0,0,0,0,0,0,0,0,0,0,0,0,0,0,0,0,0,0,0,0,0,0,0,0,0,0,0,0,0,0,0,0,0,0,0,0,
0,0,0,0,0,0,0,0,0,0,0,0,0,0,0,0,3136,0,0,0,0,0,0,0,0,0,0,0,0,0,0,3134,0,3136,0,0,0,
0,0,0,0,0,0,0,0,0,0,0,0,0,0,0,0,0,0,0,0,0,0,0,0,0,0,0,0,0,0,0,0,0,0,0,0,0,
0,0,0,0,0,0,0,0,0,0,0,0,0,0,0,0,0,0,3135,3151,0,0,0,0,0,0,0,0,0,0,0,0,0,0,0,0,0,
0,0,0,0,0,0,0,0,0,0,3135,0,0,0,3133,0,0,3138,3152,0,0,0,0,0,0,0,0,3143,0,0,0,0,0,0,0,0,0,
0,0,0,0,0,0,0,0,0,0,3152,0,0,0,3150,3144,0,0,0,0,0,0,0,0,0,0,0,0,0,0,0,0,0,0,0,3151,3128,
0,0,0,0,0,0,0,0,0,0,3139,0,0,0,0,0,0,3143,0,0,0,0,0,0,0,0,0,0,0,0,0,0,0,3139,0,0,3138,
0,0,0,0,0,0,0,0,0,0,0,0,3134,0,0,0,0,0,0,0,0,0,0,0,0,0,0,0,0,0,3151,0,0,0,0,0,0,
0,0,0,0,0,0,0,0,0,0,0,0,0,0,0,0,0,0,0,0,0,0,0,0,0,0,0,0,0,0,0,0,0,3133,0,0,0,
0,0,0,0,0,0,0,0,0,0,3142,0,3111,3135,0,0,0,0,0,0,0,0,0,0,0,0,0,0,0,0,0,0,0,3150,3135,0,0,
0,0,0,0,0,0,0,0,0,0,0,0,0,3152,0,0,0,0,0,0,0,0,0,0,0,0,3133,0,0,0,3151,0,0,0,3152,0,0,
0,0,0,0,0,0,0,0,0,0,0,0,0,3151,0,0,0,0,0,0,0,3135,0,0,0,0,3150,0,3111,0,0,0,0,0,0,0,0,
0,0,0,0,0,0,0,0,0,0,0,0,0,0,0,0,0,3140,0,0,0,3152,0,0,0,0,0,0,0,0,0,0,0,0,0,0,0,
0,0,0,0,0,0,0,0,0,0,0,0,0,3136,3139,0,0,0,0,0,0,0,0,0,0,0,0,0,0,0,0,0,0,0,0,0,0,
0,0,0,0,0,0,0,0,0,0,0,0,0,0,0,0,0,0,0,0,3134,0,0,0,0,0,0,0,3142,3138,0,0,0,0,0,0,0,
0,0,0,0,0,0,0,0,0,0,0,0,0,0,0,0,0,0,0,0,0,0,0,0,0,0,0,0,0,0,0,0,0,0,0,0,0,
0,0,0,0,0,0,0,0,0,0,0,0,0,0,0,0,0,0,0,0,0,0,0,0,0,0,0,0,0,0,0,0,0,0,0,0,0,
0,0,0,0,0,0,0,0,0,0,0,0,0,0,0,0,0,0,0,3133,0,0,0,0,0,0,0,0,0,0,0,0,0,0,0,0,0,
0,0,0,0,0,0,0,0,0,0,0,0,0,0,0,0,0,0,0,3150,0,0,0,0,0,0,0,0,0,0,0,0,3140,0,0,0,0,
0,0,0,0,0,0,0,0,0,0,0,0,0,0,0,0,0,0,0,0,0,0,0,0,0,0,0,0,0,0,0,0,0,0,0,0,0,
0,0,0,0,0,0,0,0,0,0,0,0,0,0,0,0,0,0,0,0,0,0,0,0,0,0,0,0,0,0,0,0,0,0,0,0,0
</data>
 </layer>
 <layer id="21" name="dressing_cat" width="37" height="22">
  <data encoding="csv">
0,0,0,0,0,0,0,0,0,0,0,0,0,0,0,0,0,0,0,0,0,0,0,0,0,0,0,0,0,0,0,0,0,0,0,0,0,
0,0,0,0,0,0,0,0,0,0,0,0,0,0,0,0,0,0,0,0,0,0,0,0,0,0,0,0,0,0,0,0,0,0,0,0,0,
0,0,0,0,0,0,0,0,0,0,0,0,0,0,0,0,0,0,0,0,0,0,0,0,0,0,0,0,0,0,0,0,0,0,0,0,0,
0,0,0,0,0,0,0,0,0,0,0,0,0,0,0,0,0,0,0,0,0,0,0,0,0,0,0,0,0,0,0,0,0,0,0,0,0,
0,0,0,0,0,0,0,0,0,0,0,0,0,0,0,0,0,0,0,0,0,0,0,0,0,0,0,0,0,0,0,0,0,0,0,0,0,
0,0,0,0,0,0,0,0,0,0,0,0,0,0,0,0,0,0,0,0,0,0,0,0,0,0,0,0,0,0,0,0,0,0,0,0,0,
0,0,0,0,0,0,0,0,0,0,0,0,0,0,0,0,0,0,0,0,0,0,0,0,0,0,0,0,0,0,0,0,0,0,0,0,0,
0,0,0,0,0,0,0,0,0,0,0,0,0,0,0,0,0,0,0,0,0,0,0,0,0,0,0,0,0,0,0,0,0,0,0,0,0,
0,0,0,0,0,0,0,0,0,0,0,0,0,0,0,0,0,0,0,0,0,0,0,0,0,0,0,0,0,0,0,0,0,0,0,0,0,
0,0,0,0,0,0,0,0,0,0,0,0,0,0,0,0,0,0,0,0,0,0,0,0,0,0,0,0,0,0,0,0,0,0,0,0,0,
0,0,0,0,0,0,0,0,0,0,0,0,0,0,0,0,0,0,0,0,0,0,0,0,0,0,0,0,0,0,0,0,0,0,0,0,0,
0,0,0,0,0,0,0,0,0,0,0,0,0,0,0,0,0,0,0,0,0,0,0,0,0,0,0,0,0,0,0,0,0,0,0,0,0,
0,0,0,0,0,0,0,0,0,0,0,0,0,0,0,0,0,0,0,0,0,0,0,0,0,0,0,0,0,0,0,0,0,0,0,0,0,
0,0,0,0,0,0,0,0,0,0,0,0,0,0,0,0,0,0,0,0,0,0,0,0,0,0,0,0,0,0,0,0,0,0,0,0,0,
0,0,0,0,0,0,0,0,0,0,0,0,0,0,0,0,0,0,0,0,0,0,0,0,0,0,0,0,0,0,0,0,0,0,0,0,0,
0,0,0,0,0,0,0,0,0,0,0,0,0,0,0,0,0,7919,7920,0,0,0,0,0,0,0,0,0,0,0,0,0,0,0,0,0,0,
0,0,0,0,0,0,0,0,0,0,0,0,0,0,0,0,0,7925,7926,0,0,0,0,0,0,0,0,0,0,0,0,0,0,0,0,0,0,
0,0,0,0,0,0,0,0,0,0,0,0,0,0,0,0,0,0,0,0,0,0,0,0,0,0,0,0,0,0,0,0,0,0,0,0,0,
0,0,0,0,0,0,0,0,0,0,0,0,0,0,0,0,0,0,0,0,0,0,0,0,0,0,0,0,0,0,0,0,0,0,0,0,0,
0,0,0,0,0,0,0,0,0,0,0,0,0,0,0,0,0,0,0,0,0,0,0,0,0,0,0,0,0,0,0,0,0,0,0,0,0,
0,0,0,0,0,0,0,0,0,0,0,0,0,0,0,0,0,0,0,0,0,0,0,0,0,0,0,0,0,0,0,0,0,0,0,0,0,
0,0,0,0,0,0,0,0,0,0,0,0,0,0,0,0,0,0,0,0,0,0,0,0,0,0,0,0,0,0,0,0,0,0,0,0,0
</data>
 </layer>
 <layer id="22" name="dressing_fence_divider" width="37" height="22">
  <data encoding="csv">
0,0,0,0,0,0,0,0,0,2259,0,0,0,0,0,0,0,0,0,0,0,0,0,0,0,0,0,0,0,0,0,0,0,0,0,0,0,
0,0,0,0,0,0,0,0,0,2276,0,0,0,0,0,0,0,0,0,0,0,0,0,0,0,0,0,0,0,0,0,0,0,0,0,0,0,
0,0,0,0,0,0,0,0,0,2276,0,0,0,0,0,0,0,0,0,0,0,0,0,0,0,0,0,0,0,0,0,0,0,0,0,0,0,
0,0,0,0,0,0,0,0,0,2276,0,0,0,0,0,0,0,0,0,0,0,0,0,0,0,0,0,0,0,0,0,0,0,0,0,0,0,
0,0,0,0,0,0,0,0,0,2276,0,0,0,0,0,0,0,0,0,0,0,0,0,0,0,0,0,0,0,0,0,0,0,0,0,0,0,
0,0,0,0,0,0,0,0,0,2276,0,0,0,0,0,0,0,0,0,0,0,0,0,0,0,0,0,0,0,0,0,0,0,0,0,0,0,
0,0,0,0,0,0,0,0,0,2276,0,0,0,0,0,0,0,0,0,0,0,0,0,0,0,0,0,0,0,0,0,0,0,0,0,0,0,
0,0,0,0,0,0,0,0,0,2276,0,0,0,0,0,0,0,0,0,0,0,0,0,0,0,0,0,0,0,0,0,0,0,0,0,0,0,
0,0,0,0,0,0,0,0,0,2293,0,0,0,0,0,0,0,0,0,0,0,0,0,0,0,0,0,0,0,0,0,0,0,0,0,0,0,
0,0,0,0,0,0,0,0,0,0,0,0,0,0,0,0,0,0,0,0,0,0,0,0,0,0,0,0,0,0,0,0,0,0,0,0,0,
0,0,0,0,0,0,0,0,0,0,0,0,0,0,0,0,0,0,0,0,0,0,0,0,0,0,0,0,0,0,0,0,0,0,0,0,0,
0,0,0,0,0,0,0,0,0,0,0,0,0,0,0,0,0,0,0,0,0,0,0,0,0,0,0,0,0,0,0,0,0,0,0,0,0,
0,0,0,0,0,0,0,0,0,2259,0,0,0,0,0,0,0,0,0,0,0,0,0,0,0,0,0,0,0,0,0,0,0,0,0,0,0,
0,0,0,0,0,0,0,0,0,2276,0,0,0,0,0,0,0,0,0,0,0,0,0,0,0,0,0,0,0,0,0,0,0,0,0,0,0,
0,0,0,0,0,0,0,0,0,2276,0,0,0,0,0,0,0,0,0,0,0,0,0,0,0,0,0,0,0,0,0,0,0,0,0,0,0,
0,0,0,0,0,0,0,0,0,2276,0,0,0,0,0,0,0,0,0,0,0,0,0,0,0,0,0,0,0,0,0,0,0,0,0,0,0,
0,0,0,0,0,0,0,0,0,2276,0,0,0,0,0,0,0,0,0,0,0,0,0,0,0,0,0,0,0,0,0,0,0,0,0,0,0,
0,0,0,0,0,0,0,0,0,2276,0,0,0,0,0,0,0,0,0,0,0,0,0,0,0,0,0,0,0,0,0,0,0,0,0,0,0,
0,0,0,0,0,0,0,0,0,2276,0,0,0,0,0,0,0,0,0,0,0,0,0,0,0,0,0,0,0,0,0,0,0,0,0,0,0,
0,0,0,0,0,0,0,0,0,2276,0,0,0,0,0,0,0,0,0,0,0,0,0,0,0,0,0,0,0,0,0,0,0,0,0,0,0,
0,0,0,0,0,0,0,0,0,2276,0,0,0,0,0,0,0,0,0,0,0,0,0,0,0,0,0,0,0,0,0,0,0,0,0,0,0,
0,0,0,0,0,0,0,0,0,2293,0,0,0,0,0,0,0,0,0,0,0,0,0,0,0,0,0,0,0,0,0,0,0,0,0,0,0
</data>
 </layer>
 <layer id="23" name="dressing_scatter" width="37" height="22">
  <data encoding="csv">
0,0,0,0,0,0,0,2691,0,0,0,0,0,0,0,0,0,0,0,0,0,0,0,0,0,0,0,0,0,0,0,0,0,0,0,0,0,
2692,0,0,0,0,0,0,0,0,0,0,0,0,0,0,0,0,0,0,0,0,0,0,0,0,0,0,0,0,0,0,0,0,0,0,0,0,
2752,0,0,0,0,0,0,0,2693,0,0,0,0,0,0,0,0,0,0,0,0,0,0,0,0,0,0,0,0,0,0,0,0,0,0,0,0,
0,0,0,0,0,0,0,0,0,0,0,0,0,0,0,0,0,0,0,0,0,0,0,0,0,0,0,0,0,0,0,0,0,0,0,0,0,
0,0,0,0,0,0,0,2752,0,0,0,0,0,0,0,0,0,0,0,0,0,0,0,0,0,0,0,0,0,0,0,0,0,0,0,0,0,
0,0,0,2752,0,0,0,2752,0,0,0,0,0,0,0,0,0,0,0,0,0,0,0,0,0,0,0,0,0,0,0,0,0,0,0,0,0,
0,0,0,0,0,0,0,0,2692,0,0,0,0,0,0,0,0,0,0,0,0,0,0,0,0,0,0,0,0,0,0,0,0,0,0,0,0,
0,0,0,0,0,0,0,0,2693,0,0,0,0,0,0,0,0,0,0,0,0,0,0,0,0,0,0,0,0,0,0,0,0,0,0,0,0,
0,0,0,0,0,0,0,0,0,0,0,0,0,0,0,0,0,0,0,0,0,0,0,0,0,0,0,0,0,0,0,0,0,0,0,0,0,
0,0,0,0,0,0,0,0,0,0,0,0,0,0,0,0,0,0,0,0,0,0,0,0,0,0,0,0,0,0,0,0,0,0,0,0,0,
0,0,0,0,0,0,0,0,0,0,0,0,0,0,0,0,0,0,0,0,0,0,0,0,0,0,0,0,0,0,0,0,0,0,0,0,0,
0,0,0,0,0,2752,0,0,0,0,0,0,0,0,0,0,0,0,0,0,0,0,0,0,0,0,0,0,0,0,0,0,0,0,0,0,0,
0,0,0,0,0,0,0,0,0,0,0,0,0,0,0,0,0,0,0,0,0,0,0,0,0,0,0,0,0,0,0,0,0,0,0,0,0,
0,0,0,0,0,0,0,0,0,0,0,0,0,0,0,0,0,0,0,0,0,0,0,0,0,0,0,0,0,0,0,0,0,0,0,0,0,
2693,0,0,0,0,0,0,0,0,0,0,0,0,0,0,0,0,0,0,0,0,0,0,0,0,0,0,0,0,0,0,0,0,0,0,0,0,
2739,0,0,0,0,0,0,0,0,0,0,0,0,0,0,0,0,0,0,0,0,0,0,0,0,0,0,0,0,0,0,0,0,0,0,0,0,
2691,0,0,0,0,0,0,2752,0,0,0,0,0,0,0,0,0,0,0,0,0,0,0,0,0,0,0,0,0,0,0,0,0,0,0,0,0,
0,0,0,0,0,0,0,2739,0,0,0,0,0,0,0,0,0,0,0,0,0,0,0,0,0,0,0,0,0,0,0,0,0,0,0,0,0,
0,2692,0,0,0,0,0,2692,0,0,0,0,0,0,0,0,0,0,0,0,0,0,0,0,0,0,0,0,0,0,0,0,0,0,0,0,0,
2693,0,0,0,0,0,0,0,0,0,0,0,0,0,0,0,0,0,0,0,0,0,0,0,0,0,0,0,0,0,0,0,0,0,0,0,0,
0,0,0,0,0,0,0,2752,2691,0,0,0,0,0,0,0,0,0,0,0,0,0,0,0,0,0,0,0,0,0,0,0,0,0,0,0,0,
2691,0,0,0,0,0,0,0,0,0,0,0,0,0,0,0,0,0,0,0,0,0,0,0,0,0,0,0,0,0,0,0,0,0,0,0,0
</data>
 </layer>
 <layer id="24" name="decor" width="37" height="22">
  <data encoding="csv">
0,0,0,0,0,0,0,0,0,0,0,0,0,0,0,0,0,0,0,0,0,0,0,0,0,0,0,0,0,0,0,0,0,0,0,0,0,
0,0,0,0,0,0,0,0,0,0,0,0,0,0,0,0,0,0,0,0,0,0,0,0,0,0,0,0,0,0,0,0,0,0,0,0,0,
0,0,0,0,0,0,0,0,0,0,0,0,0,0,0,0,0,0,0,0,0,0,0,0,0,0,0,0,0,0,0,0,0,0,0,0,0,
0,0,0,0,0,0,0,0,0,0,0,0,0,0,0,0,0,0,0,0,0,0,0,0,0,0,0,0,0,0,0,0,0,0,0,0,0,
0,0,0,0,0,0,0,0,0,0,0,0,0,0,0,0,0,0,0,0,0,0,0,0,0,0,0,0,0,0,0,0,0,0,0,0,0,
0,0,0,0,0,0,0,0,0,0,0,0,0,0,0,0,0,0,0,0,0,0,0,0,0,0,0,0,0,0,0,0,0,0,0,0,0,
0,0,0,0,0,0,0,0,0,0,0,0,0,0,0,0,0,0,0,0,0,0,0,0,0,0,0,0,0,0,0,0,0,0,0,0,0,
0,0,0,0,0,0,0,0,0,0,0,0,0,0,0,0,0,0,0,0,0,0,0,0,0,0,0,0,0,0,0,0,0,0,0,0,0,
0,0,0,0,0,0,0,0,0,0,0,0,0,0,0,0,0,0,0,0,0,0,0,0,0,0,0,0,0,0,0,0,0,0,0,0,0,
0,0,0,0,0,0,0,0,0,0,0,0,0,0,0,0,0,0,0,0,0,0,0,0,0,0,0,0,0,0,0,0,0,0,0,0,0,
0,0,0,0,0,0,0,0,0,0,0,0,0,0,0,0,0,0,0,0,0,0,0,0,0,0,0,0,0,0,0,0,0,0,0,0,0,
0,0,0,0,0,0,0,0,0,0,0,0,0,0,0,0,0,0,0,0,0,0,0,0,0,0,0,0,0,0,0,0,0,0,0,0,0,
0,0,0,0,0,0,0,0,0,0,0,0,0,0,0,0,0,0,0,0,0,0,0,0,0,0,0,0,0,0,0,0,0,0,0,0,0,
0,0,0,0,0,0,0,0,0,0,0,0,0,0,0,0,0,0,0,0,0,0,0,0,0,0,0,0,0,0,0,0,0,0,0,0,0,
0,0,0,0,0,0,0,0,0,0,0,0,0,0,0,0,0,0,0,0,0,0,0,0,0,0,0,0,0,0,0,0,0,0,0,0,0,
0,0,0,0,0,0,0,0,0,0,0,0,0,0,0,0,0,0,0,0,0,0,0,0,0,0,0,0,0,0,0,0,0,0,0,0,0,
0,0,0,0,0,0,0,0,0,0,0,0,0,0,0,0,0,0,0,0,0,0,0,0,0,0,0,0,0,0,0,0,0,0,0,0,0,
0,0,0,0,0,0,0,0,0,0,0,0,0,0,0,0,0,0,0,0,0,0,0,0,0,0,0,0,0,0,0,0,0,0,0,0,0,
0,0,0,0,0,0,0,0,0,0,0,0,0,0,0,0,0,0,0,0,0,0,0,0,0,0,0,0,0,0,0,0,0,0,0,0,0,
0,0,0,0,0,0,0,0,0,0,0,0,0,0,0,0,0,0,0,0,0,0,0,0,0,0,0,0,0,0,0,0,0,0,0,0,0,
0,0,0,0,0,0,0,0,0,0,0,0,0,0,0,0,0,0,0,0,0,0,0,0,0,0,0,0,0,0,0,0,0,0,0,0,0,
0,0,0,0,0,0,0,0,0,0,0,0,0,0,0,0,0,0,0,0,0,0,0,0,0,0,0,0,0,0,0,0,0,0,0,0,0
</data>
 </layer>
 <layer id="25" name="props_village" width="37" height="22">
  <data encoding="csv">
0,0,0,0,0,0,0,0,0,0,0,0,0,0,0,0,0,0,0,0,0,0,0,0,0,0,0,0,0,0,0,0,0,0,0,0,0,
0,0,1077,1078,1079,1080,0,0,0,0,0,0,0,0,0,0,0,0,0,0,0,0,0,0,0,0,0,0,0,0,0,0,0,0,0,0,0,
0,0,1110,1111,1112,1113,0,0,0,0,0,0,0,0,0,0,0,0,0,0,0,0,0,0,0,0,0,0,0,0,0,0,0,0,0,0,0,
0,0,1143,1144,1145,1146,0,0,0,0,0,0,0,0,0,0,0,0,0,0,0,0,0,0,0,0,0,0,0,0,0,0,0,0,0,0,0,
0,0,0,0,0,0,0,0,0,0,0,0,0,0,0,0,0,0,0,0,0,0,0,0,0,0,0,0,0,0,0,0,0,0,0,0,0,
0,0,0,0,0,0,0,0,0,0,0,0,0,0,0,0,0,0,0,0,0,0,0,0,0,0,0,0,0,0,0,0,0,0,0,0,0,
0,0,0,0,0,0,0,0,0,0,0,0,0,0,0,0,0,0,0,0,0,0,0,0,0,0,0,0,0,0,0,0,0,0,0,0,0,
0,0,1081,1082,1083,1084,0,0,0,0,0,0,0,0,0,0,0,0,0,0,0,0,0,0,0,0,0,0,0,0,0,0,0,0,0,0,0,
0,0,1114,1115,1116,1117,0,0,0,0,0,0,0,0,0,0,0,0,0,0,0,0,0,0,0,0,0,0,0,0,0,0,0,0,0,0,0,
0,0,1147,1148,1149,1150,0,0,0,0,0,0,0,0,0,0,0,0,0,0,0,0,0,0,0,0,0,0,0,0,0,0,0,0,0,0,0,
0,0,0,0,0,0,0,0,0,0,0,0,0,0,0,0,0,0,0,0,0,0,0,0,0,0,0,0,0,0,0,0,0,0,0,0,0,
0,0,0,0,0,0,0,0,0,0,0,0,0,0,0,0,0,0,0,0,0,0,0,0,0,0,0,0,0,0,0,0,0,0,0,0,0,
0,0,0,0,0,0,0,0,0,0,0,0,0,0,0,0,0,0,0,0,0,0,0,0,0,0,0,0,0,0,0,0,0,0,0,0,0,
0,0,1085,1086,1087,1088,0,0,0,0,0,0,0,0,0,0,0,0,0,0,0,0,0,0,0,0,0,0,0,0,0,0,0,0,0,0,0,
0,0,1118,1119,1120,1121,0,0,0,0,0,0,0,0,0,0,0,0,0,0,0,0,0,0,0,0,0,0,0,0,0,0,0,0,0,0,0,
0,0,1151,1152,1153,1154,0,0,0,0,0,0,0,0,0,0,0,0,0,0,0,0,0,0,0,0,0,0,0,0,0,0,0,0,0,0,0,
0,0,0,0,0,0,0,0,0,0,0,0,0,0,0,0,0,0,0,0,0,0,0,0,0,0,0,0,0,0,0,0,0,0,0,0,0,
0,0,0,0,0,0,0,0,0,0,0,0,0,0,0,0,0,0,0,0,0,0,0,0,0,0,0,0,0,0,0,0,0,0,0,0,0,
0,0,0,1242,1243,1244,0,0,0,0,0,0,0,0,0,0,0,0,0,0,0,0,0,0,0,0,0,0,0,0,0,0,0,0,0,0,0,
0,0,0,1275,1276,1277,0,0,0,0,0,0,0,0,0,0,0,0,0,0,0,0,0,0,0,0,0,0,0,0,0,0,0,0,0,0,0,
0,0,0,0,0,0,0,0,0,0,0,0,0,0,0,0,0,0,0,0,0,0,0,0,0,0,0,0,0,0,0,0,0,0,0,0,0,
0,0,0,0,0,0,0,0,0,0,0,0,0,0,0,0,0,0,0,0,0,0,0,0,0,0,0,0,0,0,0,0,0,0,0,0,0
</data>
 </layer>
 <layer id="26" name="overhead_objects1" width="37" height="22">
  <data encoding="csv">
0,0,0,0,0,0,0,0,0,0,0,0,0,0,0,0,0,0,0,0,0,0,0,0,0,0,0,0,0,0,0,0,0,0,0,0,0,
0,0,0,0,0,0,0,0,0,0,0,0,0,0,0,0,0,0,0,0,0,0,0,0,0,0,0,0,0,0,0,0,0,0,0,0,0,
0,0,0,0,0,0,0,0,0,0,0,0,0,0,0,0,0,0,0,0,0,3025,3026,2974,2975,2976,2977,0,0,0,0,0,0,0,0,0,0,
0,0,0,0,0,0,0,0,0,0,0,0,0,0,0,0,0,0,0,0,0,0,0,2991,2992,2993,2994,0,2610,2611,2612,2613,0,0,0,0,0,
0,0,0,0,0,0,0,0,0,0,0,0,0,0,0,0,0,0,0,0,0,0,0,0,0,0,0,0,2627,2628,2629,2630,0,0,0,0,0,
0,0,0,0,0,0,0,0,0,0,0,0,0,0,0,0,0,0,0,0,0,0,0,0,0,0,0,0,2644,2645,2646,2647,0,0,0,0,0,
0,0,0,0,0,0,0,0,0,0,0,0,0,0,0,0,0,0,0,0,0,0,0,0,0,0,0,0,2661,2662,2663,2664,0,0,0,0,0,
0,0,0,0,0,0,0,0,0,0,0,0,0,2631,2632,2633,2634,0,0,0,0,0,0,0,0,0,0,0,0,0,0,0,0,0,2585,2586,0,
0,0,0,0,0,0,0,0,0,0,0,0,0,2648,2649,2650,2651,0,0,0,0,0,0,0,0,0,0,0,0,0,0,0,0,0,2602,2603,0,
0,0,0,0,0,0,0,0,0,0,0,0,0,2665,2666,2667,2668,0,0,0,0,0,0,0,0,0,0,0,0,0,0,0,0,0,0,0,0,
0,0,0,0,0,0,0,0,0,0,0,0,0,0,0,0,0,0,0,0,0,0,0,0,0,0,0,0,0,0,0,0,0,0,0,0,0,
0,0,0,0,0,0,0,0,0,0,5659,5660,5661,0,0,0,0,0,0,0,0,0,0,0,0,0,0,0,0,0,0,0,0,0,0,0,0,
0,0,0,0,0,0,0,0,0,0,5695,5696,5697,0,0,0,0,0,0,0,0,0,0,0,0,0,0,0,0,0,0,0,0,0,0,0,0,
0,0,0,0,0,0,0,0,0,0,0,0,0,0,0,0,0,0,0,0,0,0,0,0,0,0,0,0,0,0,0,0,0,0,0,0,0,
0,0,0,0,0,0,0,0,0,0,0,0,0,0,0,0,0,0,0,0,0,0,0,0,0,0,0,0,0,0,0,0,0,0,0,0,0,
0,0,0,0,0,0,0,0,0,0,0,0,0,0,0,0,2464,2465,2466,2467,0,0,0,0,0,0,0,0,0,2606,2607,2608,2609,0,0,0,0,
0,0,0,0,0,0,0,0,0,0,0,0,0,0,0,0,2481,2482,2483,2484,0,0,0,0,0,0,0,0,0,2623,2624,2625,2626,0,0,0,0,
0,0,0,0,0,0,0,0,0,0,0,0,0,0,0,0,2498,2499,2500,2501,0,0,0,0,0,0,0,0,0,2640,2641,2642,2643,0,0,0,0,
0,0,0,0,0,0,0,0,0,0,0,0,0,0,0,0,0,0,0,0,0,0,0,0,0,0,0,0,0,2657,2658,2659,2660,0,0,0,0,
0,0,0,0,0,0,0,0,0,0,0,0,0,0,0,0,0,0,0,0,0,0,0,0,0,0,0,0,0,0,0,0,0,0,0,0,0,
0,0,0,0,0,0,0,0,0,0,0,0,0,0,0,0,0,0,0,0,0,0,0,0,0,0,0,0,0,0,0,0,0,0,0,0,0,
0,0,0,0,0,0,0,0,0,0,0,0,0,0,0,0,0,0,0,0,0,0,0,0,0,0,0,0,0,0,0,0,0,0,0,0,0
</data>
 </layer>
 <layer id="27" name="overhead_objects2" width="37" height="22">
  <data encoding="csv">
0,0,0,0,0,0,0,0,0,0,0,0,0,0,0,0,0,0,0,0,0,0,0,0,0,0,0,0,0,0,0,0,0,0,0,0,0,
0,0,0,0,0,0,0,0,0,0,0,0,0,0,0,0,0,0,0,0,0,0,0,0,0,0,0,0,0,0,0,0,0,0,0,0,0,
0,0,0,0,0,0,0,0,0,0,5638,5639,5640,5641,5642,0,0,0,0,0,0,0,0,0,0,0,0,0,0,0,0,0,0,0,0,0,0,
0,0,0,0,0,0,0,0,0,0,5674,5675,5676,5677,5678,0,0,0,0,0,0,0,0,0,0,0,0,0,0,0,0,0,0,0,0,0,0,
0,0,0,0,0,0,0,0,0,0,5710,5711,5712,5713,5714,0,0,0,0,0,0,0,0,0,0,0,0,0,0,0,0,0,0,0,0,0,0,
0,0,0,0,0,0,0,0,0,0,0,0,0,0,0,0,0,0,0,0,0,0,0,0,0,0,0,0,0,0,0,0,0,0,0,0,0,
0,0,0,0,0,0,0,0,0,0,0,0,0,0,0,0,0,0,0,0,0,0,0,0,0,0,0,0,0,0,0,0,0,0,0,0,0,
0,0,0,0,0,0,0,0,0,0,0,0,0,0,0,0,0,0,0,0,0,0,0,0,0,0,0,0,0,0,0,3027,3028,0,0,0,0,
0,0,0,0,0,0,0,0,0,0,0,0,0,0,0,0,0,0,0,0,0,0,0,0,0,0,0,0,0,0,0,0,0,0,0,0,0,
0,0,0,0,0,0,0,0,0,0,0,0,0,0,0,0,0,0,0,0,0,0,0,0,0,0,0,0,0,0,0,0,0,0,0,0,0,
0,0,0,0,0,0,0,0,0,0,0,0,0,0,0,0,0,0,0,0,0,0,0,0,0,0,0,0,0,0,0,0,0,0,0,0,0,
0,0,0,0,0,0,0,0,0,0,0,0,0,0,0,0,0,0,0,0,0,0,0,0,0,0,0,0,0,0,0,0,0,0,0,0,0,
0,0,0,0,0,0,0,0,0,0,0,0,0,0,0,0,0,0,0,0,0,0,0,0,0,0,0,0,0,0,0,0,0,0,0,0,0,
0,0,0,0,0,0,0,0,0,0,0,0,0,0,0,0,0,0,0,0,0,0,0,0,0,0,0,0,0,0,0,0,0,0,0,0,0,
0,0,0,0,0,0,0,0,0,0,0,0,0,0,0,0,0,0,0,0,0,0,0,0,0,0,0,0,0,0,0,0,0,0,0,0,0,
0,0,0,0,0,0,0,0,0,0,0,0,0,0,0,0,0,0,0,0,0,0,0,0,0,0,0,0,0,0,0,0,0,0,0,0,0,
0,0,0,0,0,0,0,0,0,0,0,0,0,0,0,0,0,0,0,0,0,0,0,0,0,0,0,0,0,0,0,0,0,0,0,0,0,
0,0,0,0,0,0,0,0,0,0,0,0,0,0,0,0,0,0,0,0,0,0,0,0,0,0,0,0,0,0,0,0,0,0,0,0,0,
0,0,0,0,0,0,0,0,0,0,0,0,0,0,0,0,0,0,0,0,0,0,0,0,0,0,0,0,0,0,0,0,0,0,0,0,0,
0,0,0,0,0,0,0,0,0,0,0,0,0,0,0,0,0,0,0,0,0,0,0,0,0,0,0,0,0,0,0,0,0,0,0,0,0,
0,0,0,0,0,0,0,0,0,0,0,0,0,0,0,0,0,0,0,0,0,0,0,0,0,0,0,0,0,0,0,0,0,0,0,0,0,
0,0,0,0,0,0,0,0,0,0,0,0,0,0,0,0,0,0,0,0,0,0,0,0,0,0,0,0,0,0,0,0,0,0,0,0,0
</data>
 </layer>
 <layer id="28" name="overhead_roof" width="37" height="22">
  <data encoding="csv">
0,0,0,0,0,0,0,0,0,0,0,0,0,0,0,0,0,0,0,0,0,0,0,0,0,0,0,0,0,0,0,0,0,0,0,0,0,
0,0,0,0,0,0,0,0,0,0,0,0,0,0,0,0,0,0,0,0,0,0,0,0,0,0,0,0,0,0,0,0,0,0,0,0,0,
0,0,0,0,0,0,0,0,0,0,0,0,0,0,0,0,0,0,0,3353,3354,3355,0,0,0,0,0,0,0,0,0,0,0,0,0,0,0,
0,0,0,0,0,0,0,0,0,0,0,0,0,0,0,0,0,0,3243,3371,3372,3373,3247,3248,3249,3250,3251,3252,0,0,0,0,0,0,0,0,0,
0,0,0,0,0,0,0,0,0,0,0,0,0,0,0,0,0,0,3253,3389,3390,3391,3257,3258,3259,3260,3261,3262,0,0,0,0,0,0,0,0,0,
0,0,0,0,0,0,0,0,0,0,0,0,0,0,0,0,0,0,3263,3264,3265,3266,3267,3268,3269,3270,3271,3272,0,0,0,0,0,0,0,0,0,
0,0,0,0,0,0,0,0,0,0,0,0,0,0,0,0,0,0,3273,3274,3275,3276,3277,3278,3279,3280,3281,3282,0,0,0,0,0,0,0,0,0,
0,0,0,0,0,0,0,0,0,0,0,0,0,0,0,0,0,0,3283,3284,3285,3286,3287,3288,3289,3290,3291,3292,0,0,0,0,0,0,0,0,0,
0,0,0,0,0,0,0,0,0,0,0,0,0,0,0,0,0,0,3293,3294,3295,3296,3297,3298,3299,3300,3301,3302,0,0,0,0,0,0,0,0,0,
0,0,0,0,0,0,0,0,0,0,0,0,0,0,0,0,0,0,3303,3304,3305,3306,3307,3308,3309,3310,3311,3312,0,0,0,0,0,0,0,0,0,
0,0,0,0,0,0,0,0,0,0,0,0,0,0,0,0,0,0,0,0,0,0,0,0,0,0,0,0,0,0,0,0,0,0,0,0,0,
0,0,0,0,0,0,0,0,0,0,0,0,0,0,0,0,0,0,0,0,0,0,0,0,0,0,0,0,0,0,0,0,0,0,0,0,0,
0,0,0,0,0,0,0,0,0,0,0,0,0,0,0,0,0,0,0,0,0,0,0,0,0,0,0,0,0,0,0,0,0,0,0,0,0,
0,0,0,0,0,0,0,0,0,0,0,0,0,0,0,0,0,0,0,0,0,0,0,0,0,0,0,0,0,0,0,0,0,0,0,0,0,
0,0,0,0,0,0,0,0,0,0,0,0,0,0,0,0,0,0,0,0,0,0,0,0,0,0,0,0,0,0,0,0,0,0,0,0,0,
0,0,0,0,0,0,0,0,0,0,0,0,0,0,0,0,0,0,0,0,0,0,0,0,0,0,0,0,0,0,0,0,0,0,0,0,0,
0,0,0,0,0,0,0,0,0,0,0,0,0,0,0,0,0,0,0,0,0,0,0,0,0,0,0,0,0,0,0,0,0,0,0,0,0,
0,0,0,0,0,0,0,0,0,0,0,0,0,0,0,0,0,0,0,0,0,0,0,0,0,0,0,0,0,0,0,0,0,0,0,0,0,
0,0,0,0,0,0,0,0,0,0,0,0,0,0,0,0,0,0,0,0,0,0,0,0,0,0,0,0,0,0,0,0,0,0,0,0,0,
0,0,0,0,0,0,0,0,0,0,0,0,0,0,0,0,0,0,0,0,0,0,0,0,0,0,0,0,0,0,0,0,0,0,0,0,0,
0,0,0,0,0,0,0,0,0,0,0,0,0,0,0,0,0,0,0,0,0,0,0,0,0,0,0,0,0,0,0,0,0,0,0,0,0,
0,0,0,0,0,0,0,0,0,0,0,0,0,0,0,0,0,0,0,0,0,0,0,0,0,0,0,0,0,0,0,0,0,0,0,0,0
</data>
 </layer>
 <layer id="29" name="overhead_objects3" width="37" height="22">
  <data encoding="csv">
0,0,0,0,0,0,0,0,0,0,0,0,0,0,0,0,0,0,0,0,0,0,0,0,0,0,0,0,0,0,0,0,0,0,0,0,0,
0,0,0,0,0,0,0,0,0,0,0,0,0,0,0,0,0,0,0,0,0,0,0,0,0,0,0,0,0,0,0,0,0,0,0,0,0,
0,0,0,0,0,0,0,0,0,0,0,0,0,0,0,0,0,0,0,0,0,0,0,0,0,0,0,0,0,0,0,0,0,0,0,0,0,
0,0,0,0,0,0,0,0,0,0,0,0,0,0,0,0,0,0,0,0,0,0,0,0,0,0,0,0,0,0,0,0,0,0,0,0,0,
0,0,0,0,0,0,0,0,0,0,0,0,0,0,0,0,0,0,0,0,0,0,0,0,0,0,0,0,0,0,0,0,0,0,0,0,0,
0,0,0,0,0,0,0,0,0,0,0,0,0,0,0,0,0,0,0,0,0,0,0,0,0,0,0,0,0,0,0,0,0,0,0,0,0,
0,0,0,0,0,0,0,0,0,0,0,0,0,0,0,0,0,0,0,0,0,0,0,0,0,0,0,0,0,0,0,0,0,0,0,0,0,
0,0,0,0,0,0,0,0,0,0,0,0,0,0,0,0,0,0,0,0,0,0,0,0,0,0,0,0,0,0,0,0,0,0,0,0,0,
0,0,0,0,0,0,0,0,0,0,0,0,0,0,0,0,0,0,0,0,0,0,0,0,0,0,0,0,0,0,0,0,0,0,0,0,0,
0,0,0,0,0,0,0,0,0,0,0,0,0,0,0,0,0,0,0,0,0,0,0,0,0,0,0,0,0,0,0,0,0,0,0,5643,5644,
0,0,0,0,0,0,0,0,0,0,0,0,0,0,0,0,0,0,0,0,0,0,0,0,0,0,0,0,0,0,0,0,0,0,0,5679,5680,
0,0,0,0,0,0,0,0,0,0,0,0,0,0,0,0,0,0,0,0,0,0,0,0,0,0,0,0,0,0,0,0,0,0,0,5715,5716,
0,0,0,0,0,0,0,0,0,0,0,0,0,0,0,0,0,0,0,0,0,0,0,0,0,0,0,0,0,0,0,0,0,0,0,0,0,
0,0,0,0,0,0,0,0,0,0,0,0,0,0,0,0,0,0,0,0,0,0,0,0,0,0,0,0,0,0,0,0,0,0,0,0,0,
0,0,0,0,0,0,0,0,0,0,0,0,0,0,0,0,0,0,0,0,0,0,0,0,0,0,0,0,0,0,0,0,0,0,0,0,0,
0,0,0,0,0,0,0,0,0,0,0,0,0,0,0,0,0,0,0,0,0,0,0,0,0,0,0,0,0,0,0,0,0,0,0,0,0,
0,0,0,0,0,0,0,0,0,0,0,0,0,0,0,0,0,0,0,0,0,0,0,0,0,0,0,0,0,0,0,0,0,0,0,0,0,
0,0,0,0,0,0,0,0,0,0,0,0,0,0,0,0,0,0,0,0,0,0,0,0,0,0,0,0,0,0,0,0,0,0,0,0,0,
0,0,0,0,0,0,0,0,0,0,0,0,0,0,0,0,0,0,0,0,0,0,0,0,0,0,0,0,0,0,0,0,0,0,0,0,0,
0,0,0,0,0,0,0,0,0,0,0,0,0,0,0,0,0,0,0,0,0,0,0,0,0,0,0,0,0,0,0,0,0,0,0,0,0,
0,0,0,0,0,0,0,0,0,0,0,0,0,0,0,0,0,0,0,0,0,0,0,0,0,0,0,0,0,0,0,0,0,0,0,0,0,
0,0,0,0,0,0,0,0,0,0,0,0,0,0,0,0,0,0,0,0,0,0,0,0,0,0,0,0,0,0,0,0,0,0,0,0,0
</data>
 </layer>
 <layer id="30" name="overhead_birds" width="37" height="22">
  <data encoding="csv">
0,0,0,0,0,0,0,0,0,0,0,0,0,0,0,0,0,0,0,0,0,0,0,0,0,0,0,0,0,0,0,0,0,0,0,0,0,
0,0,0,0,0,0,0,0,0,0,0,0,0,0,0,0,0,0,0,0,0,0,0,0,0,0,0,0,0,0,0,0,0,0,0,0,0,
0,0,0,0,0,0,0,0,0,0,0,0,0,0,0,0,0,0,0,0,0,0,0,0,0,0,0,0,0,0,0,0,0,0,0,0,0,
0,0,0,0,0,0,0,0,0,0,0,0,0,0,0,0,0,0,0,0,0,0,0,2147487507,2147487506,2147487505,2147487504,2147487503,2147487502,2147487501,2147487500,2147487499,0,0,0,0,0,
0,0,0,0,0,0,0,0,0,0,0,0,0,0,0,0,0,0,0,0,0,0,0,2147487534,2147487533,2147487532,2147487531,2147487530,2147487529,2147487528,2147487527,2147487526,0,0,0,0,0,
0,0,0,0,0,0,0,0,0,0,0,0,0,0,0,0,0,0,0,0,0,0,0,2147487561,2147487560,2147487559,2147487558,2147487557,2147487556,2147487555,2147487554,2147487553,0,0,0,0,0,
0,0,0,0,0,0,0,0,0,0,0,0,0,0,0,0,0,0,0,0,0,0,0,2147487588,2147487587,2147487586,2147487585,2147487584,2147487583,2147487582,2147487581,2147487580,0,0,0,0,0,
0,0,0,0,0,0,0,0,0,0,0,0,0,0,3691,3692,0,0,0,0,0,0,0,2147487615,2147487614,2147487613,2147487612,2147487611,2147487610,2147487609,2147487608,2147487607,0,0,0,0,0,
0,0,0,0,0,0,0,0,0,0,0,0,0,0,3731,3732,0,0,0,0,0,0,0,0,0,0,0,0,0,0,0,0,0,0,0,0,0,
0,0,0,0,0,0,0,0,0,0,0,0,0,0,0,0,0,0,0,0,0,0,0,0,0,0,0,0,0,0,0,0,0,0,0,0,0,
0,0,0,0,0,0,0,0,0,0,0,0,0,0,0,0,0,0,0,0,0,0,0,0,0,0,0,0,0,0,0,0,0,0,0,0,0,
0,0,0,0,0,0,0,0,0,0,0,0,0,0,0,0,0,0,0,0,0,0,0,0,0,0,0,0,0,0,0,0,0,0,0,0,0,
0,0,0,0,0,0,0,0,0,0,0,0,0,0,0,0,0,0,0,0,0,0,0,0,0,0,0,0,0,0,0,0,0,0,0,0,0,
0,0,0,0,0,0,0,0,0,0,0,0,0,0,0,0,0,0,0,0,0,0,0,0,0,0,0,0,0,0,0,0,0,0,0,0,0,
0,0,0,0,0,0,0,0,0,0,0,0,0,0,0,0,0,0,0,0,0,0,0,0,0,0,0,0,0,0,0,0,0,0,0,0,0,
0,0,0,0,0,0,0,0,0,0,0,0,0,0,0,0,0,0,0,0,0,0,0,0,0,0,0,0,0,0,0,0,0,0,0,0,0,
0,0,0,0,0,0,0,0,0,0,0,0,0,0,0,0,0,0,0,0,0,0,0,0,0,0,0,0,0,0,0,0,0,0,0,0,0,
0,0,0,0,0,0,0,0,0,0,0,0,0,0,0,0,0,0,0,0,0,0,0,0,0,0,0,0,0,0,0,0,0,0,0,0,0,
0,0,0,0,0,0,0,0,0,0,0,0,0,0,0,0,0,0,0,0,0,0,0,0,0,0,0,0,0,0,0,0,0,0,0,0,0,
0,0,0,0,0,0,0,0,0,0,0,0,0,0,0,0,0,0,0,0,0,0,0,0,0,0,0,0,0,0,0,0,0,0,0,0,0,
0,0,0,0,0,0,0,0,0,0,0,0,0,0,0,0,0,0,0,0,0,0,0,0,0,0,0,0,0,0,0,0,0,0,0,0,0,
0,0,0,0,0,0,0,0,0,0,0,0,0,0,0,0,0,0,0,0,0,0,0,0,0,0,0,0,0,0,0,0,0,0,0,0,0
</data>
 </layer>
 <objectgroup id="31" name="spawns">
  <object id="1" name="villager1" type="spawn" x="64" y="80" />
  <object id="2" name="villager2" type="spawn" x="64" y="176" />
  <object id="3" name="villager3" type="spawn" x="64" y="272" />
  <object id="4" name="gate" type="spawn" x="72" y="312" />
  <object id="5" name="door" type="spawn" x="400" y="182" />
  <object id="6" name="entry" type="spawn" x="400" y="206" />
  <object id="7" name="gateway" type="spawn" x="400" y="232" />
 </objectgroup>
 <objectgroup id="32" name="collision" color="#ff3c3c" visible="0">
  <object id="8" x="116" y="0" width="8" height="4" />
  <object id="9" x="152" y="0" width="8" height="140" />
  <object id="10" x="112" y="4" width="16" height="8" />
  <object id="11" x="116" y="12" width="8" height="4" />
  <object id="12" x="4" y="16" width="8" height="4" />
  <object id="13" x="0" y="20" width="16" height="8" />
  <object id="14" x="0" y="28" width="12" height="4" />
  <object id="15" x="4" y="32" width="4" height="4" />
  <object id="16" x="136" y="32" width="4" height="4" />
  <object id="17" x="276" y="32" width="24" height="4" />
  <object id="18" x="448" y="32" width="4" height="4" />
  <object id="19" x="564" y="32" width="8" height="4" />
  <object id="20" x="0" y="36" width="16" height="8" />
  <object id="21" x="132" y="36" width="8" height="4" />
  <object id="22" x="272" y="36" width="28" height="4" />
  <object id="23" x="444" y="36" width="12" height="4" />
  <object id="24" x="516" y="36" width="12" height="4" />
  <object id="25" x="556" y="36" width="24" height="4" />
  <object id="26" x="128" y="40" width="16" height="8" />
  <object id="27" x="276" y="40" width="24" height="4" />
  <object id="28" x="440" y="40" width="16" height="8" />
  <object id="29" x="512" y="40" width="20" height="4" />
  <object id="30" x="552" y="40" width="32" height="4" />
  <object id="31" x="4" y="44" width="12" height="4" />
  <object id="32" x="284" y="44" width="12" height="4" />
  <object id="33" x="508" y="44" width="24" height="4" />
  <object id="34" x="552" y="44" width="36" height="4" />
  <object id="35" x="240" y="48" width="16" height="4" />
  <object id="36" x="436" y="48" width="24" height="8" />
  <object id="37" x="508" y="48" width="28" height="4" />
  <object id="38" x="548" y="48" width="40" height="4" />
  <object id="39" x="236" y="52" width="24" height="4" />
  <object id="40" x="284" y="52" width="12" height="4" />
  <object id="41" x="504" y="52" width="32" height="12" />
  <object id="42" x="548" y="52" width="44" height="4" />
  <object id="43" x="232" y="56" width="32" height="12" />
  <object id="44" x="280" y="56" width="20" height="8" />
  <object id="45" x="340" y="56" width="20" height="4" />
  <object id="46" x="440" y="56" width="16" height="4" />
  <object id="47" x="548" y="56" width="40" height="4" />
  <object id="48" x="548" y="60" width="44" height="8" />
  <object id="49" x="116" y="64" width="4" height="4" />
  <object id="50" x="276" y="64" width="28" height="4" />
  <object id="51" x="412" y="64" width="4" height="4" />
  <object id="52" x="440" y="64" width="4" height="4" />
  <object id="53" x="508" y="64" width="24" height="4" />
  <object id="54" x="112" y="68" width="16" height="8" />
  <object id="55" x="228" y="68" width="36" height="8" />
  <object id="56" x="280" y="68" width="20" height="4" />
  <object id="57" x="408" y="68" width="12" height="4" />
  <object id="58" x="436" y="68" width="8" height="4" />
  <object id="59" x="516" y="68" width="12" height="4" />
  <object id="60" x="540" y="68" width="4" height="4" />
  <object id="61" x="552" y="68" width="36" height="4" />
  <object id="62" x="284" y="72" width="16" height="4" />
  <object id="63" x="384" y="72" width="44" height="4" />
  <object id="64" x="432" y="72" width="16" height="8" />
  <object id="65" x="532" y="72" width="20" height="4" />
  <object id="66" x="556" y="72" width="24" height="4" />
  <object id="67" x="116" y="76" width="12" height="4" />
  <object id="68" x="228" y="76" width="40" height="4" />
  <object id="69" x="392" y="76" width="36" height="4" />
  <object id="70" x="528" y="76" width="28" height="8" />
  <object id="71" x="52" y="80" width="4" height="4" />
  <object id="72" x="116" y="80" width="4" height="4" />
  <object id="73" x="228" y="80" width="36" height="8" />
  <object id="74" x="408" y="80" width="20" height="4" />
  <object id="75" x="580" y="80" width="8" height="4" />
  <object id="76" x="48" y="84" width="16" height="8" />
  <object id="77" x="112" y="84" width="16" height="8" />
  <object id="78" x="404" y="84" width="20" height="4" />
  <object id="79" x="520" y="84" width="4" height="4" />
  <object id="80" x="528" y="84" width="40" height="4" />
  <object id="81" x="576" y="84" width="16" height="8" />
  <object id="82" x="172" y="88" width="36" height="4" />
  <object id="83" x="236" y="88" width="28" height="4" />
  <object id="84" x="408" y="88" width="12" height="4" />
  <object id="85" x="516" y="88" width="48" height="4" />
  <object id="86" x="52" y="92" width="12" height="4" />
  <object id="87" x="116" y="92" width="12" height="4" />
  <object id="88" x="176" y="92" width="20" height="4" />
  <object id="89" x="248" y="92" width="12" height="4" />
  <object id="90" x="520" y="92" width="36" height="4" />
  <object id="91" x="576" y="92" width="12" height="4" />
  <object id="92" x="132" y="96" width="8" height="4" />
  <object id="93" x="248" y="96" width="224" height="4" />
  <object id="94" x="528" y="96" width="28" height="4" />
  <object id="95" x="128" y="100" width="16" height="8" />
  <object id="96" x="252" y="100" width="220" height="4" />
  <object id="97" x="532" y="100" width="20" height="4" />
  <object id="98" x="200" y="104" width="4" height="4" />
  <object id="99" x="264" y="104" width="208" height="8" />
  <object id="100" x="532" y="104" width="16" height="4" />
  <object id="101" x="128" y="108" width="12" height="4" />
  <object id="102" x="192" y="108" width="16" height="4" />
  <object id="103" x="540" y="108" width="8" height="4" />
  <object id="104" x="136" y="112" width="4" height="4" />
  <object id="105" x="188" y="112" width="24" height="4" />
  <object id="106" x="264" y="112" width="8" height="112" />
  <object id="107" x="304" y="112" width="128" height="48" />
  <object id="108" x="464" y="112" width="8" height="8" />
  <object id="109" x="532" y="112" width="12" height="4" />
  <object id="110" x="132" y="116" width="8" height="4" />
  <object id="111" x="184" y="116" width="32" height="4" />
  <object id="112" x="528" y="116" width="16" height="4" />
  <object id="113" x="128" y="120" width="16" height="8" />
  <object id="114" x="180" y="120" width="36" height="4" />
  <object id="115" x="464" y="120" width="36" height="4" />
  <object id="116" x="532" y="120" width="12" height="4" />
  <object id="117" x="184" y="124" width="36" height="4" />
  <object id="118" x="464" y="124" width="24" height="4" />
  <object id="119" x="172" y="128" width="4" height="4" />
  <object id="120" x="184" y="128" width="32" height="4" />
  <object id="121" x="464" y="128" width="8" height="96" />
  <object id="122" x="168" y="132" width="16" height="4" />
  <object id="123" x="196" y="132" width="8" height="4" />
  <object id="124" x="208" y="132" width="4" height="4" />
  <object id="125" x="164" y="136" width="24" height="4" />
  <object id="126" x="504" y="136" width="20" height="4" />
  <object id="127" x="152" y="140" width="36" height="4" />
  <object id="128" x="508" y="140" width="12" height="4" />
  <object id="129" x="160" y="144" width="32" height="4" />
  <object id="130" x="164" y="148" width="24" height="4" />
  <object id="131" x="208" y="148" width="4" height="4" />
  <object id="132" x="440" y="148" width="12" height="16" />
  <object id="133" x="492" y="148" width="4" height="4" />
  <object id="134" x="164" y="152" width="20" height="4" />
  <object id="135" x="200" y="152" width="16" height="4" />
  <object id="136" x="488" y="152" width="24" height="4" />
  <object id="137" x="552" y="152" width="16" height="4" />
  <object id="138" x="196" y="156" width="20" height="4" />
  <object id="139" x="484" y="156" width="32" height="4" />
  <object id="140" x="556" y="156" width="4" height="4" />
  <object id="141" x="196" y="160" width="24" height="4" />
  <object id="142" x="296" y="160" width="136" height="12" />
  <object id="143" x="480" y="160" width="36" height="4" />
  <object id="144" x="200" y="164" width="16" height="4" />
  <object id="145" x="480" y="164" width="40" height="12" />
  <object id="146" x="228" y="168" width="28" height="4" />
  <object id="147" x="228" y="172" width="24" height="4" />
  <object id="148" x="296" y="172" width="132" height="4" />
  <object id="149" x="84" y="176" width="4" height="4" />
  <object id="150" x="296" y="176" width="24" height="8" />
  <object id="151" x="428" y="176" width="12" height="4" />
  <object id="152" x="480" y="176" width="32" height="4" />
  <object id="153" x="80" y="180" width="16" height="8" />
  <object id="154" x="236" y="180" width="12" height="4" />
  <object id="155" x="428" y="180" width="16" height="16" />
  <object id="156" x="484" y="180" width="28" height="4" />
  <object id="157" x="524" y="180" width="8" height="4" />
  <object id="158" x="232" y="184" width="20" height="4" />
  <object id="159" x="300" y="184" width="20" height="4" />
  <object id="160" x="520" y="184" width="16" height="4" />
  <object id="161" x="84" y="188" width="12" height="4" />
  <object id="162" x="228" y="188" width="28" height="12" />
  <object id="163" x="304" y="188" width="16" height="8" />
  <object id="164" x="516" y="188" width="24" height="8" />
  <object id="165" x="152" y="192" width="8" height="160" />
  <object id="166" x="364" y="196" width="4" height="4" />
  <object id="167" x="432" y="196" width="8" height="4" />
  <object id="168" x="488" y="196" width="20" height="4" />
  <object id="169" x="512" y="196" width="32" height="4" />
  <object id="170" x="228" y="200" width="24" height="8" />
  <object id="171" x="308" y="200" width="8" height="4" />
  <object id="172" x="360" y="200" width="12" height="4" />
  <object id="173" x="484" y="200" width="24" height="16" />
  <object id="174" x="516" y="200" width="24" height="4" />
  <object id="175" x="576" y="200" width="16" height="4" />
  <object id="176" x="296" y="204" width="32" height="4" />
  <object id="177" x="356" y="204" width="20" height="4" />
  <object id="178" x="524" y="204" width="12" height="4" />
  <object id="179" x="584" y="204" width="8" height="4" />
  <object id="180" x="224" y="208" width="28" height="4" />
  <object id="181" x="296" y="208" width="36" height="8" />
  <object id="182" x="360" y="208" width="16" height="12" />
  <object id="183" x="436" y="208" width="8" height="4" />
  <object id="184" x="228" y="212" width="24" height="4" />
  <object id="185" x="432" y="212" width="16" height="8" />
  <object id="186" x="176" y="216" width="20" height="4" />
  <object id="187" x="204" y="216" width="12" height="4" />
  <object id="188" x="232" y="216" width="16" height="4" />
  <object id="189" x="292" y="216" width="40" height="4" />
  <object id="190" x="488" y="216" width="16" height="4" />
  <object id="191" x="180" y="220" width="12" height="4" />
  <object id="192" x="196" y="220" width="20" height="4" />
  <object id="193" x="296" y="220" width="32" height="4" />
  <object id="194" x="360" y="220" width="8" height="4" />
  <object id="195" x="432" y="220" width="12" height="4" />
  <object id="196" x="8" y="224" width="4" height="4" />
  <object id="197" x="200" y="224" width="20" height="4" />
  <object id="198" x="264" y="224" width="128" height="16" />
  <object id="199" x="408" y="224" width="64" height="16" />
  <object id="200" x="516" y="224" width="4" height="4" />
  <object id="201" x="4" y="228" width="8" height="4" />
  <object id="202" x="200" y="228" width="16" height="4" />
  <object id="203" x="512" y="228" width="16" height="8" />
  <object id="204" x="0" y="232" width="16" height="8" />
  <object id="205" x="208" y="232" width="4" height="4" />
  <object id="206" x="516" y="236" width="12" height="4" />
  <object id="207" x="8" y="240" width="4" height="4" />
  <object id="208" x="340" y="240" width="8" height="4" />
  <object id="209" x="352" y="240" width="32" height="4" />
  <object id="210" x="424" y="240" width="20" height="4" />
  <object id="211" x="4" y="244" width="12" height="4" />
  <object id="212" x="240" y="244" width="4" height="4" />
  <object id="213" x="336" y="244" width="16" height="8" />
  <object id="214" x="356" y="244" width="24" height="4" />
  <object id="215" x="424" y="244" width="16" height="4" />
  <object id="216" x="0" y="248" width="16" height="4" />
  <object id="217" x="232" y="248" width="16" height="4" />
  <object id="218" x="356" y="248" width="20" height="4" />
  <object id="219" x="420" y="248" width="12" height="4" />
  <object id="220" x="4" y="252" width="12" height="4" />
  <object id="221" x="228" y="252" width="20" height="8" />
  <object id="222" x="340" y="252" width="8" height="4" />
  <object id="223" x="4" y="256" width="8" height="4" />
  <object id="224" x="116" y="256" width="4" height="4" />
  <object id="225" x="0" y="260" width="16" height="8" />
  <object id="226" x="112" y="260" width="16" height="8" />
  <object id="227" x="232" y="260" width="12" height="4" />
  <object id="228" x="4" y="268" width="8" height="4" />
  <object id="229" x="116" y="268" width="12" height="4" />
  <object id="230" x="120" y="272" width="4" height="4" />
  <object id="231" x="376" y="272" width="16" height="4" />
  <object id="232" x="116" y="276" width="12" height="4" />
  <object id="233" x="372" y="276" width="28" height="4" />
  <object id="234" x="112" y="280" width="16" height="4" />
  <object id="235" x="368" y="280" width="40" height="4" />
  <object id="236" x="428" y="280" width="8" height="4" />
  <object id="237" x="556" y="280" width="4" height="4" />
  <object id="238" x="564" y="280" width="4" height="4" />
  <object id="239" x="116" y="284" width="12" height="4" />
  <object id="240" x="364" y="284" width="44" height="4" />
  <object id="241" x="428" y="284" width="12" height="4" />
  <object id="242" x="552" y="284" width="20" height="4" />
  <object id="243" x="20" y="288" width="8" height="4" />
  <object id="244" x="116" y="288" width="8" height="4" />
  <object id="245" x="196" y="288" width="8" height="4" />
  <object id="246" x="248" y="288" width="4" height="4" />
  <object id="247" x="256" y="288" width="4" height="4" />
  <object id="248" x="344" y="288" width="4" height="4" />
  <object id="249" x="360" y="288" width="48" height="16" />
  <object id="250" x="424" y="288" width="16" height="4" />
  <object id="251" x="548" y="288" width="24" height="4" />
  <object id="252" x="16" y="292" width="16" height="8" />
  <object id="253" x="112" y="292" width="16" height="8" />
  <object id="254" x="192" y="292" width="32" height="8" />
  <object id="255" x="244" y="292" width="24" height="4" />
  <object id="256" x="340" y="292" width="12" height="4" />
  <object id="257" x="424" y="292" width="20" height="4" />
  <object id="258" x="552" y="292" width="16" height="4" />
  <object id="259" x="244" y="296" width="60" height="4" />
  <object id="260" x="336" y="296" width="16" height="4" />
  <object id="261" x="420" y="296" width="24" height="4" />
  <object id="262" x="560" y="296" width="8" height="4" />
  <object id="263" x="16" y="300" width="12" height="4" />
  <object id="264" x="112" y="300" width="12" height="4" />
  <object id="265" x="192" y="300" width="28" height="4" />
  <object id="266" x="236" y="300" width="64" height="4" />
  <object id="267" x="340" y="300" width="12" height="4" />
  <object id="268" x="416" y="300" width="32" height="8" />
  <object id="269" x="8" y="304" width="4" height="4" />
  <object id="270" x="196" y="304" width="24" height="4" />
  <object id="271" x="236" y="304" width="40" height="12" />
  <object id="272" x="356" y="304" width="56" height="8" />
  <object id="273" x="4" y="308" width="8" height="4" />
  <object id="274" x="196" y="308" width="28" height="4" />
  <object id="275" x="420" y="308" width="24" height="4" />
  <object id="276" x="0" y="312" width="16" height="8" />
  <object id="277" x="200" y="312" width="16" height="4" />
  <object id="278" x="356" y="312" width="52" height="4" />
  <object id="279" x="480" y="312" width="28" height="4" />
  <object id="280" x="200" y="316" width="12" height="4" />
  <object id="281" x="240" y="316" width="36" height="4" />
  <object id="282" x="360" y="316" width="48" height="4" />
  <object id="283" x="116" y="320" width="4" height="4" />
  <object id="284" x="132" y="320" width="8" height="4" />
  <object id="285" x="112" y="324" width="32" height="8" />
  <object id="286" x="116" y="332" width="12" height="4" />
  <object id="287" x="132" y="332" width="8" height="4" />
  <object id="288" x="4" y="336" width="8" height="4" />
  <object id="289" x="0" y="340" width="16" height="8" />
  <object id="290" x="4" y="348" width="8" height="4" />
 </objectgroup>
</map>