<?xml version='1.0' encoding='UTF-8'?>
<map version="1.10" tiledversion="1.10.2" orientation="orthogonal" renderorder="right-down" width="20" height="11" tilewidth="16" tileheight="16" infinite="0" nextlayerid="6" nextobjectid="8">
 <tileset firstgid="1" name="floor" tilewidth="16" tileheight="16" tilecount="572" columns="22">
  <image source="../gfx/tiles/overworld/tilesetfloor.png" width="352" height="416" />
 </tileset>
 <tileset firstgid="573" name="nature" tilewidth="16" tileheight="16" tilecount="504" columns="24">
  <image source="../gfx/tiles/overworld/tilesetnature.png" width="384" height="336" />
 </tileset>
 <tileset firstgid="1077" name="house" tilewidth="16" tileheight="16" tilecount="759" columns="33">
  <image source="../gfx/tiles/overworld/tilesethouse.png" width="528" height="368" />
 </tileset>
 <layer id="1" name="ground" width="20" height="11">
  <data encoding="csv">
265,265,265,265,265,265,265,265,265,265,265,265,265,265,265,265,265,265,265,265,
265,265,265,265,265,265,265,265,265,265,265,265,265,265,265,265,265,265,265,265,
265,265,265,265,265,265,265,265,265,265,265,265,265,265,265,265,265,265,265,265,
265,265,265,265,265,265,265,265,265,265,265,265,265,265,265,265,265,265,265,265,
265,265,265,265,265,265,265,265,265,265,265,265,265,265,265,265,265,265,265,265,
265,265,265,265,265,265,265,265,265,265,265,265,265,265,265,265,265,265,265,265,
265,265,265,265,265,265,265,265,265,265,265,265,265,265,265,265,265,265,265,265,
265,265,265,265,265,265,265,265,265,265,265,265,265,265,265,265,265,265,265,265,
265,265,265,265,265,265,265,265,265,265,265,265,265,265,265,265,265,265,265,265,
265,265,265,265,265,265,265,265,265,265,265,265,265,265,265,265,265,265,265,265,
265,265,265,265,265,265,265,265,265,265,265,265,265,265,265,265,265,265,265,265
</data>
 </layer>
 <layer id="2" name="decor" width="20" height="11">
  <data encoding="csv">
0,0,0,0,0,0,0,0,0,0,0,0,0,0,0,0,0,0,0,0,
0,0,0,0,0,0,0,0,0,0,0,0,0,0,0,0,0,0,0,0,
0,0,0,0,0,0,0,0,0,0,0,0,0,0,0,0,0,0,0,0,
0,0,0,0,0,0,0,0,0,0,0,0,0,0,0,0,0,0,0,0,
0,0,0,0,0,0,0,0,0,0,0,0,0,0,0,0,0,0,0,0,
0,0,0,0,0,0,0,0,0,0,0,0,0,0,0,0,0,0,0,0,
0,0,0,0,0,0,0,0,0,0,0,0,0,0,0,0,0,0,0,0,
0,0,0,0,0,0,0,0,0,0,0,0,0,0,0,0,0,0,0,0,
0,0,0,0,0,0,0,0,0,0,0,0,0,0,0,0,0,0,0,0,
0,0,0,0,0,0,0,0,0,0,0,0,0,0,0,0,0,0,0,0,
0,0,0,0,0,0,0,0,0,0,0,0,0,0,0,0,0,0,0,0
</data>
 </layer>
 <layer id="3" name="props" width="20" height="11">
  <data encoding="csv">
625,626,0,814,625,626,821,0,0,0,842,818,0,816,627,628,627,628,0,0,
649,650,819,0,649,650,0,0,0,0,822,0,0,839,651,652,651,652,0,815,
673,674,820,820,673,674,841,0,0,0,0,0,0,0,675,676,675,676,841,0,
0,0,0,0,0,0,814,0,841,0,0,0,0,709,710,0,0,0,0,0,
0,0,0,0,0,0,0,0,0,0,0,0,0,733,734,0,0,0,0,0,
0,0,0,0,0,0,0,0,622,623,815,0,0,757,758,0,0,0,0,0,
0,0,0,816,0,0,0,0,646,647,0,0,0,0,0,0,709,710,0,0,
709,710,0,0,0,0,0,0,670,671,0,0,0,0,0,0,733,734,0,0,
733,734,0,0,0,0,0,0,0,709,710,0,0,0,0,0,757,758,0,0,
757,758,0,0,0,0,0,0,0,733,734,845,813,0,0,815,0,0,0,0,
813,0,816,0,0,818,0,0,0,757,758,0,0,841,0,0,0,0,820,839
</data>
 </layer>
 <layer id="4" name="overhead" width="20" height="11">
  <data encoding="csv">
0,0,0,0,0,0,0,0,0,0,0,0,0,0,0,0,0,0,0,0,
0,0,0,0,0,0,0,0,0,0,0,0,0,0,0,0,0,0,0,0,
0,0,0,0,0,0,0,0,0,0,0,0,0,0,0,0,0,0,0,0,
0,0,0,0,0,0,0,0,0,0,0,0,0,0,0,0,0,0,0,0,
0,0,0,0,0,0,0,0,0,0,0,0,0,0,0,0,0,0,0,0,
0,0,0,0,0,0,0,0,0,0,0,0,0,0,0,0,0,0,0,0,
0,0,0,0,0,0,0,0,0,0,0,0,0,0,0,0,0,0,0,0,
0,0,0,0,0,0,0,0,0,0,0,0,0,0,0,0,0,0,0,0,
0,0,0,0,0,0,0,0,0,0,0,0,0,0,0,0,0,0,0,0,
0,0,0,0,0,0,0,0,0,0,0,0,0,0,0,0,0,0,0,0,
0,0,0,0,0,0,0,0,0,0,0,0,0,0,0,0,0,0,0,0
</data>
 </layer>
 <objectgroup id="5" name="spawns">
  <object id="1" name="1" type="STAGE" x="40" y="72" />
  <object id="2" name="2" type="STAGE" x="104" y="104" />
  <object id="3" name="3" type="STAGE" x="168" y="56" />
  <object id="4" name="4" type="STAGE" x="232" y="120" />
  <object id="5" name="5" type="STAGE" x="280" y="72" />
  <object id="6" name="6" type="STAGE" x="56" y="136" />
  <object id="7" name="7" type="STAGE" x="120" y="152" />
 </objectgroup>
</map>