<?xml version='1.0' encoding='UTF-8'?>
<map version="1.10" tiledversion="1.10.2" orientation="orthogonal" renderorder="right-down" width="20" height="11" tilewidth="16" tileheight="16" infinite="0" nextlayerid="8" nextobjectid="13">
 <tileset firstgid="1" name="wall" tilewidth="16" tileheight="16" tilecount="493" columns="17">
  <image source="../../../gfx/tiles/cove/walls_floor.png" width="272" height="464" />
 </tileset>
 <tileset firstgid="494" name="cracks" tilewidth="16" tileheight="16" tilecount="120" columns="8">
  <image source="../../../gfx/tiles/cove/cracks_floor.png" width="128" height="240" />
 </tileset>
 <tileset firstgid="614" name="wallcracks" tilewidth="16" tileheight="16" tilecount="256" columns="8">
  <image source="../../../gfx/tiles/cove/cracks_walls.png" width="128" height="512" />
 </tileset>
 <tileset firstgid="870" name="objects" tilewidth="16" tileheight="16" tilecount="216" columns="24">
  <image source="../../../gfx/tiles/cove/objects.png" width="384" height="144" />
 </tileset>
 <tileset firstgid="1086" name="fire" tilewidth="16" tileheight="16" tilecount="198" columns="11">
  <image source="../../../gfx/tiles/cove/fire.png" width="176" height="288" />
  <tile id="0">
   <animation>
    <frame tileid="0" duration="150" />
    <frame tileid="33" duration="150" />
    <frame tileid="66" duration="150" />
    <frame tileid="99" duration="150" />
    <frame tileid="132" duration="150" />
    <frame tileid="165" duration="150" />
   </animation>
  </tile>
  <tile id="1">
   <animation>
    <frame tileid="1" duration="150" />
    <frame tileid="34" duration="150" />
    <frame tileid="67" duration="150" />
    <frame tileid="100" duration="150" />
    <frame tileid="133" duration="150" />
    <frame tileid="166" duration="150" />
   </animation>
  </tile>
  <tile id="2">
   <animation>
    <frame tileid="2" duration="150" />
    <frame tileid="35" duration="150" />
    <frame tileid="68" duration="150" />
    <frame tileid="101" duration="150" />
    <frame tileid="134" duration="150" />
    <frame tileid="167" duration="150" />
   </animation>
  </tile>
  <tile id="3">
   <animation>
    <frame tileid="3" duration="150" />
    <frame tileid="36" duration="150" />
    <frame tileid="69" duration="150" />
    <frame tileid="102" duration="150" />
    <frame tileid="135" duration="150" />
    <frame tileid="168" duration="150" />
   </animation>
  </tile>
  <tile id="4">
   <animation>
    <frame tileid="4" duration="150" />
    <frame tileid="37" duration="150" />
    <frame tileid="70" duration="150" />
    <frame tileid="103" duration="150" />
    <frame tileid="136" duration="150" />
    <frame tileid="169" duration="150" />
   </animation>
  </tile>
  <tile id="5">
   <animation>
    <frame tileid="5" duration="150" />
    <frame tileid="38" duration="150" />
    <frame tileid="71" duration="150" />
    <frame tileid="104" duration="150" />
    <frame tileid="137" duration="150" />
    <frame tileid="170" duration="150" />
   </animation>
  </tile>
  <tile id="6">
   <animation>
    <frame tileid="6" duration="150" />
    <frame tileid="39" duration="150" />
    <frame tileid="72" duration="150" />
    <frame tileid="105" duration="150" />
    <frame tileid="138" duration="150" />
    <frame tileid="171" duration="150" />
   </animation>
  </tile>
  <tile id="7">
   <animation>
    <frame tileid="7" duration="150" />
    <frame tileid="40" duration="150" />
    <frame tileid="73" duration="150" />
    <frame tileid="106" duration="150" />
    <frame tileid="139" duration="150" />
    <frame tileid="172" duration="150" />
   </animation>
  </tile>
  <tile id="8">
   <animation>
    <frame tileid="8" duration="150" />
    <frame tileid="41" duration="150" />
    <frame tileid="74" duration="150" />
    <frame tileid="107" duration="150" />
    <frame tileid="140" duration="150" />
    <frame tileid="173" duration="150" />
   </animation>
  </tile>
  <tile id="9">
   <animation>
    <frame tileid="9" duration="150" />
    <frame tileid="42" duration="150" />
    <frame tileid="75" duration="150" />
    <frame tileid="108" duration="150" />
    <frame tileid="141" duration="150" />
    <frame tileid="174" duration="150" />
   </animation>
  </tile>
  <tile id="10">
   <animation>
    <frame tileid="10" duration="150" />
    <frame tileid="43" duration="150" />
    <frame tileid="76" duration="150" />
    <frame tileid="109" duration="150" />
    <frame tileid="142" duration="150" />
    <frame tileid="175" duration="150" />
   </animation>
  </tile>
  <tile id="11">
   <animation>
    <frame tileid="11" duration="150" />
    <frame tileid="44" duration="150" />
    <frame tileid="77" duration="150" />
    <frame tileid="110" duration="150" />
    <frame tileid="143" duration="150" />
    <frame tileid="176" duration="150" />
   </animation>
  </tile>
  <tile id="12">
   <animation>
    <frame tileid="12" duration="150" />
    <frame tileid="45" duration="150" />
    <frame tileid="78" duration="150" />
    <frame tileid="111" duration="150" />
    <frame tileid="144" duration="150" />
    <frame tileid="177" duration="150" />
   </animation>
  </tile>
  <tile id="13">
   <animation>
    <frame tileid="13" duration="150" />
    <frame tileid="46" duration="150" />
    <frame tileid="79" duration="150" />
    <frame tileid="112" duration="150" />
    <frame tileid="145" duration="150" />
    <frame tileid="178" duration="150" />
   </animation>
  </tile>
  <tile id="14">
   <animation>
    <frame tileid="14" duration="150" />
    <frame tileid="47" duration="150" />
    <frame tileid="80" duration="150" />
    <frame tileid="113" duration="150" />
    <frame tileid="146" duration="150" />
    <frame tileid="179" duration="150" />
   </animation>
  </tile>
  <tile id="15">
   <animation>
    <frame tileid="15" duration="150" />
    <frame tileid="48" duration="150" />
    <frame tileid="81" duration="150" />
    <frame tileid="114" duration="150" />
    <frame tileid="147" duration="150" />
    <frame tileid="180" duration="150" />
   </animation>
  </tile>
  <tile id="16">
   <animation>
    <frame tileid="16" duration="150" />
    <frame tileid="49" duration="150" />
    <frame tileid="82" duration="150" />
    <frame tileid="115" duration="150" />
    <frame tileid="148" duration="150" />
    <frame tileid="181" duration="150" />
   </animation>
  </tile>
  <tile id="17">
   <animation>
    <frame tileid="17" duration="150" />
    <frame tileid="50" duration="150" />
    <frame tileid="83" duration="150" />
    <frame tileid="116" duration="150" />
    <frame tileid="149" duration="150" />
    <frame tileid="182" duration="150" />
   </animation>
  </tile>
  <tile id="18">
   <animation>
    <frame tileid="18" duration="150" />
    <frame tileid="51" duration="150" />
    <frame tileid="84" duration="150" />
    <frame tileid="117" duration="150" />
    <frame tileid="150" duration="150" />
    <frame tileid="183" duration="150" />
   </animation>
  </tile>
  <tile id="19">
   <animation>
    <frame tileid="19" duration="150" />
    <frame tileid="52" duration="150" />
    <frame tileid="85" duration="150" />
    <frame tileid="118" duration="150" />
    <frame tileid="151" duration="150" />
    <frame tileid="184" duration="150" />
   </animation>
  </tile>
  <tile id="20">
   <animation>
    <frame tileid="20" duration="150" />
    <frame tileid="53" duration="150" />
    <frame tileid="86" duration="150" />
    <frame tileid="119" duration="150" />
    <frame tileid="152" duration="150" />
    <frame tileid="185" duration="150" />
   </animation>
  </tile>
  <tile id="21">
   <animation>
    <frame tileid="21" duration="150" />
    <frame tileid="54" duration="150" />
    <frame tileid="87" duration="150" />
    <frame tileid="120" duration="150" />
    <frame tileid="153" duration="150" />
    <frame tileid="186" duration="150" />
   </animation>
  </tile>
  <tile id="22">
   <animation>
    <frame tileid="22" duration="150" />
    <frame tileid="55" duration="150" />
    <frame tileid="88" duration="150" />
    <frame tileid="121" duration="150" />
    <frame tileid="154" duration="150" />
    <frame tileid="187" duration="150" />
   </animation>
  </tile>
  <tile id="23">
   <animation>
    <frame tileid="23" duration="150" />
    <frame tileid="56" duration="150" />
    <frame tileid="89" duration="150" />
    <frame tileid="122" duration="150" />
    <frame tileid="155" duration="150" />
    <frame tileid="188" duration="150" />
   </animation>
  </tile>
  <tile id="24">
   <animation>
    <frame tileid="24" duration="150" />
    <frame tileid="57" duration="150" />
    <frame tileid="90" duration="150" />
    <frame tileid="123" duration="150" />
    <frame tileid="156" duration="150" />
    <frame tileid="189" duration="150" />
   </animation>
  </tile>
  <tile id="25">
   <animation>
    <frame tileid="25" duration="150" />
    <frame tileid="58" duration="150" />
    <frame tileid="91" duration="150" />
    <frame tileid="124" duration="150" />
    <frame tileid="157" duration="150" />
    <frame tileid="190" duration="150" />
   </animation>
  </tile>
  <tile id="26">
   <animation>
    <frame tileid="26" duration="150" />
    <frame tileid="59" duration="150" />
    <frame tileid="92" duration="150" />
    <frame tileid="125" duration="150" />
    <frame tileid="158" duration="150" />
    <frame tileid="191" duration="150" />
   </animation>
  </tile>
  <tile id="27">
   <animation>
    <frame tileid="27" duration="150" />
    <frame tileid="60" duration="150" />
    <frame tileid="93" duration="150" />
    <frame tileid="126" duration="150" />
    <frame tileid="159" duration="150" />
    <frame tileid="192" duration="150" />
   </animation>
  </tile>
  <tile id="28">
   <animation>
    <frame tileid="28" duration="150" />
    <frame tileid="61" duration="150" />
    <frame tileid="94" duration="150" />
    <frame tileid="127" duration="150" />
    <frame tileid="160" duration="150" />
    <frame tileid="193" duration="150" />
   </animation>
  </tile>
  <tile id="29">
   <animation>
    <frame tileid="29" duration="150" />
    <frame tileid="62" duration="150" />
    <frame tileid="95" duration="150" />
    <frame tileid="128" duration="150" />
    <frame tileid="161" duration="150" />
    <frame tileid="194" duration="150" />
   </animation>
  </tile>
  <tile id="30">
   <animation>
    <frame tileid="30" duration="150" />
    <frame tileid="63" duration="150" />
    <frame tileid="96" duration="150" />
    <frame tileid="129" duration="150" />
    <frame tileid="162" duration="150" />
    <frame tileid="195" duration="150" />
   </animation>
  </tile>
  <tile id="31">
   <animation>
    <frame tileid="31" duration="150" />
    <frame tileid="64" duration="150" />
    <frame tileid="97" duration="150" />
    <frame tileid="130" duration="150" />
    <frame tileid="163" duration="150" />
    <frame tileid="196" duration="150" />
   </animation>
  </tile>
  <tile id="32">
   <animation>
    <frame tileid="32" duration="150" />
    <frame tileid="65" duration="150" />
    <frame tileid="98" duration="150" />
    <frame tileid="131" duration="150" />
    <frame tileid="164" duration="150" />
    <frame tileid="197" duration="150" />
   </animation>
  </tile>
 </tileset>
 <layer id="1" name="ground" width="20" height="11">
  <data encoding="csv">
251,251,251,251,251,251,251,251,251,251,251,251,251,251,251,251,251,251,251,251,
251,251,251,251,251,251,251,251,251,251,251,251,251,251,251,251,251,251,251,251,
251,251,251,251,251,251,251,251,251,251,251,251,251,251,251,251,251,251,251,251,
251,251,251,251,251,251,251,251,251,251,251,251,251,251,251,251,251,251,251,251,
251,251,251,251,251,251,251,251,251,251,251,251,251,251,251,251,251,251,251,251,
251,251,251,251,251,251,251,251,251,251,251,251,251,251,251,251,251,251,251,251,
251,251,251,251,251,251,251,251,251,251,251,251,251,251,251,251,251,251,251,251,
251,251,251,251,251,251,251,251,251,251,251,251,251,251,251,251,251,251,251,251,
251,251,251,251,251,251,251,251,251,251,251,251,251,251,251,251,251,251,251,251,
251,251,251,251,251,251,251,251,251,251,251,251,251,251,251,251,251,251,251,251,
251,251,251,251,251,251,251,251,251,251,251,251,251,251,251,251,251,251,251,251
</data>
 </layer>
 <layer id="2" name="dressing" width="20" height="11">
  <data encoding="csv">
0,0,0,615,635,0,0,0,0,0,0,631,0,644,0,0,0,620,0,0,
0,0,0,0,0,1094,1095,1096,0,0,0,607,1091,1092,1093,0,0,0,0,0,
0,0,0,0,0,1105,0,1107,0,0,0,910,1102,0,1104,0,0,0,0,0,
0,232,232,1051,232,1116,1117,1118,232,232,232,232,1113,1114,1115,232,232,232,232,0,
0,0,0,232,232,232,232,232,232,232,232,232,232,232,232,232,232,0,0,0,
0,0,0,232,232,1052,232,232,232,232,612,232,1051,232,232,232,232,0,0,0,
0,0,0,590,232,232,232,232,232,597,598,232,232,232,232,232,232,0,0,0,
0,232,232,232,232,1094,1095,1096,593,232,232,232,1094,1095,1096,232,909,232,232,0,
0,0,0,0,0,1105,0,1107,0,0,0,232,1105,0,1107,0,0,0,0,0,
0,0,0,0,0,1116,1117,1118,0,0,0,232,1116,1117,1118,0,0,0,0,0,
0,0,0,0,0,0,0,0,0,0,0,0,0,0,0,0,0,0,0,0
</data>
 </layer>
 <layer id="3" name="decor" width="20" height="11">
  <data encoding="csv">
0,0,0,0,0,0,0,0,0,0,0,0,0,0,0,0,0,0,0,0,
0,0,0,0,0,0,0,0,0,0,0,0,0,0,0,0,0,0,0,0,
0,0,0,0,0,0,0,0,0,0,0,0,0,0,0,0,0,0,0,0,
0,0,0,0,0,0,0,0,0,0,0,0,0,0,0,0,0,0,0,0,
0,0,0,0,0,0,0,0,0,0,0,0,0,0,0,0,0,0,0,0,
0,0,0,0,0,0,0,0,0,0,0,0,0,0,0,0,0,0,0,0,
0,0,0,0,0,0,0,0,0,0,0,0,0,0,0,0,0,0,0,0,
0,0,0,0,0,0,0,0,0,0,0,0,0,0,0,0,0,0,0,0,
0,0,0,0,0,0,0,0,0,0,0,0,0,0,0,0,0,0,0,0,
0,0,0,0,0,0,0,0,0,0,0,0,0,0,0,0,0,0,0,0,
0,0,0,0,0,0,0,0,0,0,0,0,0,0,0,0,0,0,0,0
</data>
 </layer>
 <layer id="4" name="walls" width="20" height="11">
  <data encoding="csv">
70,71,71,71,71,71,71,71,0,0,0,71,71,71,71,71,71,71,71,72,
36,0,0,0,0,0,0,0,0,0,0,0,0,0,0,0,0,0,0,38,
36,0,0,0,0,0,0,0,0,0,0,0,0,0,0,0,0,0,0,38,
36,0,0,0,0,0,0,0,0,0,0,0,0,0,0,0,0,0,0,38,
0,0,0,0,0,0,0,0,0,0,0,0,0,0,0,0,0,0,0,0,
0,0,0,0,0,0,0,0,0,0,0,0,0,0,0,0,0,0,0,0,
0,0,0,0,0,0,0,0,0,0,0,0,0,0,0,0,0,0,0,0,
36,0,0,0,0,0,0,0,0,0,0,0,0,0,0,0,0,0,0,38,
36,0,0,0,0,0,0,0,0,0,0,0,0,0,0,0,0,0,0,38,
36,0,0,0,0,0,0,0,0,0,0,0,0,0,0,0,0,0,0,38,
19,20,20,20,20,20,20,20,0,0,0,20,20,20,20,20,20,20,20,21
</data>
 </layer>
 <layer id="5" name="props" width="20" height="11">
  <data encoding="csv">
0,0,0,0,0,0,0,0,0,0,0,0,0,0,0,0,0,0,0,0,
0,20,20,20,20,0,0,0,0,0,0,0,0,0,0,20,20,20,20,0,
0,71,71,71,71,0,1106,0,0,0,0,0,0,1103,0,71,71,71,71,0,
0,0,0,0,0,0,0,0,0,0,0,0,0,0,0,0,0,0,0,0,
0,0,0,0,0,0,0,0,0,0,0,0,0,0,0,0,0,0,0,0,
0,0,0,0,0,0,0,0,0,0,0,0,0,0,0,0,0,0,0,0,
0,0,0,0,0,0,0,0,0,0,0,0,0,0,0,0,0,0,0,0,
0,0,0,0,0,0,0,0,0,0,0,0,0,0,0,0,0,0,0,0,
0,20,20,20,20,0,1106,0,0,0,0,0,0,1106,0,20,20,20,20,0,
0,71,71,71,71,0,0,0,0,0,0,0,0,0,0,71,71,71,71,0,
0,0,0,0,0,0,0,0,0,0,0,0,0,0,0,0,0,0,0,0
</data>
 </layer>
 <layer id="6" name="overhead" width="20" height="11">
  <data encoding="csv">
0,0,0,0,0,0,0,0,0,0,0,0,0,0,0,0,0,0,0,0,
0,0,0,0,0,0,0,0,0,0,0,0,0,0,0,0,0,0,0,0,
0,0,0,0,0,0,0,0,0,0,0,0,0,0,0,0,0,0,0,0,
0,0,0,0,0,0,0,0,0,0,0,0,0,0,0,0,0,0,0,0,
0,0,0,0,0,0,0,0,0,0,0,0,0,0,0,0,0,0,0,0,
0,0,0,0,0,0,0,0,0,0,0,0,0,0,0,0,0,0,0,0,
0,0,0,0,0,0,0,0,0,0,0,0,0,0,0,0,0,0,0,0,
0,0,0,0,0,0,0,0,0,0,0,0,0,0,0,0,0,0,0,0,
0,0,0,0,0,0,0,0,0,0,0,0,0,0,0,0,0,0,0,0,
0,0,0,0,0,0,0,0,0,0,0,0,0,0,0,0,0,0,0,0,
0,0,0,0,0,0,0,0,0,0,0,0,0,0,0,0,0,0,0,0
</data>
 </layer>
 <objectgroup id="7" name="spawns">
  <object id="1" name="UP" type="ENTRY" x="152" y="24" />
  <object id="2" name="DOWN" type="ENTRY" x="152" y="152" />
  <object id="3" name="LEFT" type="ENTRY" x="24" y="88" />
  <object id="4" name="RIGHT" type="ENTRY" x="296" y="88" />
  <object id="5" name="" type="ENTRY" x="168" y="88" />
  <object id="6" name="" type="CHEST" x="152" y="88" />
  <object id="7" name="torch" type="PROP" x="56" y="168" />
  <object id="8" name="torch" type="PROP" x="264" y="168" />
  <object id="9" name="torch" type="PROP" x="8" y="136" />
  <object id="10" name="torch" type="PROP" x="312" y="136" />
  <object id="11" name="banner" type="PROP" x="120" y="168" />
  <object id="12" name="banner" type="PROP" x="200" y="168" />
 </objectgroup>
</map>