<?xml version='1.0' encoding='UTF-8'?>
<map version="1.10" tiledversion="1.10.2" orientation="orthogonal" renderorder="right-down" width="20" height="11" tilewidth="16" tileheight="16" infinite="0" nextlayerid="6" nextobjectid="9">
 <tileset firstgid="1" name="dungeon" tilewidth="16" tileheight="16" tilecount="100" columns="10">
  <image source="../../../gfx/tiles/depths/dungeon_tileset.png" width="160" height="160" />
 </tileset>
 <layer id="1" name="ground" width="20" height="11">
  <data encoding="csv">
27,7,10,7,28,27,19,8,9,18,28,30,9,27,9,7,7,27,7,29,
20,17,7,17,18,17,18,17,17,17,29,27,10,7,20,18,7,19,19,10,
28,9,17,18,7,8,10,7,18,18,10,27,17,18,27,18,8,30,7,28,
8,30,17,18,8,7,8,9,8,20,10,29,8,29,17,27,29,18,20,18,
17,19,29,29,17,9,10,17,8,20,30,30,8,10,19,29,10,20,17,8,
27,20,17,29,17,9,17,8,20,18,29,19,7,7,17,9,18,7,27,19,
17,8,8,29,20,17,29,30,9,10,7,17,29,30,17,17,29,10,20,9,
27,7,30,28,7,27,18,17,19,9,17,29,10,17,19,20,20,9,17,29,
29,28,18,9,10,9,20,30,19,29,27,17,29,8,7,19,19,8,30,8,
9,7,18,20,9,9,28,8,10,10,7,18,30,17,8,20,9,29,8,8,
7,19,19,29,7,30,10,10,18,28,27,27,8,8,7,18,30,18,9,18
</data>
 </layer>
 <layer id="2" name="decor" width="20" height="11">
  <data encoding="csv">
0,0,0,0,0,0,0,0,0,0,0,0,0,0,0,0,0,0,0,0,
0,0,0,0,0,0,0,0,0,0,0,0,0,0,0,0,0,0,0,0,
0,0,0,0,0,0,0,0,0,0,0,0,0,0,0,0,0,0,0,0,
0,0,0,0,0,0,0,0,0,0,0,0,0,0,0,0,0,0,0,0,
0,0,0,0,0,0,0,0,0,0,0,0,0,0,0,0,0,0,0,0,
0,0,0,0,0,0,0,0,0,0,0,0,0,0,0,0,0,0,0,0,
0,0,0,0,0,0,0,0,0,0,0,0,0,0,0,0,0,0,0,0,
0,0,0,0,0,0,0,0,0,0,0,0,0,0,0,0,0,0,0,0,
0,0,0,0,0,0,0,0,0,0,0,0,0,0,0,0,0,0,0,0,
0,0,0,0,0,0,0,0,0,0,0,0,0,0,0,0,0,0,0,0,
0,0,0,0,0,0,0,0,0,0,0,0,0,0,0,0,0,0,0,0
</data>
 </layer>
 <layer id="3" name="walls" width="20" height="11">
  <data encoding="csv">
1,4,3,5,4,4,3,5,0,0,0,2,5,2,4,4,5,5,2,6,
31,0,0,0,0,0,0,0,0,0,0,0,0,0,0,0,0,0,0,36,
11,0,0,0,0,0,0,0,0,0,0,0,0,0,0,0,0,0,0,16,
31,0,0,0,0,0,0,0,0,0,0,0,0,0,0,0,0,0,0,36,
0,0,0,0,0,0,0,0,0,0,0,0,0,0,0,0,0,0,0,0,
0,0,0,0,0,0,0,0,0,0,0,0,0,0,0,0,0,0,0,0,
0,0,0,0,0,0,0,0,0,0,0,0,0,0,0,0,0,0,0,0,
31,0,0,0,0,0,0,0,0,0,0,0,0,0,0,0,0,0,0,36,
11,0,0,0,0,0,0,0,0,0,0,0,0,0,0,0,0,0,0,26,
31,0,0,0,0,0,0,0,0,0,0,0,0,0,0,0,0,0,0,26,
41,42,43,44,44,43,44,44,0,0,0,42,43,42,45,45,43,44,45,46
</data>
 </layer>
 <layer id="4" name="props" width="20" height="11">
  <data encoding="csv">
0,0,0,92,0,0,91,0,0,0,0,0,0,91,0,0,92,0,0,0,
0,3,3,4,5,0,0,0,0,0,0,0,0,0,0,3,4,2,5,0,
0,45,44,42,42,0,0,0,0,0,0,0,0,0,0,43,43,42,44,0,
0,0,0,0,0,0,0,0,0,0,0,0,0,0,0,0,0,0,0,0,
0,0,0,0,0,0,0,0,0,0,0,0,0,0,0,0,0,0,0,0,
0,0,0,0,0,0,0,0,0,0,0,0,0,0,0,0,0,0,0,0,
0,0,0,0,0,0,0,0,0,0,0,0,0,0,0,0,0,0,0,0,
0,0,0,0,0,0,0,0,0,0,0,0,0,0,0,0,0,0,0,0,
0,4,4,4,5,0,0,0,0,0,0,0,0,0,0,5,5,5,5,0,
0,44,45,45,45,0,0,0,0,0,0,0,0,0,0,45,43,42,43,0,
0,0,0,0,0,0,0,0,0,0,0,0,0,0,0,0,0,0,0,0
</data>
 </layer>
 <layer id="5" name="overhead" width="20" height="11">
  <data encoding="csv">
0,0,0,0,0,0,0,0,0,0,0,0,0,0,0,0,0,0,0,0,
0,0,0,0,0,0,0,0,0,0,0,0,0,0,0,0,0,0,0,0,
0,0,0,0,0,0,0,0,0,0,0,0,0,0,0,0,0,0,0,0,
0,0,0,0,0,0,0,0,0,0,0,0,0,0,0,0,0,0,0,0,
0,0,0,0,0,0,0,0,0,0,0,0,0,0,0,0,0,0,0,0,
0,0,0,0,0,0,0,0,0,0,0,0,0,0,0,0,0,0,0,0,
0,0,0,0,0,0,0,0,0,0,0,0,0,0,0,0,0,0,0,0,
0,0,0,0,0,0,0,0,0,0,0,0,0,0,0,0,0,0,0,0,
0,0,0,0,0,0,0,0,0,0,0,0,0,0,0,0,0,0,0,0,
0,0,0,0,0,0,0,0,0,0,0,0,0,0,0,0,0,0,0,0,
0,0,0,0,0,0,0,0,0,0,0,0,0,0,0,0,0,0,0,0
</data>
 </layer>
 <objectgroup id="6" name="spawns">
  <object id="1" name="UP" type="ENTRY" x="152" y="24" />
  <object id="2" name="DOWN" type="ENTRY" x="152" y="152" />
  <object id="3" name="LEFT" type="ENTRY" x="24" y="88" />
  <object id="4" name="RIGHT" type="ENTRY" x="296" y="88" />
  <object id="5" name="" type="ENTRY" x="168" y="88" />
  <object id="6" name="boss" type="ENEMY" x="168" y="104" />
  <object id="7" name="torch" type="PROP" x="40" y="56" />
  <object id="8" name="torch" type="PROP" x="280" y="56" />
 </objectgroup>
</map>