<?xml version='1.0' encoding='UTF-8'?>
<map version="1.10" tiledversion="1.10.2" orientation="orthogonal" renderorder="right-down" width="20" height="11" tilewidth="16" tileheight="16" infinite="0" nextlayerid="6" nextobjectid="12">
 <tileset firstgid="1" name="dungeon" tilewidth="16" tileheight="16" tilecount="100" columns="10">
  <image source="../../../gfx/tiles/depths/dungeon_tileset.png" width="160" height="160" />
 </tileset>
 <layer id="1" name="ground" width="20" height="11">
  <data encoding="csv">
10,8,10,8,8,17,8,18,17,27,19,9,9,8,20,10,20,17,8,8,
29,20,10,29,8,20,28,29,17,28,28,10,19,29,10,18,18,19,30,20,
30,8,9,9,17,29,10,7,7,7,7,20,29,20,9,10,8,27,8,9,
28,29,30,30,20,17,20,27,17,8,30,20,27,28,30,30,17,20,27,9,
19,9,17,29,27,30,9,30,17,7,9,30,17,7,18,17,18,29,18,29,
28,17,27,8,17,9,17,19,18,8,8,19,9,28,17,19,19,10,30,27,
30,28,10,27,7,30,19,10,8,17,28,28,18,10,19,28,30,18,18,18,
28,9,7,29,20,18,10,10,10,9,20,30,20,9,18,7,7,7,20,18,
18,7,8,18,10,7,8,19,10,8,9,27,8,27,17,19,8,29,9,19,
10,29,28,28,18,28,28,30,30,20,27,9,29,17,9,29,19,10,29,20,
30,20,28,7,7,27,27,10,30,9,10,9,27,28,8,7,19,8,9,20
</data>
 </layer>
 <layer id="2" name="decor" width="20" height="11">
  <data encoding="csv">
0,0,0,0,0,0,0,0,0,0,0,0,0,0,0,0,0,0,0,0,
0,0,0,0,0,0,0,0,0,0,0,0,0,0,0,0,0,0,0,0,
0,0,0,0,0,0,0,0,0,0,0,0,0,0,0,0,0,0,0,0,
0,0,0,0,0,0,0,0,0,0,0,0,0,0,0,0,0,0,0,0,
0,0,0,0,0,0,0,0,0,0,0,0,0,0,0,0,0,0,0,0,
0,0,0,0,0,0,0,0,0,0,0,0,0,0,0,0,0,0,0,0,
0,0,0,0,0,0,0,0,0,0,0,0,0,0,0,0,0,0,0,0,
0,0,0,0,0,0,0,0,0,0,0,0,0,0,0,0,0,0,0,0,
0,0,0,0,0,0,0,0,0,0,0,0,0,0,0,0,0,0,0,0,
0,0,0,0,0,0,0,0,0,0,0,0,0,0,0,0,0,0,0,0,
0,0,0,0,0,0,0,0,0,0,0,0,0,0,0,0,0,0,0,0
</data>
 </layer>
 <layer id="3" name="walls" width="20" height="11">
  <data encoding="csv">
1,5,3,3,3,3,3,2,0,0,0,2,5,2,2,5,4,2,3,6,
31,0,0,0,0,0,0,0,0,0,0,0,0,0,0,0,0,0,0,26,
11,0,0,0,0,0,0,0,0,0,0,0,0,0,0,0,0,0,0,16,
31,0,0,0,0,0,0,0,0,0,0,0,0,0,0,0,0,0,0,36,
0,0,0,0,0,0,0,0,0,0,0,0,0,0,0,0,0,0,0,0,
0,0,0,0,0,0,0,0,0,0,0,0,0,0,0,0,0,0,0,0,
0,0,0,0,0,0,0,0,0,0,0,0,0,0,0,0,0,0,0,0,
31,0,0,0,0,0,0,0,0,0,0,0,0,0,0,0,0,0,0,16,
11,0,0,0,0,0,0,0,0,0,0,0,0,0,0,0,0,0,0,26,
31,0,0,0,0,0,0,0,0,0,0,0,0,0,0,0,0,0,0,36,
41,42,45,45,42,42,43,45,0,0,0,44,42,43,43,44,42,43,44,46
</data>
 </layer>
 <layer id="4" name="props" width="20" height="11">
  <data encoding="csv">
0,0,0,91,0,0,91,0,0,0,0,0,0,92,0,0,92,0,0,0,
0,0,0,0,0,0,0,0,0,0,0,0,0,0,0,0,0,0,0,0,
0,0,0,5,4,0,0,0,0,0,0,0,0,0,0,5,3,0,0,0,
0,0,0,44,45,0,0,0,0,0,0,0,0,0,0,43,42,0,0,0,
0,0,0,0,0,0,4,4,0,0,0,0,4,5,0,0,0,0,0,0,
0,0,0,0,0,0,45,44,0,0,0,0,44,42,0,0,0,0,0,0,
0,0,0,0,0,0,0,0,0,4,4,0,0,0,0,0,0,0,0,0,
0,0,0,0,0,0,0,0,0,45,43,0,0,0,0,0,0,0,0,0,
0,0,0,0,0,0,0,0,0,0,0,0,0,0,0,0,0,0,0,0,
0,0,0,0,0,0,0,0,0,0,0,0,0,0,0,0,0,0,0,0,
0,0,0,0,0,0,0,0,0,0,0,0,0,0,0,0,0,0,0,0
</data>
 </layer>
 <layer id="5" name="overhead" width="20" height="11">
  <data encoding="csv">
0,0,0,0,0,0,0,0,0,0,0,0,0,0,0,0,0,0,0,0,
0,0,0,0,0,0,0,0,0,0,0,0,0,0,0,0,0,0,0,0,
0,0,0,0,0,0,0,0,0,0,0,0,0,0,0,0,0,0,0,0,
0,0,0,0,0,0,0,0,0,0,0,0,0,0,0,0,0,0,0,0,
0,0,0,0,0,0,0,0,0,0,0,0,0,0,0,0,0,0,0,0,
0,0,0,0,0,0,0,0,0,0,0,0,0,0,0,0,0,0,0,0,
0,0,0,0,0,0,0,0,0,0,0,0,0,0,0,0,0,0,0,0,
0,0,0,0,0,0,0,0,0,0,0,0,0,0,0,0,0,0,0,0,
0,0,0,0,0,0,0,0,0,0,0,0,0,0,0,0,0,0,0,0,
0,0,0,0,0,0,0,0,0,0,0,0,0,0,0,0,0,0,0,0,
0,0,0,0,0,0,0,0,0,0,0,0,0,0,0,0,0,0,0,0
</data>
 </layer>
 <objectgroup id="6" name="spawns">
  <object id="1" name="UP" type="ENTRY" x="152" y="24" />
  <object id="2" name="DOWN" type="ENTRY" x="152" y="152" />
  <object id="3" name="LEFT" type="ENTRY" x="24" y="88" />
  <object id="4" name="RIGHT" type="ENTRY" x="296" y="88" />
  <object id="5" name="" type="ENTRY" x="168" y="88" />
  <object id="6" name="" type="ENEMY" x="184" y="88" />
  <object id="7" name="" type="ENEMY" x="136" y="120" />
  <object id="8" name="" type="ENEMY" x="232" y="56" />
  <object id="9" name="" type="ENEMY" x="72" y="72" />
  <object id="10" name="" type="ENEMY" x="152" y="56" />
  <object id="11" name="torch" type="PROP" x="40" y="40" />
 </objectgroup>
</map>