<?xml version='1.0' encoding='UTF-8'?>
<map version="1.10" tiledversion="1.10.2" orientation="orthogonal" renderorder="right-down" width="20" height="11" tilewidth="16" tileheight="16" infinite="0" nextlayerid="7" nextobjectid="13">
 <tileset firstgid="1" name="dungeon" tilewidth="16" tileheight="16" tilecount="100" columns="10">
  <image source="../../../gfx/tiles/depths/dungeon_tileset.png" width="160" height="160" />
 </tileset>
 <layer id="1" name="ground" width="20" height="11">
  <data encoding="csv">
9,10,17,9,17,29,19,19,7,27,19,8,7,7,17,19,28,19,29,10,
18,17,7,29,17,10,29,28,19,28,27,17,29,30,9,18,29,17,29,19,
7,28,18,9,20,29,10,20,20,27,30,28,10,19,20,28,28,7,28,27,
30,7,29,19,17,10,8,29,20,20,18,18,10,7,7,8,27,29,10,27,
7,10,27,9,27,29,17,30,17,9,30,8,28,20,9,30,29,7,9,27,
29,10,9,8,27,7,20,18,30,30,20,30,20,19,30,30,20,19,8,30,
19,8,17,18,27,17,20,7,17,19,18,19,10,20,17,18,18,30,20,20,
27,29,19,28,9,9,29,30,9,20,28,18,17,27,8,17,18,10,9,18,
17,28,7,19,8,30,20,10,9,17,28,27,10,28,18,17,30,28,20,20,
17,30,27,20,29,17,7,9,17,17,19,7,18,10,20,8,7,7,28,27,
9,30,19,10,9,18,17,9,8,10,27,18,30,9,7,27,18,10,29,7
</data>
 </layer>
 <layer id="2" name="dressing" width="20" height="11">
  <data encoding="csv">
0,0,0,0,0,0,0,0,0,0,0,0,0,0,0,0,0,0,0,0,
0,0,0,78,0,0,0,0,0,0,0,0,0,0,0,0,0,0,0,0,
0,0,0,69,0,0,0,0,0,0,0,0,0,0,0,0,0,0,0,0,
0,0,0,0,0,0,0,0,0,0,0,0,0,0,0,0,0,0,0,0,
0,0,0,78,0,0,0,0,0,0,0,0,0,0,0,0,69,0,0,0,
0,0,0,0,0,0,0,0,0,0,0,0,0,0,0,0,0,0,0,0,
0,0,0,0,0,0,0,0,0,0,0,0,0,0,0,0,0,0,0,0,
0,0,0,0,0,0,0,0,0,0,0,0,0,0,0,0,0,0,0,0,
0,0,0,0,0,0,0,0,0,0,0,0,0,69,0,0,0,0,0,0,
0,0,0,0,0,0,0,0,0,0,0,0,0,0,0,0,0,0,0,0,
0,0,0,0,0,0,0,0,0,0,0,0,0,0,0,0,0,0,0,0
</data>
 </layer>
 <layer id="3" name="decor" width="20" height="11">
  <data encoding="csv">
0,0,0,0,0,0,0,0,0,0,0,0,0,0,0,0,0,0,0,0,
0,0,0,0,0,0,0,0,0,0,0,0,0,0,0,0,0,0,0,0,
0,0,0,0,0,0,0,0,0,0,0,0,0,0,0,0,0,0,0,0,
0,0,0,0,0,0,0,0,0,0,0,0,0,0,0,0,0,0,0,0,
0,0,0,0,0,0,0,0,0,0,0,0,0,0,0,0,0,0,0,0,
0,0,0,0,0,0,0,0,0,0,0,0,0,0,0,0,0,0,0,0,
0,0,0,0,0,0,0,0,0,0,0,0,0,0,0,0,0,0,0,0,
0,0,0,0,0,0,0,0,0,0,0,0,0,0,0,0,0,0,0,0,
0,0,0,0,0,0,0,0,0,0,0,0,0,0,0,0,0,0,0,0,
0,0,0,0,0,0,0,0,0,0,0,0,0,0,0,0,0,0,0,0,
0,0,0,0,0,0,0,0,0,0,0,0,0,0,0,0,0,0,0,0
</data>
 </layer>
 <layer id="4" name="walls" width="20" height="11">
  <data encoding="csv">
1,3,5,4,3,5,2,3,0,0,0,2,3,5,3,4,5,3,5,6,
11,0,0,0,0,0,0,0,0,0,0,0,0,0,0,0,0,0,0,26,
11,0,0,0,0,0,0,0,0,0,0,0,0,0,0,0,0,0,0,36,
21,0,0,0,0,0,0,0,0,0,0,0,0,0,0,0,0,0,0,26,
0,0,0,0,0,0,0,0,0,0,0,0,0,0,0,0,0,0,0,0,
0,0,0,0,0,0,0,0,0,0,0,0,0,0,0,0,0,0,0,0,
0,0,0,0,0,0,0,0,0,0,0,0,0,0,0,0,0,0,0,0,
11,0,0,0,0,0,0,0,0,0,0,0,0,0,0,0,0,0,0,26,
21,0,0,0,0,0,0,0,0,0,0,0,0,0,0,0,0,0,0,36,
11,0,0,0,0,0,0,0,0,0,0,0,0,0,0,0,0,0,0,36,
41,43,45,44,44,45,45,43,0,0,0,44,42,45,43,44,43,45,45,46
</data>
 </layer>
 <layer id="5" name="props" width="20" height="11">
  <data encoding="csv">
0,0,0,0,0,0,0,0,0,0,0,0,0,0,0,0,0,0,0,0,
0,68,0,0,0,0,0,0,0,0,0,0,0,0,0,0,0,0,0,0,
0,0,0,0,0,4,3,0,0,0,0,0,5,3,4,5,0,0,0,0,
0,0,0,0,0,5,5,0,0,0,0,0,45,44,42,44,0,0,0,0,
0,0,0,0,0,5,4,0,0,0,0,0,0,0,0,0,0,0,0,0,
0,0,0,0,0,45,43,0,0,0,0,0,0,0,0,0,0,0,0,0,
0,0,0,0,0,0,0,0,0,68,0,0,0,0,0,82,0,0,0,0,
0,0,0,0,0,0,0,0,0,0,0,0,0,0,0,0,0,0,0,0,
0,0,0,0,0,0,81,0,0,0,0,0,0,0,0,0,0,0,0,0,
0,0,0,0,0,0,0,0,0,0,0,0,68,0,0,67,0,0,0,0,
0,0,0,0,0,0,0,0,0,0,0,0,0,0,0,0,0,0,0,0
</data>
 </layer>
 <layer id="6" name="overhead" width="20" height="11">
  <data encoding="csv">
0,0,0,0,0,0,0,0,0,0,0,0,0,0,0,0,0,0,0,0,
0,0,0,0,0,0,0,0,0,0,0,0,0,0,0,0,0,0,0,0,
0,0,0,0,0,0,0,0,0,0,0,0,0,0,0,0,0,0,0,0,
0,0,0,0,0,0,0,0,0,0,0,0,0,0,0,0,0,0,0,0,
0,0,0,0,0,0,0,0,0,0,0,0,0,0,0,0,0,0,0,0,
0,0,0,0,0,0,0,0,0,0,0,0,0,0,0,0,0,0,0,0,
0,0,0,0,0,0,0,0,0,0,0,0,0,0,0,0,0,0,0,0,
0,0,0,0,0,0,0,0,0,0,0,0,0,0,0,0,0,0,0,0,
0,0,0,0,0,0,0,0,0,0,0,0,0,0,0,0,0,0,0,0,
0,0,0,0,0,0,0,0,0,0,0,0,0,0,0,0,0,0,0,0,
0,0,0,0,0,0,0,0,0,0,0,0,0,0,0,0,0,0,0,0
</data>
 </layer>
 <objectgroup id="7" name="spawns">
  <object id="1" name="UP" type="ENTRY" x="152" y="24" />
  <object id="2" name="DOWN" type="ENTRY" x="152" y="152" />
  <object id="3" name="LEFT" type="ENTRY" x="24" y="88" />
  <object id="4" name="RIGHT" type="ENTRY" x="296" y="88" />
  <object id="5" name="" type="ENTRY" x="168" y="88" />
  <object id="6" name="" type="ENEMY" x="72" y="56" />
  <object id="7" name="" type="ENEMY" x="248" y="120" />
  <object id="8" name="" type="ENEMY" x="248" y="72" />
  <object id="9" name="" type="ENEMY" x="72" y="120" />
  <object id="10" name="" type="ENEMY" x="152" y="120" />
  <object id="11" name="torch" type="PROP" x="56" y="168" />
  <object id="12" name="torch" type="PROP" x="264" y="168" />
 </objectgroup>
</map>