<?xml version='1.0' encoding='UTF-8'?>
<map version="1.10" tiledversion="1.10.2" orientation="orthogonal" renderorder="right-down" width="20" height="11" tilewidth="16" tileheight="16" infinite="0" nextlayerid="7" nextobjectid="13">
 <tileset firstgid="1" name="dungeon" tilewidth="16" tileheight="16" tilecount="100" columns="10">
  <image source="../../../gfx/tiles/depths/dungeon_tileset.png" width="160" height="160" />
 </tileset>
 <layer id="1" name="ground" width="20" height="11">
  <data encoding="csv">
30,20,7,18,19,17,17,28,8,7,9,18,9,9,29,20,28,19,20,17,
19,9,27,8,27,28,29,18,27,19,30,28,28,17,8,28,18,7,7,10,
17,30,28,17,10,18,20,8,19,27,28,27,8,30,20,7,7,8,20,8,
27,18,9,29,18,20,8,20,7,17,30,8,8,17,10,18,30,27,30,29,
7,27,7,27,18,19,18,19,30,28,27,18,17,7,28,8,7,28,29,17,
29,10,8,18,17,18,17,27,17,30,10,27,10,28,17,27,17,28,20,10,
17,7,17,29,27,29,18,28,17,8,8,30,19,30,7,18,28,9,29,18,
8,20,19,7,8,8,29,7,19,28,18,19,27,18,19,19,29,10,7,10,
7,27,20,9,8,17,7,19,29,27,9,8,20,20,18,27,9,29,27,27,
20,10,18,27,8,8,20,20,18,7,9,27,29,8,18,9,27,9,8,7,
19,17,17,17,18,30,30,9,28,17,28,29,19,17,9,30,18,9,27,9
</data>
 </layer>
 <layer id="2" name="dressing" width="20" height="11">
  <data encoding="csv">
0,0,0,0,0,0,0,0,0,0,0,0,0,0,0,0,0,0,0,0,
0,69,0,0,0,0,0,0,0,0,0,0,0,0,0,0,0,0,0,0,
0,0,0,0,0,0,78,0,0,0,0,0,0,0,0,0,0,0,0,0,
0,78,0,0,0,0,0,0,0,0,0,0,0,0,0,0,0,0,0,0,
0,0,0,0,0,0,0,0,0,78,0,0,0,0,0,0,0,0,0,0,
0,0,0,78,0,0,0,78,0,0,0,0,0,0,0,0,0,0,0,0,
0,0,0,0,0,0,0,0,0,0,0,0,0,0,0,0,0,0,0,0,
0,0,78,0,0,0,0,0,0,0,0,0,0,0,0,0,0,0,0,0,
0,78,69,0,0,0,0,0,0,0,0,0,0,0,0,0,0,0,0,0,
0,0,0,0,0,0,0,0,0,0,0,0,0,0,0,0,0,0,0,0,
0,0,0,0,0,0,0,0,0,0,0,0,0,0,0,0,0,0,0,0
</data>
 </layer>
 <layer id="3" name="decor" width="20" height="11">
  <data encoding="csv">
0,0,0,0,0,0,0,0,0,0,0,0,0,0,0,0,0,0,0,0,
0,0,0,0,0,0,0,0,0,0,0,0,0,0,0,0,0,0,0,0,
0,0,0,0,0,0,0,0,0,0,0,0,0,0,0,0,0,0,0,0,
0,0,0,0,0,0,0,0,0,0,0,0,0,0,0,0,0,0,0,0,
0,0,0,0,0,0,0,0,0,0,0,0,0,0,0,0,0,0,0,0,
0,0,0,0,0,0,0,0,0,0,0,0,0,0,0,0,0,0,0,0,
0,0,0,0,0,0,0,0,0,0,0,0,0,0,0,0,0,0,0,0,
0,0,0,0,0,0,0,0,0,0,0,0,0,0,0,0,0,0,0,0,
0,0,0,0,0,0,0,0,0,0,0,0,0,0,0,0,0,0,0,0,
0,0,0,0,0,0,0,0,0,0,0,0,0,0,0,0,0,0,0,0,
0,0,0,0,0,0,0,0,0,0,0,0,0,0,0,0,0,0,0,0
</data>
 </layer>
 <layer id="4" name="walls" width="20" height="11">
  <data encoding="csv">
1,5,4,5,5,2,5,4,0,0,0,5,5,5,4,5,2,2,5,6,
21,0,0,0,0,0,0,0,0,0,0,0,0,0,0,0,0,0,0,36,
21,0,0,0,0,0,0,0,0,0,0,0,0,0,0,0,0,0,0,16,
21,0,0,0,0,0,0,0,0,0,0,0,0,0,0,0,0,0,0,16,
0,0,0,0,0,0,0,0,0,0,0,0,0,0,0,0,0,0,0,0,
0,0,0,0,0,0,0,0,0,0,0,0,0,0,0,0,0,0,0,0,
0,0,0,0,0,0,0,0,0,0,0,0,0,0,0,0,0,0,0,0,
21,0,0,0,0,0,0,0,0,0,0,0,0,0,0,0,0,0,0,26,
31,0,0,0,0,0,0,0,0,0,0,0,0,0,0,0,0,0,0,16,
11,0,0,0,0,0,0,0,0,0,0,0,0,0,0,0,0,0,0,36,
41,43,45,42,44,45,42,42,0,0,0,45,45,44,44,43,44,43,45,46
</data>
 </layer>
 <layer id="5" name="props" width="20" height="11">
  <data encoding="csv">
0,0,0,0,0,0,0,0,0,0,0,0,0,0,0,0,0,0,0,0,
0,0,0,0,0,0,0,0,0,0,0,0,0,0,0,0,0,0,0,0,
0,0,0,0,0,0,0,0,0,0,0,0,0,0,0,0,0,0,0,0,
0,0,0,0,5,5,0,0,0,0,0,0,0,0,3,5,0,0,0,0,
0,0,0,0,43,44,0,0,0,0,0,0,0,0,43,42,0,0,0,0,
0,0,0,0,0,0,0,0,0,0,0,0,0,0,0,0,0,0,0,0,
0,0,0,0,4,3,0,0,0,0,0,0,0,0,3,4,0,0,0,0,
0,0,0,0,43,44,0,0,0,0,0,0,0,0,42,44,0,0,0,0,
0,0,0,0,0,0,0,0,0,0,0,0,0,0,0,0,0,0,0,0,
0,0,0,0,0,0,0,0,0,0,0,0,0,0,0,0,0,0,0,0,
0,0,0,0,0,0,0,0,0,0,0,0,0,0,0,0,0,0,0,0
</data>
 </layer>
 <layer id="6" name="overhead" width="20" height="11">
  <data encoding="csv">
0,0,0,0,0,0,0,0,0,0,0,0,0,0,0,0,0,0,0,0,
0,0,0,0,0,0,0,0,0,0,0,0,0,0,0,0,0,0,0,0,
0,0,0,0,0,0,0,0,0,0,0,0,0,0,0,0,0,0,0,0,
0,0,0,0,0,0,0,0,0,0,0,0,0,0,0,0,0,0,0,0,
0,0,0,0,0,0,0,0,0,0,0,0,0,0,0,0,0,0,0,0,
0,0,0,0,0,0,0,0,0,0,0,0,0,0,0,0,0,0,0,0,
0,0,0,0,0,0,0,0,0,0,0,0,0,0,0,0,0,0,0,0,
0,0,0,0,0,0,0,0,0,0,0,0,0,0,0,0,0,0,0,0,
0,0,0,0,0,0,0,0,0,0,0,0,0,0,0,0,0,0,0,0,
0,0,0,0,0,0,0,0,0,0,0,0,0,0,0,0,0,0,0,0,
0,0,0,0,0,0,0,0,0,0,0,0,0,0,0,0,0,0,0,0
</data>
 </layer>
 <objectgroup id="7" name="spawns">
  <object id="1" name="UP" type="ENTRY" x="152" y="24" />
  <object id="2" name="DOWN" type="ENTRY" x="152" y="152" />
  <object id="3" name="LEFT" type="ENTRY" x="24" y="88" />
  <object id="4" name="RIGHT" type="ENTRY" x="296" y="88" />
  <object id="5" name="" type="ENTRY" x="168" y="88" />
  <object id="6" name="" type="ENEMY" x="248" y="136" />
  <object id="7" name="" type="ENEMY" x="120" y="88" />
  <object id="8" name="" type="ENEMY" x="248" y="40" />
  <object id="9" name="" type="ENEMY" x="56" y="56" />
  <object id="10" name="" type="ENEMY" x="152" y="56" />
  <object id="11" name="torch" type="PROP" x="56" y="168" />
  <object id="12" name="torch" type="PROP" x="264" y="168" />
 </objectgroup>
</map>