<?xml version='1.0' encoding='UTF-8'?>
<map version="1.10" tiledversion="1.10.2" orientation="orthogonal" renderorder="right-down" width="20" height="11" tilewidth="16" tileheight="16" infinite="0" nextlayerid="8" nextobjectid="13">
 <tileset firstgid="1" name="dungeon" tilewidth="16" tileheight="16" tilecount="100" columns="10">
  <image source="../../../gfx/tiles/depths/dungeon_tileset.png" width="160" height="160" />
 </tileset>
 <layer id="1" name="ground" width="20" height="11">
  <data encoding="csv">
7,28,19,30,27,17,27,18,30,7,29,17,9,17,9,17,30,7,10,10,
9,7,18,19,29,30,17,27,18,17,30,20,9,10,29,8,9,20,19,17,
28,10,8,9,10,30,7,9,8,18,10,20,7,7,7,28,9,17,27,10,
7,9,29,19,7,27,20,17,9,30,7,19,10,8,18,19,8,18,28,28,
18,9,7,7,28,18,8,28,28,28,8,17,7,9,30,27,8,17,20,29,
10,8,19,20,30,9,10,9,7,9,30,8,10,20,18,28,28,30,19,29,
30,28,10,29,29,30,18,7,20,27,19,10,30,20,29,20,20,10,27,18,
27,28,7,8,29,18,30,8,7,7,9,9,29,19,28,30,27,28,28,30,
9,7,9,7,29,10,19,18,30,28,9,19,7,18,29,8,27,8,30,28,
30,7,9,7,27,8,20,20,18,9,30,27,19,18,10,9,19,20,29,7,
29,17,8,8,30,29,29,9,28,7,30,18,29,28,27,18,30,17,20,19
</data>
 </layer>
 <layer id="2" name="dressing" width="20" height="11">
  <data encoding="csv">
0,0,0,0,0,0,0,0,0,0,0,0,0,0,0,0,0,0,0,0,
0,0,0,0,0,0,0,0,0,0,0,0,0,0,0,69,0,78,0,0,
0,0,0,0,0,0,0,0,0,0,0,0,69,0,69,0,0,0,0,0,
0,0,0,0,0,0,0,0,69,0,0,0,0,0,0,0,0,0,0,0,
0,0,0,0,0,69,0,0,0,0,0,0,78,0,0,0,0,0,0,0,
0,0,0,0,0,0,0,0,0,0,0,0,0,0,0,0,0,0,0,0,
0,0,0,0,0,0,0,0,0,0,0,0,0,0,0,0,0,0,0,0,
0,0,0,0,0,0,0,0,0,0,0,0,0,0,0,0,0,0,0,0,
0,0,0,0,0,0,0,0,0,0,0,0,0,0,0,69,0,0,0,0,
0,0,0,0,0,0,0,0,0,0,0,0,0,78,0,0,0,0,0,0,
0,0,0,0,0,0,0,0,0,0,0,0,0,0,0,0,0,0,0,0
</data>
 </layer>
 <layer id="3" name="decor" width="20" height="11">
  <data encoding="csv">
0,0,0,0,0,0,0,0,0,0,0,0,0,0,0,0,0,0,0,0,
0,0,0,0,0,0,0,0,0,0,0,0,0,0,0,0,0,0,0,0,
0,0,0,0,0,0,0,0,0,0,0,0,0,0,0,0,0,0,0,0,
0,0,0,0,0,0,0,0,0,0,0,0,0,0,0,0,0,0,0,0,
0,0,0,0,0,0,0,0,0,0,0,0,0,0,0,0,0,0,0,0,
0,0,0,0,0,0,0,0,0,0,0,0,0,0,0,0,0,0,0,0,
0,0,0,0,0,0,0,0,0,0,0,0,0,0,0,0,0,0,0,0,
0,0,0,0,0,0,0,0,0,0,0,0,0,0,0,0,0,0,0,0,
0,0,0,0,0,0,0,0,0,0,0,0,0,0,0,0,0,0,0,0,
0,0,0,0,0,0,0,0,0,0,0,0,0,0,0,0,0,0,0,0,
0,0,0,0,0,0,0,0,0,0,0,0,0,0,0,0,0,0,0,0
</data>
 </layer>
 <layer id="4" name="walls" width="20" height="11">
  <data encoding="csv">
1,3,3,3,2,3,3,2,0,0,0,2,3,3,5,5,3,4,5,6,
11,0,0,0,0,0,0,0,0,0,0,0,0,0,0,0,0,0,0,16,
11,0,0,0,0,0,0,0,0,0,0,0,0,0,0,0,0,0,0,26,
11,0,0,0,0,0,0,0,0,0,0,0,0,0,0,0,0,0,0,16,
0,0,0,0,0,0,0,0,0,0,0,0,0,0,0,0,0,0,0,0,
0,0,0,0,0,0,0,0,0,0,0,0,0,0,0,0,0,0,0,0,
0,0,0,0,0,0,0,0,0,0,0,0,0,0,0,0,0,0,0,0,
31,0,0,0,0,0,0,0,0,0,0,0,0,0,0,0,0,0,0,26,
31,0,0,0,0,0,0,0,0,0,0,0,0,0,0,0,0,0,0,26,
11,0,0,0,0,0,0,0,0,0,0,0,0,0,0,0,0,0,0,16,
41,42,43,45,45,44,42,42,0,0,0,43,42,42,43,42,43,42,42,46
</data>
 </layer>
 <layer id="5" name="props" width="20" height="11">
  <data encoding="csv">
0,0,0,0,0,0,0,0,0,0,0,0,0,0,0,0,0,0,0,0,
0,0,0,0,0,0,0,0,0,0,0,0,0,0,0,0,0,0,0,0,
0,0,0,0,0,0,0,0,0,0,0,0,0,0,0,0,0,0,0,0,
0,0,0,0,0,0,0,0,0,0,0,0,0,0,0,0,0,0,0,0,
0,0,0,0,0,0,0,0,0,0,0,0,0,0,0,0,0,0,0,0,
0,0,0,3,3,2,5,0,0,3,3,3,4,0,0,2,4,0,0,0,
0,0,0,42,43,42,42,0,0,45,45,43,45,0,0,45,45,0,0,0,
0,0,0,0,0,0,0,0,0,0,0,0,0,0,0,0,0,0,0,0,
0,0,0,0,0,0,0,0,0,0,0,0,0,0,0,0,0,0,0,0,
0,0,0,0,0,0,0,0,0,0,0,0,0,0,0,0,0,0,0,0,
0,0,0,0,0,0,0,0,0,0,0,0,0,0,0,0,0,0,0,0
</data>
 </layer>
 <layer id="6" name="overhead" width="20" height="11">
  <data encoding="csv">
0,0,0,0,0,0,0,0,0,0,0,0,0,0,0,0,0,0,0,0,
0,0,0,0,0,0,0,0,0,0,0,0,0,0,0,0,0,0,0,0,
0,0,0,0,0,0,0,0,0,0,0,0,0,0,0,0,0,0,0,0,
0,0,0,0,0,0,0,0,0,0,0,0,0,0,0,0,0,0,0,0,
0,0,0,0,0,0,0,0,0,0,0,0,0,0,0,0,0,0,0,0,
0,0,0,0,0,0,0,0,0,0,0,0,0,0,0,0,0,0,0,0,
0,0,0,0,0,0,0,0,0,0,0,0,0,0,0,0,0,0,0,0,
0,0,0,0,0,0,0,0,0,0,0,0,0,0,0,0,0,0,0,0,
0,0,0,0,0,0,0,0,0,0,0,0,0,0,0,0,0,0,0,0,
0,0,0,0,0,0,0,0,0,0,0,0,0,0,0,0,0,0,0,0,
0,0,0,0,0,0,0,0,0,0,0,0,0,0,0,0,0,0,0,0
</data>
 </layer>
 <objectgroup id="7" name="spawns">
  <object id="1" name="UP" type="ENTRY" x="152" y="24" />
  <object id="2" name="DOWN" type="ENTRY" x="152" y="152" />
  <object id="3" name="LEFT" type="ENTRY" x="24" y="88" />
  <object id="4" name="RIGHT" type="ENTRY" x="296" y="88" />
  <object id="5" name="" type="ENTRY" x="168" y="72" />
  <object id="6" name="" type="ENEMY" x="248" y="56" />
  <object id="7" name="" type="ENEMY" x="152" y="120" />
  <object id="8" name="" type="ENEMY" x="248" y="120" />
  <object id="9" name="" type="ENEMY" x="72" y="120" />
  <object id="10" name="" type="ENEMY" x="72" y="56" />
  <object id="11" name="torch" type="PROP" x="56" y="168" />
  <object id="12" name="torch" type="PROP" x="264" y="168" />
 </objectgroup>
</map>