<?xml version='1.0' encoding='UTF-8'?>
<map version="1.10" tiledversion="1.10.2" orientation="orthogonal" renderorder="right-down" width="20" height="11" tilewidth="16" tileheight="16" infinite="0" nextlayerid="6" nextobjectid="12">
 <tileset firstgid="1" name="dungeon" tilewidth="16" tileheight="16" tilecount="100" columns="10">
  <image source="../../../gfx/tiles/depths/dungeon_tileset.png" width="160" height="160" />
 </tileset>
 <layer id="1" name="ground" width="20" height="11">
  <data encoding="csv">
17,18,28,8,7,7,28,8,20,9,10,27,18,18,19,30,29,29,29,28,
20,27,20,17,30,27,29,28,27,30,7,9,30,28,9,29,30,18,17,19,
30,8,9,10,9,8,28,20,29,18,8,29,7,9,8,8,18,20,17,7,
20,29,20,8,27,8,17,19,29,28,9,28,19,10,20,30,28,18,7,10,
20,7,17,19,17,30,27,27,8,18,10,7,10,27,10,20,29,27,19,7,
19,28,30,30,28,10,10,27,29,8,28,8,8,9,10,17,29,7,28,30,
19,18,27,28,27,18,10,29,19,27,18,7,9,10,28,10,8,10,9,30,
18,10,20,29,19,8,19,9,28,8,29,29,17,18,18,30,27,10,28,18,
9,30,28,27,28,10,18,8,30,8,20,19,19,28,9,10,27,30,20,7,
7,8,27,8,29,28,18,20,7,18,27,27,27,17,8,28,8,20,17,8,
8,30,30,20,7,18,10,29,28,29,29,29,19,18,20,7,17,10,20,18
</data>
 </layer>
 <layer id="2" name="decor" width="20" height="11">
  <data encoding="csv">
0,0,0,0,0,0,0,0,0,0,0,0,0,0,0,0,0,0,0,0,
0,0,0,0,0,0,0,0,0,0,0,0,0,0,0,0,0,0,0,0,
0,0,0,0,0,0,0,0,0,0,0,0,0,0,0,0,0,0,0,0,
0,0,0,0,0,0,0,0,0,0,0,0,0,0,0,0,0,0,0,0,
0,0,0,0,0,0,0,0,0,0,0,0,0,0,0,0,0,0,0,0,
0,0,0,0,0,0,0,0,0,0,0,0,0,0,0,0,0,0,0,0,
0,0,0,0,0,0,0,0,0,0,0,0,0,0,0,0,0,0,0,0,
0,0,0,0,0,0,0,0,0,0,0,0,0,0,0,0,0,0,0,0,
0,0,0,0,0,0,0,0,0,0,0,0,0,0,0,0,0,0,0,0,
0,0,0,0,0,0,0,0,0,0,0,0,0,0,0,0,0,0,0,0,
0,0,0,0,0,0,0,0,0,0,0,0,0,0,0,0,0,0,0,0
</data>
 </layer>
 <layer id="3" name="walls" width="20" height="11">
  <data encoding="csv">
1,3,2,4,2,2,2,3,0,0,0,3,4,5,5,5,4,5,5,6,
21,0,0,0,0,0,0,0,0,0,0,0,0,0,0,0,0,0,0,36,
31,0,0,0,0,0,0,0,0,0,0,0,0,0,0,0,0,0,0,16,
11,0,0,0,0,0,0,0,0,0,0,0,0,0,0,0,0,0,0,16,
0,0,0,0,0,0,0,0,0,0,0,0,0,0,0,0,0,0,0,0,
0,0,0,0,0,0,0,0,0,0,0,0,0,0,0,0,0,0,0,0,
0,0,0,0,0,0,0,0,0,0,0,0,0,0,0,0,0,0,0,0,
11,0,0,0,0,0,0,0,0,0,0,0,0,0,0,0,0,0,0,36,
31,0,0,0,0,0,0,0,0,0,0,0,0,0,0,0,0,0,0,26,
31,0,0,0,0,0,0,0,0,0,0,0,0,0,0,0,0,0,0,16,
41,43,42,42,45,42,43,42,0,0,0,44,43,42,42,44,44,42,42,46
</data>
 </layer>
 <layer id="4" name="props" width="20" height="11">
  <data encoding="csv">
0,0,0,91,0,0,91,0,0,0,0,0,0,91,0,0,91,0,0,0,
0,2,3,0,0,0,0,0,0,0,0,0,0,0,0,0,0,0,0,0,
0,45,43,0,0,0,0,0,0,0,0,0,0,0,0,0,0,0,82,0,
0,0,0,0,0,5,3,0,0,0,0,0,5,3,3,5,0,0,0,0,
0,0,0,0,0,4,4,0,0,0,0,0,44,44,45,42,0,0,0,0,
0,0,0,0,0,3,2,0,0,0,0,0,0,0,0,0,0,0,0,0,
0,0,0,0,0,3,2,0,0,0,0,0,0,0,0,0,0,0,0,0,
0,0,0,0,0,3,5,0,0,0,0,0,0,0,0,0,0,0,0,0,
0,0,0,0,0,45,42,0,0,0,0,0,82,0,0,0,0,0,0,0,
0,0,68,0,0,0,0,0,0,0,0,0,0,0,0,81,0,0,0,0,
0,0,0,0,0,0,0,0,0,0,0,0,0,0,0,0,0,0,0,0
</data>
 </layer>
 <layer id="5" name="overhead" width="20" height="11">
  <data encoding="csv">
0,0,0,0,0,0,0,0,0,0,0,0,0,0,0,0,0,0,0,0,
0,0,0,0,0,0,0,0,0,0,0,0,0,0,0,0,0,0,0,0,
0,0,0,0,0,0,0,0,0,0,0,0,0,0,0,0,0,0,0,0,
0,0,0,0,0,0,0,0,0,0,0,0,0,0,0,0,0,0,0,0,
0,0,0,0,0,0,0,0,0,0,0,0,0,0,0,0,0,0,0,0,
0,0,0,0,0,0,0,0,0,0,0,0,0,0,0,0,0,0,0,0,
0,0,0,0,0,0,0,0,0,0,0,0,0,0,0,0,0,0,0,0,
0,0,0,0,0,0,0,0,0,0,0,0,0,0,0,0,0,0,0,0,
0,0,0,0,0,0,0,0,0,0,0,0,0,0,0,0,0,0,0,0,
0,0,0,0,0,0,0,0,0,0,0,0,0,0,0,0,0,0,0,0,
0,0,0,0,0,0,0,0,0,0,0,0,0,0,0,0,0,0,0,0
</data>
 </layer>
 <objectgroup id="6" name="spawns">
  <object id="1" name="UP" type="ENTRY" x="152" y="24" />
  <object id="2" name="DOWN" type="ENTRY" x="152" y="152" />
  <object id="3" name="LEFT" type="ENTRY" x="24" y="88" />
  <object id="4" name="RIGHT" type="ENTRY" x="296" y="88" />
  <object id="5" name="" type="ENTRY" x="168" y="88" />
  <object id="6" name="" type="ENEMY" x="152" y="56" />
  <object id="7" name="" type="ENEMY" x="200" y="88" />
  <object id="8" name="" type="ENEMY" x="248" y="120" />
  <object id="9" name="" type="ENEMY" x="72" y="56" />
  <object id="10" name="" type="ENEMY" x="248" y="40" />
  <object id="11" name="torch" type="PROP" x="40" y="56" />
 </objectgroup>
</map>