<?xml version='1.0' encoding='UTF-8'?>
<map version="1.10" tiledversion="1.10.2" orientation="orthogonal" renderorder="right-down" width="20" height="11" tilewidth="16" tileheight="16" infinite="0" nextlayerid="8" nextobjectid="13">
 <tileset firstgid="1" name="dungeon" tilewidth="16" tileheight="16" tilecount="100" columns="10">
  <image source="../../../gfx/tiles/depths/dungeon_tileset.png" width="160" height="160" />
 </tileset>
 <layer id="1" name="ground" width="20" height="11">
  <data encoding="csv">
28,28,19,27,29,9,9,10,19,9,10,27,30,29,19,18,29,19,19,9,
8,30,7,29,29,10,29,19,7,9,18,29,30,27,9,9,8,27,17,29,
20,20,10,8,27,30,8,20,8,8,17,19,20,28,19,10,27,28,8,18,
7,29,7,27,8,8,28,18,9,19,17,9,8,9,20,28,17,18,10,7,
10,30,27,27,8,28,18,19,19,29,30,18,9,19,19,20,9,28,27,10,
19,28,29,18,18,10,10,17,19,27,8,7,27,17,27,28,20,19,18,7,
20,9,8,8,7,10,20,29,29,9,8,30,27,10,28,7,10,9,27,30,
10,7,10,18,30,10,20,29,17,10,27,9,10,18,17,20,18,20,20,18,
28,7,19,20,20,28,27,19,20,9,19,8,29,18,19,9,17,28,27,9,
9,10,20,8,17,10,17,18,19,9,28,7,17,17,30,19,27,19,28,9,
18,27,30,17,29,8,19,28,19,7,10,18,27,19,18,7,19,9,19,7
</data>
 </layer>
 <layer id="2" name="dressing" width="20" height="11">
  <data encoding="csv">
0,0,0,0,0,0,0,0,0,0,0,0,0,0,0,0,0,0,0,0,
0,0,0,0,78,0,0,0,0,0,0,0,0,0,0,0,0,0,0,0,
0,0,0,0,0,0,0,0,0,0,0,0,78,0,0,0,0,0,0,0,
0,0,0,0,0,78,0,0,0,0,0,0,0,0,0,0,0,0,0,0,
0,0,0,0,0,0,0,0,0,0,0,0,0,0,78,0,0,0,0,0,
0,0,0,0,0,78,0,0,0,0,0,0,0,0,69,0,0,0,0,0,
0,0,0,0,0,0,0,0,0,0,0,0,0,0,0,0,0,0,0,0,
0,0,0,0,0,0,0,0,0,0,0,0,0,0,0,0,0,0,0,0,
0,0,0,0,0,0,0,0,0,0,0,0,0,0,78,78,0,0,0,0,
0,0,0,0,0,0,0,0,0,0,0,0,0,0,0,0,0,0,0,0,
0,0,0,0,0,0,0,0,0,0,0,0,0,0,0,0,0,0,0,0
</data>
 </layer>
 <layer id="3" name="decor" width="20" height="11">
  <data encoding="csv">
0,0,0,0,0,0,0,0,0,0,0,0,0,0,0,0,0,0,0,0,
0,0,0,0,0,0,0,0,0,0,0,0,0,0,0,0,0,0,0,0,
0,0,0,0,0,0,0,0,0,0,0,0,0,0,0,0,0,0,0,0,
0,0,0,0,0,0,0,0,0,0,0,0,0,0,0,0,0,0,0,0,
0,0,0,0,0,0,0,0,0,0,0,0,0,0,0,0,0,0,0,0,
0,0,0,0,0,0,0,0,0,0,0,0,0,0,0,0,0,0,0,0,
0,0,0,0,0,0,0,0,0,0,0,0,0,0,0,0,0,0,0,0,
0,0,0,0,0,0,0,0,0,0,0,0,0,0,0,0,0,0,0,0,
0,0,0,0,0,0,0,0,0,0,0,0,0,0,0,0,0,0,0,0,
0,0,0,0,0,0,0,0,0,0,0,0,0,0,0,0,0,0,0,0,
0,0,0,0,0,0,0,0,0,0,0,0,0,0,0,0,0,0,0,0
</data>
 </layer>
 <layer id="4" name="walls" width="20" height="11">
  <data encoding="csv">
1,4,5,5,2,5,3,2,0,0,0,2,5,4,4,2,3,3,2,6,
21,0,0,0,0,0,0,0,0,0,0,0,0,0,0,0,0,0,0,36,
11,0,0,0,0,0,0,0,0,0,0,0,0,0,0,0,0,0,0,16,
31,0,0,0,0,0,0,0,0,0,0,0,0,0,0,0,0,0,0,36,
0,0,0,0,0,0,0,0,0,0,0,0,0,0,0,0,0,0,0,0,
0,0,0,0,0,0,0,0,0,0,0,0,0,0,0,0,0,0,0,0,
0,0,0,0,0,0,0,0,0,0,0,0,0,0,0,0,0,0,0,0,
11,0,0,0,0,0,0,0,0,0,0,0,0,0,0,0,0,0,0,36,
31,0,0,0,0,0,0,0,0,0,0,0,0,0,0,0,0,0,0,36,
31,0,0,0,0,0,0,0,0,0,0,0,0,0,0,0,0,0,0,36,
41,44,45,44,44,43,43,43,0,0,0,42,42,42,42,45,42,44,45,46
</data>
 </layer>
 <layer id="5" name="props" width="20" height="11">
  <data encoding="csv">
0,0,0,0,0,0,0,0,0,0,0,0,0,0,0,0,0,0,0,0,
0,0,0,0,0,0,0,0,0,0,0,0,0,0,0,0,0,0,0,0,
0,0,0,0,0,0,0,0,0,0,0,0,0,0,0,0,0,0,0,0,
0,0,0,0,0,0,0,3,4,3,5,5,4,0,0,0,0,0,0,0,
0,0,0,0,0,0,0,42,44,45,45,43,42,0,0,0,0,0,0,0,
0,0,0,0,0,0,0,0,0,0,0,0,0,0,0,0,0,0,0,0,
0,0,0,0,0,0,0,5,4,4,5,4,4,0,0,0,0,0,0,0,
0,0,0,0,0,0,0,44,43,42,42,43,43,0,0,0,0,0,0,0,
0,0,0,0,0,0,0,0,0,0,0,0,0,0,0,0,0,0,0,0,
0,0,0,0,0,0,0,0,0,0,0,0,0,0,0,0,0,0,0,0,
0,0,0,0,0,0,0,0,0,0,0,0,0,0,0,0,0,0,0,0
</data>
 </layer>
 <layer id="6" name="overhead" width="20" height="11">
  <data encoding="csv">
0,0,0,0,0,0,0,0,0,0,0,0,0,0,0,0,0,0,0,0,
0,0,0,0,0,0,0,0,0,0,0,0,0,0,0,0,0,0,0,0,
0,0,0,0,0,0,0,0,0,0,0,0,0,0,0,0,0,0,0,0,
0,0,0,0,0,0,0,0,0,0,0,0,0,0,0,0,0,0,0,0,
0,0,0,0,0,0,0,0,0,0,0,0,0,0,0,0,0,0,0,0,
0,0,0,0,0,0,0,0,0,0,0,0,0,0,0,0,0,0,0,0,
0,0,0,0,0,0,0,0,0,0,0,0,0,0,0,0,0,0,0,0,
0,0,0,0,0,0,0,0,0,0,0,0,0,0,0,0,0,0,0,0,
0,0,0,0,0,0,0,0,0,0,0,0,0,0,0,0,0,0,0,0,
0,0,0,0,0,0,0,0,0,0,0,0,0,0,0,0,0,0,0,0,
0,0,0,0,0,0,0,0,0,0,0,0,0,0,0,0,0,0,0,0
</data>
 </layer>
 <objectgroup id="7" name="spawns">
  <object id="1" name="UP" type="ENTRY" x="152" y="24" />
  <object id="2" name="DOWN" type="ENTRY" x="152" y="152" />
  <object id="3" name="LEFT" type="ENTRY" x="24" y="88" />
  <object id="4" name="RIGHT" type="ENTRY" x="296" y="88" />
  <object id="5" name="" type="ENTRY" x="168" y="88" />
  <object id="6" name="" type="ENEMY" x="248" y="56" />
  <object id="7" name="" type="ENEMY" x="200" y="88" />
  <object id="8" name="" type="ENEMY" x="248" y="120" />
  <object id="9" name="" type="ENEMY" x="152" y="40" />
  <object id="10" name="" type="ENEMY" x="72" y="120" />
  <object id="11" name="torch" type="PROP" x="56" y="168" />
  <object id="12" name="torch" type="PROP" x="264" y="168" />
 </objectgroup>
</map>