<?xml version='1.0' encoding='UTF-8'?>
<map version="1.10" tiledversion="1.10.2" orientation="orthogonal" renderorder="right-down" width="20" height="11" tilewidth="16" tileheight="16" infinite="0" nextlayerid="6" nextobjectid="12">
 <tileset firstgid="1" name="dungeon" tilewidth="16" tileheight="16" tilecount="100" columns="10">
  <image source="../../../gfx/tiles/depths/dungeon_tileset.png" width="160" height="160" />
 </tileset>
 <layer id="1" name="ground" width="20" height="11">
  <data encoding="csv">
18,20,10,8,28,30,7,8,20,19,17,8,17,27,7,30,30,28,9,18,
19,7,29,17,20,19,20,27,9,8,8,8,20,19,28,28,9,29,9,30,
27,18,9,9,19,20,8,8,9,10,10,17,19,7,7,10,18,27,8,9,
27,29,20,17,7,29,8,8,18,19,30,19,8,28,27,7,17,10,7,10,
10,29,8,29,9,20,17,30,10,20,30,8,30,30,17,30,18,9,29,17,
30,27,9,19,18,10,30,18,9,10,28,29,27,27,18,27,7,28,8,9,
29,10,28,19,8,10,29,29,30,8,20,29,9,30,10,9,18,10,9,17,
20,7,18,9,17,8,10,30,28,7,29,29,30,27,8,8,9,20,19,8,
19,17,8,20,28,30,29,29,17,7,10,28,30,30,7,10,28,30,10,20,
9,10,8,27,30,30,19,8,30,30,10,8,9,9,27,9,30,19,18,27,
29,18,29,8,20,20,29,19,19,10,28,19,29,19,9,30,18,20,28,9
</data>
 </layer>
 <layer id="2" name="decor" width="20" height="11">
  <data encoding="csv">
0,0,0,0,0,0,0,0,0,0,0,0,0,0,0,0,0,0,0,0,
0,0,0,0,0,0,0,0,0,0,0,0,0,0,0,0,0,0,0,0,
0,0,0,0,0,0,0,0,0,0,0,0,0,0,0,0,0,0,0,0,
0,0,0,0,0,0,0,0,0,0,0,0,0,0,0,0,0,0,0,0,
0,0,0,0,0,0,0,0,0,0,0,0,0,0,0,0,0,0,0,0,
0,0,0,0,0,0,0,0,0,0,0,0,0,0,0,0,0,0,0,0,
0,0,0,0,0,0,0,0,0,0,0,0,0,0,0,0,0,0,0,0,
0,0,0,0,0,0,0,0,0,0,0,0,0,0,0,0,0,0,0,0,
0,0,0,0,0,0,0,0,0,0,0,0,0,0,0,0,0,0,0,0,
0,0,0,0,0,0,0,0,0,0,0,0,0,0,0,0,0,0,0,0,
0,0,0,0,0,0,0,0,0,0,0,0,0,0,0,0,0,0,0,0
</data>
 </layer>
 <layer id="3" name="walls" width="20" height="11">
  <data encoding="csv">
1,5,3,4,3,3,2,3,0,0,0,5,5,5,2,4,5,5,3,6,
21,0,0,0,0,0,0,0,0,0,0,0,0,0,0,0,0,0,0,36,
21,0,0,0,0,0,0,0,0,0,0,0,0,0,0,0,0,0,0,26,
11,0,0,0,0,0,0,0,0,0,0,0,0,0,0,0,0,0,0,36,
0,0,0,0,0,0,0,0,0,0,0,0,0,0,0,0,0,0,0,0,
0,0,0,0,0,0,0,0,0,0,0,0,0,0,0,0,0,0,0,0,
0,0,0,0,0,0,0,0,0,0,0,0,0,0,0,0,0,0,0,0,
31,0,0,0,0,0,0,0,0,0,0,0,0,0,0,0,0,0,0,16,
31,0,0,0,0,0,0,0,0,0,0,0,0,0,0,0,0,0,0,26,
31,0,0,0,0,0,0,0,0,0,0,0,0,0,0,0,0,0,0,16,
41,44,43,44,42,43,43,42,0,0,0,43,44,42,43,42,45,44,42,46
</data>
 </layer>
 <layer id="4" name="props" width="20" height="11">
  <data encoding="csv">
0,0,0,91,0,0,92,0,0,0,0,0,0,91,0,0,92,0,0,0,
0,0,0,0,0,0,0,0,0,0,0,0,5,3,0,0,0,0,0,0,
0,0,0,0,0,0,0,0,0,0,0,0,3,4,0,0,0,0,0,0,
0,0,0,0,0,0,5,5,0,0,0,0,5,4,0,0,0,0,0,0,
0,0,0,0,0,0,3,4,0,0,0,0,42,44,0,0,0,0,0,0,
0,0,0,0,0,0,5,2,0,0,0,0,0,0,0,0,0,0,0,0,
0,0,0,0,0,0,44,44,0,0,0,0,2,3,0,0,0,0,0,0,
0,0,0,0,0,0,0,0,0,0,0,0,2,5,0,0,0,0,0,0,
0,0,0,0,0,0,0,0,0,0,0,0,5,3,0,0,0,0,0,0,
0,0,0,0,0,0,0,0,0,0,0,0,45,45,0,0,0,0,0,0,
0,0,0,0,0,0,0,0,0,0,0,0,0,0,0,0,0,0,0,0
</data>
 </layer>
 <layer id="5" name="overhead" width="20" height="11">
  <data encoding="csv">
0,0,0,0,0,0,0,0,0,0,0,0,0,0,0,0,0,0,0,0,
0,0,0,0,0,0,0,0,0,0,0,0,0,0,0,0,0,0,0,0,
0,0,0,0,0,0,0,0,0,0,0,0,0,0,0,0,0,0,0,0,
0,0,0,0,0,0,0,0,0,0,0,0,0,0,0,0,0,0,0,0,
0,0,0,0,0,0,0,0,0,0,0,0,0,0,0,0,0,0,0,0,
0,0,0,0,0,0,0,0,0,0,0,0,0,0,0,0,0,0,0,0,
0,0,0,0,0,0,0,0,0,0,0,0,0,0,0,0,0,0,0,0,
0,0,0,0,0,0,0,0,0,0,0,0,0,0,0,0,0,0,0,0,
0,0,0,0,0,0,0,0,0,0,0,0,0,0,0,0,0,0,0,0,
0,0,0,0,0,0,0,0,0,0,0,0,0,0,0,0,0,0,0,0,
0,0,0,0,0,0,0,0,0,0,0,0,0,0,0,0,0,0,0,0
</data>
 </layer>
 <objectgroup id="6" name="spawns">
  <object id="1" name="UP" type="ENTRY" x="152" y="24" />
  <object id="2" name="DOWN" type="ENTRY" x="152" y="152" />
  <object id="3" name="LEFT" type="ENTRY" x="24" y="88" />
  <object id="4" name="RIGHT" type="ENTRY" x="296" y="88" />
  <object id="5" name="" type="ENTRY" x="168" y="88" />
  <object id="6" name="" type="ENEMY" x="248" y="56" />
  <object id="7" name="" type="ENEMY" x="200" y="88" />
  <object id="8" name="" type="ENEMY" x="136" y="88" />
  <object id="9" name="" type="ENEMY" x="72" y="120" />
  <object id="10" name="" type="ENEMY" x="152" y="120" />
  <object id="11" name="torch" type="PROP" x="40" y="40" />
 </objectgroup>
</map>