<?xml version='1.0' encoding='UTF-8'?>
<map version="1.10" tiledversion="1.10.2" orientation="orthogonal" renderorder="right-down" width="20" height="11" tilewidth="16" tileheight="16" infinite="0" nextlayerid="7" nextobjectid="16">
 <tileset firstgid="1" name="dungeon" tilewidth="16" tileheight="16" tilecount="100" columns="10">
  <image source="../../../gfx/tiles/depths/dungeon_tileset.png" width="160" height="160" />
 </tileset>
 <layer id="1" name="ground" width="20" height="11">
  <data encoding="csv">
18,7,18,10,7,17,8,20,17,29,10,7,28,10,10,9,29,19,7,20,
7,10,29,28,20,7,20,30,10,20,17,30,8,18,29,17,10,28,10,29,
19,29,30,18,29,30,27,29,27,8,17,20,19,10,8,10,9,28,19,17,
7,17,28,9,30,8,27,19,10,18,28,10,28,29,28,29,29,19,10,8,
20,9,20,7,17,10,9,17,10,20,28,9,18,7,30,8,17,10,28,18,
19,29,8,30,19,9,30,9,27,30,7,30,19,8,10,30,8,20,30,18,
18,27,20,29,17,10,7,8,20,27,10,18,10,27,9,10,30,8,7,19,
9,10,29,20,28,10,10,10,20,19,9,27,29,9,29,20,19,9,28,30,
8,7,19,19,9,19,18,30,9,28,19,20,30,8,18,29,7,9,19,28,
29,8,17,19,19,10,20,19,10,8,8,8,9,10,7,27,8,7,17,28,
7,8,7,19,18,9,28,10,20,7,27,10,29,8,8,10,8,19,19,8
</data>
 </layer>
 <layer id="2" name="dressing" width="20" height="11">
  <data encoding="csv">
0,0,0,0,0,0,0,0,0,0,0,0,0,0,0,0,0,0,0,0,
0,0,0,0,0,0,0,0,0,0,0,0,0,0,0,0,0,0,0,0,
0,0,78,0,0,0,0,0,0,0,0,0,0,0,0,0,0,0,0,0,
0,0,0,0,0,0,0,0,0,0,0,0,69,0,0,0,0,78,0,0,
0,0,0,0,0,0,0,0,0,0,0,0,0,0,0,0,0,0,0,0,
0,0,0,0,0,0,0,0,0,78,0,0,0,0,0,0,69,0,0,0,
0,0,0,0,0,0,0,0,0,0,0,0,0,0,0,78,0,0,0,0,
0,0,0,0,69,0,0,0,0,0,0,0,0,0,0,0,0,0,0,0,
0,0,78,0,0,0,0,0,0,0,0,0,0,0,0,69,0,0,0,0,
0,0,0,0,0,0,0,0,0,0,0,0,0,0,78,0,78,0,69,0,
0,0,0,0,0,0,0,0,0,0,0,0,0,0,0,0,0,0,0,0
</data>
 </layer>
 <layer id="3" name="decor" width="20" height="11">
  <data encoding="csv">
0,0,0,0,0,0,0,0,0,0,0,0,0,0,0,0,0,0,0,0,
0,0,0,0,0,0,0,0,0,0,0,0,0,0,0,0,0,0,0,0,
0,0,0,0,0,0,0,0,0,0,0,0,0,0,0,0,0,0,0,0,
0,0,0,0,0,0,0,0,0,0,0,0,0,0,0,0,0,0,0,0,
0,0,0,0,0,0,0,0,0,0,0,0,0,0,0,0,0,0,0,0,
0,0,0,0,0,0,0,0,0,0,0,0,0,0,0,0,0,0,0,0,
0,0,0,0,0,0,0,0,0,0,0,0,0,0,0,0,0,0,0,0,
0,0,0,0,0,0,0,0,0,0,0,0,0,0,0,0,0,0,0,0,
0,0,0,0,0,0,0,0,0,0,0,0,0,0,0,0,0,0,0,0,
0,0,0,0,0,0,0,0,0,0,0,0,0,0,0,0,0,0,0,0,
0,0,0,0,0,0,0,0,0,0,0,0,0,0,0,0,0,0,0,0
</data>
 </layer>
 <layer id="4" name="walls" width="20" height="11">
  <data encoding="csv">
1,2,5,4,4,2,2,4,0,0,0,3,2,3,4,5,2,2,5,6,
21,0,0,0,0,0,0,0,0,0,0,0,0,0,0,0,0,0,0,26,
31,0,0,0,0,0,0,0,0,0,0,0,0,0,0,0,0,0,0,26,
31,0,0,0,0,0,0,0,0,0,0,0,0,0,0,0,0,0,0,36,
0,0,0,0,0,0,0,0,0,0,0,0,0,0,0,0,0,0,0,0,
0,0,0,0,0,0,0,0,0,0,0,0,0,0,0,0,0,0,0,0,
0,0,0,0,0,0,0,0,0,0,0,0,0,0,0,0,0,0,0,0,
21,0,0,0,0,0,0,0,0,0,0,0,0,0,0,0,0,0,0,16,
11,0,0,0,0,0,0,0,0,0,0,0,0,0,0,0,0,0,0,36,
21,0,0,0,0,0,0,0,0,0,0,0,0,0,0,0,0,0,0,16,
41,42,45,45,42,44,42,42,0,0,0,45,44,42,42,44,45,42,44,46
</data>
 </layer>
 <layer id="5" name="props" width="20" height="11">
  <data encoding="csv">
0,0,0,0,0,0,0,0,0,0,0,0,0,0,0,0,0,0,0,0,
0,0,0,0,0,0,0,0,0,0,0,0,0,0,0,0,0,0,0,0,
0,0,0,4,4,3,5,0,0,0,0,0,0,2,2,5,5,0,0,0,
0,0,0,42,43,44,44,0,0,0,0,0,0,42,43,44,42,0,0,0,
0,0,0,0,0,0,0,0,0,0,0,0,0,0,0,0,0,0,0,0,
0,0,0,0,0,0,0,0,0,0,0,0,0,0,0,0,0,0,0,0,
0,0,0,0,0,0,0,0,0,0,0,0,0,0,0,0,0,0,0,0,
0,0,0,0,0,0,0,0,0,0,0,0,0,0,0,0,0,0,0,0,
0,0,0,0,0,0,0,0,0,0,0,0,0,0,0,0,0,0,0,0,
0,0,0,0,0,0,0,0,0,0,0,0,0,0,0,0,0,0,0,0,
0,0,0,0,0,0,0,0,0,0,0,0,0,0,0,0,0,0,0,0
</data>
 </layer>
 <layer id="6" name="overhead" width="20" height="11">
  <data encoding="csv">
0,0,0,0,0,0,0,0,0,0,0,0,0,0,0,0,0,0,0,0,
0,0,0,0,0,0,0,0,0,0,0,0,0,0,0,0,0,0,0,0,
0,0,0,0,0,0,0,0,0,0,0,0,0,0,0,0,0,0,0,0,
0,0,0,0,0,0,0,0,0,0,0,0,0,0,0,0,0,0,0,0,
0,0,0,0,0,0,0,0,0,0,0,0,0,0,0,0,0,0,0,0,
0,0,0,0,0,0,0,0,0,0,0,0,0,0,0,0,0,0,0,0,
0,0,0,0,0,0,0,0,0,0,0,0,0,0,0,0,0,0,0,0,
0,0,0,0,0,0,0,0,0,0,0,0,0,0,0,0,0,0,0,0,
0,0,0,0,0,0,0,0,0,0,0,0,0,0,0,0,0,0,0,0,
0,0,0,0,0,0,0,0,0,0,0,0,0,0,0,0,0,0,0,0,
0,0,0,0,0,0,0,0,0,0,0,0,0,0,0,0,0,0,0,0
</data>
 </layer>
 <objectgroup id="7" name="spawns">
  <object id="1" name="UP" type="ENTRY" x="152" y="24" />
  <object id="2" name="DOWN" type="ENTRY" x="152" y="152" />
  <object id="3" name="LEFT" type="ENTRY" x="24" y="88" />
  <object id="4" name="RIGHT" type="ENTRY" x="296" y="88" />
  <object id="5" name="" type="ENTRY" x="168" y="88" />
  <object id="6" name="" type="SHOPKEEPER" x="168" y="56" />
  <object id="7" name="stock" type="CHEST" x="88" y="104" />
  <object id="8" name="stock" type="CHEST" x="152" y="120" />
  <object id="9" name="stock" type="CHEST" x="232" y="104" />
  <object id="10" name="torch" type="PROP" x="56" y="168" />
  <object id="11" name="torch" type="PROP" x="264" y="168" />
  <object id="12" name="torch" type="PROP" x="8" y="136" />
  <object id="13" name="torch" type="PROP" x="312" y="136" />
  <object id="14" name="banner" type="PROP" x="120" y="168" />
  <object id="15" name="banner" type="PROP" x="200" y="168" />
 </objectgroup>
</map>