<?xml version='1.0' encoding='UTF-8'?>
<map version="1.10" tiledversion="1.10.2" orientation="orthogonal" renderorder="right-down" width="20" height="11" tilewidth="16" tileheight="16" infinite="0" nextlayerid="6" nextobjectid="12">
 <tileset firstgid="1" name="wall" tilewidth="16" tileheight="16" tilecount="110" columns="10">
  <image source="../../../gfx/tiles/ruins/tilesetwallsimple.png" width="160" height="176" />
 </tileset>
 <tileset firstgid="111" name="floor" tilewidth="16" tileheight="16" tilecount="374" columns="22">
  <image source="../../../gfx/tiles/ruins/tilesetinteriorfloor.png" width="352" height="272" />
 </tileset>
 <tileset firstgid="485" name="elements" tilewidth="16" tileheight="16" tilecount="27" columns="9">
  <image source="../../../gfx/tiles/ruins/elements.png" width="144" height="48" />
 </tileset>
 <layer id="1" name="ground" width="20" height="11">
  <data encoding="csv">
277,277,277,277,277,277,277,277,277,277,282,282,277,282,277,277,277,277,277,277,
277,277,277,277,282,277,277,277,282,277,277,282,277,277,277,277,277,277,277,277,
277,277,277,277,277,277,277,277,277,277,277,277,277,277,277,277,277,277,277,277,
282,277,277,277,277,277,277,277,277,277,277,277,277,277,277,277,277,277,277,277,
277,277,277,277,277,277,277,282,277,277,277,277,277,277,277,277,282,277,277,277,
277,277,277,277,277,277,282,277,277,277,277,277,277,277,277,277,277,277,277,277,
277,277,277,282,277,277,277,282,277,282,277,277,277,277,277,277,277,282,277,277,
277,277,277,277,277,277,277,277,282,277,277,277,277,277,277,277,277,277,277,277,
277,277,277,277,277,277,282,277,282,277,277,277,282,277,277,282,277,277,277,277,
277,277,282,277,277,277,277,277,277,277,277,277,277,277,277,277,277,282,282,277,
277,277,282,277,277,277,277,277,282,277,277,277,282,277,277,277,277,277,277,277
</data>
 </layer>
 <layer id="2" name="decor" width="20" height="11">
  <data encoding="csv">
0,0,0,0,0,0,0,0,0,0,0,0,0,0,0,0,0,0,0,0,
0,0,0,0,0,0,0,0,0,0,0,0,0,0,0,0,0,0,0,0,
0,0,0,0,0,0,0,0,0,0,0,0,0,0,0,0,0,0,0,0,
0,0,0,0,0,0,0,0,0,0,0,0,0,0,0,0,0,0,0,0,
0,0,0,0,0,0,0,0,0,0,0,0,0,0,0,0,0,0,0,0,
0,0,0,0,0,0,0,0,0,0,0,0,0,0,0,0,0,0,0,0,
0,0,0,0,0,0,0,0,0,0,0,0,0,0,0,0,0,0,0,0,
0,0,0,0,0,0,0,0,0,0,0,0,0,0,0,0,0,0,0,0,
0,0,0,0,0,0,0,0,0,0,0,0,0,0,0,0,0,0,0,0,
0,0,0,0,0,0,0,0,0,0,0,0,0,0,0,0,0,0,0,0,
0,0,0,0,0,0,0,0,0,0,0,0,0,0,0,0,0,0,0,0
</data>
 </layer>
 <layer id="3" name="walls" width="20" height="11">
  <data encoding="csv">
66,69,69,69,69,69,69,69,0,0,0,69,69,69,69,69,69,69,69,70,
76,0,0,0,0,0,0,0,0,0,0,0,0,0,0,0,0,0,0,80,
76,0,0,0,0,0,0,0,0,0,0,0,0,0,0,0,0,0,0,80,
76,0,0,0,0,0,0,0,0,0,0,0,0,0,0,0,0,0,0,80,
0,0,0,0,0,0,0,0,0,0,0,0,0,0,0,0,0,0,0,0,
0,0,0,0,0,0,0,0,0,0,0,0,0,0,0,0,0,0,0,0,
0,0,0,0,0,0,0,0,0,0,0,0,0,0,0,0,0,0,0,0,
76,0,0,0,0,0,0,0,0,0,0,0,0,0,0,0,0,0,0,80,
76,0,0,0,0,0,0,0,0,0,0,0,0,0,0,0,0,0,0,80,
76,0,0,0,0,0,0,0,0,0,0,0,0,0,0,0,0,0,0,80,
106,109,109,109,109,109,109,109,0,0,0,109,109,109,109,109,109,109,109,110
</data>
 </layer>
 <layer id="4" name="props" width="20" height="11">
  <data encoding="csv">
0,0,0,0,0,0,0,0,0,0,0,0,0,0,0,0,0,0,0,0,
0,0,0,0,0,0,0,0,0,0,0,0,78,79,0,0,0,0,0,0,
0,0,0,0,0,0,0,0,0,0,0,0,88,89,0,0,0,0,0,0,
0,0,0,0,0,0,78,79,0,0,0,0,492,492,0,0,0,0,0,0,
0,0,0,0,0,0,88,89,0,0,0,0,492,492,0,0,0,0,0,0,
0,0,0,0,0,0,492,492,0,0,0,0,0,0,0,0,0,0,0,0,
0,0,0,0,0,0,492,492,0,0,0,0,78,79,0,0,0,0,0,0,
0,0,0,0,0,0,0,0,0,0,0,0,88,89,0,0,0,0,0,0,
0,0,0,0,0,0,0,0,0,0,0,0,492,492,0,0,0,0,0,0,
0,0,0,0,0,0,0,0,0,0,0,0,492,492,0,0,0,0,0,0,
0,0,0,0,0,0,0,0,0,0,0,0,0,0,0,0,0,0,0,0
</data>
 </layer>
 <layer id="5" name="overhead" width="20" height="11">
  <data encoding="csv">
0,0,0,0,0,0,0,0,0,0,0,0,0,0,0,0,0,0,0,0,
0,0,0,0,0,0,0,0,0,0,0,0,0,0,0,0,0,0,0,0,
0,0,0,0,0,0,0,0,0,0,0,0,0,0,0,0,0,0,0,0,
0,0,0,0,0,0,0,0,0,0,0,0,0,0,0,0,0,0,0,0,
0,0,0,0,0,0,0,0,0,0,0,0,0,0,0,0,0,0,0,0,
0,0,0,0,0,0,0,0,0,0,0,0,0,0,0,0,0,0,0,0,
0,0,0,0,0,0,0,0,0,0,0,0,0,0,0,0,0,0,0,0,
0,0,0,0,0,0,0,0,0,0,0,0,0,0,0,0,0,0,0,0,
0,0,0,0,0,0,0,0,0,0,0,0,0,0,0,0,0,0,0,0,
0,0,0,0,0,0,0,0,0,0,0,0,0,0,0,0,0,0,0,0,
0,0,0,0,0,0,0,0,0,0,0,0,0,0,0,0,0,0,0,0
</data>
 </layer>
 <objectgroup id="6" name="spawns">
  <object id="1" name="UP" type="ENTRY" x="152" y="24" />
  <object id="2" name="DOWN" type="ENTRY" x="152" y="152" />
  <object id="3" name="LEFT" type="ENTRY" x="24" y="88" />
  <object id="4" name="RIGHT" type="ENTRY" x="296" y="88" />
  <object id="5" name="" type="ENTRY" x="168" y="88" />
  <object id="6" name="" type="ENEMY" x="248" y="56" />
  <object id="7" name="" type="ENEMY" x="72" y="120" />
  <object id="8" name="" type="ENEMY" x="152" y="56" />
  <object id="9" name="" type="ENEMY" x="152" y="120" />
  <object id="10" name="" type="ENEMY" x="136" y="88" />
  <object id="11" name="torch" type="PROP" x="40" y="40" />
 </objectgroup>
</map>